ncols        301
nrows        195
xllcorner    -92.313182000000
yllcorner    35.829066000000
cellsize     0.008333000000
NODATA_value -9
-9 3047 3045 3044 3042 3040 3039 3037 3036 3034 3033 3031 3030 3028 3026 3025 3023 3021 3019 3018 3016 3014 3012 3010 3008 3006 3004 3002 3000 2998 2997 2995 2994 2993 2991 2990 2989 2988 2988 2987 2987 2986 2986 2986 2986 2986 2986 2986 2986 2987 2987 2988 2988 2989 2989 2990 2991 2993 2994 2995 2996 2997 2998 2999 3000 3002 3003 3005 3007 3009 3011 3014 3016 3019 3021 3024 3027 3029 3032 3035 3037 3040 3043 3045 3048 3050 3053 3055 3058 3060 3062 3065 3067 3069 3071 3073 3075 3077 3079 3081 3083 3084 3086 3088 3089 3091 3092 3094 3095 3096 3097 3099 3100 3101 3101 3102 3103 3104 3104 3105 3105 3105 3106 3106 3106 3106 3106 3106 3107 3107 3107 3107 3107 3107 3108 3108 3108 3109 3109 3109 3110 3110 3111 3111 3112 3112 3113 3114 3114 3115 3116 3116 3117 3118 3118 3119 3120 3121 3121 3122 3123 3124 3125 3127 3128 3130 3131 3133 3134 3136 3137 3139 3140 3142 3143 3144 3145 3146 3147 3147 3148 3149 3149 3149 3150 3150 3150 3150 3150 3150 3150 3150 3150 3149 3149 3149 3149 3148 3148 3147 3147 3146 3145 3144 3143 3142 3141 3140 3139 3138 3137 3136 3135 3134 3133 3133 3132 3131 3131 3130 3130 3129 3129 3128 3128 3128 3127 3127 3127 3126 3126 3126 3126 3125 3125 3125 3125 3125 3125 3125 3125 3125 3125 3125 3125 3125 3125 3125 3125 3125 3125 3125 3124 3124 3123 3124 3124 3124 3123 3123 3123 3123 3122 3123 3123 3123 3123 3123 3124 3124 3124 3125 3125 3126 3126 3127 3128 3129 3129 3130 3132 3133 3134 3135 3137 3138 3140 3142 3143 3145 3147 3149 3151 3153 3155 3157 3160 3162 3164 3166 -9 
-9 3046 3045 3043 3041 3040 3038 3037 3035 3034 3032 3030 3029 3027 3026 3024 3022 3021 3019 3017 3015 3013 3011 3009 3007 3005 3003 3001 2999 2997 2996 2994 2993 2991 2990 2989 2988 2987 2987 2986 2985 2985 2985 2985 2985 2985 2985 2985 2985 2986 2986 2986 2987 2988 2988 2989 2990 2992 2993 2994 2995 2996 2997 2999 3000 3002 3002 3004 3006 3009 3011 3014 3016 3019 3022 3025 3028 3030 3033 3036 3039 3042 3045 3047 3050 3053 3055 3058 3060 3063 3066 3068 3070 3072 3074 3077 3079 3081 3083 3084 3086 3088 3090 3092 3093 3095 3096 3098 3099 3100 3101 3102 3104 3104 3105 3106 3107 3108 3108 3109 3109 3109 3109 3110 3110 3110 3110 3110 3110 3110 3110 3110 3111 3111 3111 3111 3112 3112 3112 3113 3113 3114 3114 3115 3115 3116 3116 3117 3118 3118 3119 3119 3120 3121 3121 3122 3123 3124 3124 3125 3126 3127 3128 3130 3131 3132 3134 3136 3137 3139 3140 3141 3143 3145 3146 3147 3148 3148 3149 3150 3150 3151 3151 3152 3152 3152 3152 3152 3152 3152 3152 3152 3152 3152 3151 3151 3151 3151 3150 3150 3149 3149 3148 3147 3146 3145 3144 3143 3142 3141 3140 3139 3138 3137 3136 3136 3135 3135 3134 3133 3133 3132 3132 3131 3131 3131 3130 3130 3130 3130 3129 3129 3129 3129 3129 3129 3128 3128 3128 3128 3128 3128 3128 3128 3128 3128 3128 3128 3128 3128 3128 3128 3128 3127 3127 3127 3127 3127 3127 3127 3127 3126 3126 3126 3126 3127 3127 3127 3127 3128 3128 3129 3129 3130 3130 3131 3132 3133 3134 3135 3136 3137 3138 3139 3141 3142 3144 3146 3147 3149 3151 3153 3155 3157 3159 3161 3163 3166 3168 3170 -9 
-9 3046 3044 3043 3041 3039 3038 3036 3035 3033 3032 3030 3028 3027 3025 3024 3022 3020 3018 3016 3014 3012 3010 3008 3006 3004 3002 3000 2998 2997 2995 2993 2992 2990 2989 2988 2987 2986 2985 2985 2984 2984 2984 2983 2983 2983 2984 2984 2984 2984 2985 2985 2986 2987 2987 2988 2990 2991 2992 2993 2994 2995 2997 2998 3000 3001 3002 3004 3006 3009 3011 3014 3017 3020 3023 3025 3029 3032 3035 3038 3041 3044 3046 3049 3052 3055 3058 3060 3063 3066 3068 3071 3073 3075 3078 3080 3082 3084 3086 3088 3090 3092 3093 3095 3097 3098 3100 3101 3103 3104 3105 3106 3107 3108 3109 3110 3111 3111 3112 3112 3113 3113 3113 3113 3113 3113 3113 3113 3114 3114 3114 3114 3114 3114 3114 3115 3115 3115 3116 3116 3116 3117 3117 3118 3118 3119 3120 3120 3121 3121 3122 3123 3123 3124 3124 3125 3126 3127 3127 3128 3129 3130 3131 3133 3134 3135 3137 3138 3140 3141 3143 3144 3145 3147 3148 3149 3150 3151 3152 3152 3153 3153 3154 3154 3154 3154 3154 3154 3155 3154 3154 3154 3154 3154 3154 3153 3153 3153 3153 3152 3152 3151 3150 3149 3149 3148 3147 3146 3144 3144 3143 3142 3141 3140 3140 3139 3138 3138 3137 3136 3136 3135 3135 3135 3134 3134 3134 3133 3133 3133 3133 3132 3132 3132 3132 3132 3132 3132 3132 3132 3132 3132 3132 3132 3132 3132 3132 3132 3132 3132 3132 3131 3131 3131 3130 3130 3130 3130 3130 3130 3130 3130 3130 3130 3130 3130 3131 3131 3131 3132 3132 3132 3133 3134 3134 3135 3136 3137 3138 3139 3140 3141 3142 3144 3145 3146 3148 3150 3151 3153 3155 3157 3159 3161 3163 3165 3167 3169 3172 3174 -9 
-9 3045 3044 3042 3041 3039 3037 3036 3034 3033 3031 3030 3028 3027 3025 3023 3022 3020 3018 3016 3014 3012 3010 3008 3006 3004 3001 3000 2998 2996 2994 2992 2991 2990 2988 2987 2986 2985 2984 2984 2983 2983 2983 2982 2982 2982 2983 2983 2983 2983 2984 2984 2985 2986 2986 2987 2990 2990 2991 2993 2994 2995 2996 2998 2999 3000 3002 3004 3006 3009 3011 3014 3017 3020 3023 3026 3029 3033 3036 3039 3042 3045 3048 3051 3054 3057 3060 3063 3065 3069 3071 3074 3076 3078 3081 3083 3085 3087 3089 3091 3093 3095 3097 3099 3100 3102 3103 3105 3106 3107 3109 3110 3111 3112 3113 3114 3114 3115 3115 3116 3116 3116 3116 3117 3117 3117 3117 3117 3117 3117 3117 3117 3117 3117 3117 3118 3118 3118 3119 3119 3120 3120 3120 3121 3121 3122 3123 3123 3124 3124 3125 3126 3126 3127 3127 3128 3129 3130 3130 3131 3132 3133 3134 3136 3137 3138 3140 3141 3143 3144 3146 3147 3148 3149 3150 3151 3152 3153 3154 3154 3155 3156 3156 3156 3156 3157 3157 3157 3157 3157 3157 3156 3156 3156 3156 3156 3155 3155 3155 3155 3154 3153 3153 3152 3151 3150 3149 3148 3147 3147 3146 3145 3144 3143 3143 3142 3141 3141 3140 3140 3139 3139 3138 3138 3137 3137 3137 3137 3136 3136 3136 3136 3136 3135 3135 3135 3135 3135 3135 3135 3135 3135 3135 3135 3135 3135 3135 3135 3135 3135 3134 3134 3134 3134 3134 3134 3134 3134 3134 3134 3133 3133 3133 3133 3134 3134 3134 3135 3135 3135 3136 3136 3137 3137 3138 3139 3140 3141 3141 3143 3144 3145 3146 3147 3149 3150 3152 3154 3155 3157 3159 3161 3163 3165 3167 3169 3171 3173 3175 3178 -9 
-9 3045 3043 3042 3040 3039 3037 3036 3034 3033 3031 3030 3028 3026 3025 3023 3021 3020 3018 3016 3014 3012 3010 3007 3005 3003 3001 2999 2997 2995 2993 2992 2990 2989 2987 2986 2985 2984 2984 2983 2982 2982 2982 2982 2981 2982 2982 2982 2982 2983 2983 2984 2984 2985 2986 2986 2987 2990 2991 2992 2993 2995 2996 2996 2998 3000 3002 3004 3006 3009 3012 3015 3018 3021 3024 3027 3030 3034 3037 3040 3044 3047 3050 3053 3056 3059 3062 3065 3068 3071 3074 3076 3079 3081 3084 3086 3088 3090 3092 3094 3096 3098 3100 3102 3104 3105 3107 3108 3110 3111 3112 3113 3114 3115 3116 3117 3118 3118 3119 3119 3119 3120 3120 3120 3120 3120 3120 3120 3120 3120 3120 3120 3120 3120 3120 3121 3121 3121 3122 3122 3123 3123 3123 3124 3124 3125 3126 3126 3127 3127 3128 3129 3129 3130 3130 3131 3132 3132 3133 3134 3135 3136 3137 3138 3140 3141 3143 3144 3145 3147 3148 3150 3151 3152 3153 3154 3155 3156 3156 3157 3157 3158 3158 3159 3159 3159 3159 3159 3159 3159 3159 3159 3159 3158 3158 3158 3158 3158 3157 3157 3156 3156 3155 3155 3154 3153 3152 3151 3150 3150 3149 3148 3147 3146 3146 3145 3144 3144 3143 3143 3142 3142 3141 3141 3141 3140 3140 3140 3140 3139 3139 3139 3139 3139 3139 3138 3138 3138 3138 3138 3138 3138 3138 3138 3138 3138 3138 3138 3138 3138 3138 3138 3138 3137 3137 3137 3138 3138 3137 3137 3137 3137 3137 3137 3137 3137 3138 3138 3139 3139 3140 3140 3141 3141 3142 3143 3143 3144 3145 3146 3148 3149 3150 3151 3153 3154 3156 3158 3159 3161 3163 3165 3167 3169 3171 3173 3175 3177 3179 3181 -9 
-9 3045 3043 3042 3040 3039 3037 3035 3034 3032 3031 3029 3028 3026 3025 3023 3021 3020 3018 3016 3014 3012 3009 3007 3005 3003 3001 2999 2997 2995 2993 2991 2990 2988 2987 2986 2985 2984 2983 2982 2982 2981 2981 2981 2981 2981 2981 2981 2982 2982 2982 2983 2984 2984 2985 2986 2987 2988 2989 2990 2991 2993 2994 2996 2998 3000 3002 3004 3007 3009 3012 3015 3018 3021 3025 3028 3032 3035 3038 3042 3045 3049 3052 3055 3058 3061 3064 3067 3071 3074 3076 3079 3082 3084 3087 3089 3091 3093 3096 3098 3100 3102 3103 3105 3107 3109 3110 3112 3113 3114 3116 3117 3118 3119 3120 3120 3121 3121 3122 3122 3123 3123 3123 3123 3123 3123 3123 3123 3123 3123 3123 3123 3123 3123 3123 3124 3124 3124 3125 3125 3125 3126 3126 3127 3127 3128 3128 3129 3130 3130 3131 3131 3132 3133 3133 3134 3134 3135 3136 3137 3138 3139 3140 3141 3142 3144 3145 3147 3148 3150 3151 3152 3154 3155 3156 3157 3157 3158 3159 3159 3160 3160 3161 3161 3161 3161 3161 3161 3161 3161 3161 3161 3161 3161 3161 3160 3160 3160 3160 3159 3159 3158 3158 3157 3156 3156 3155 3154 3153 3153 3152 3151 3150 3150 3149 3148 3148 3147 3147 3146 3146 3145 3145 3144 3144 3144 3143 3143 3143 3143 3142 3142 3142 3142 3142 3142 3142 3142 3142 3141 3141 3141 3142 3142 3142 3142 3142 3142 3142 3141 3141 3141 3141 3141 3141 3141 3141 3141 3141 3141 3140 3140 3140 3141 3141 3141 3141 3142 3142 3143 3143 3144 3144 3145 3146 3146 3147 3148 3149 3150 3151 3153 3154 3155 3157 3158 3160 3161 3163 3165 3167 3168 3170 3172 3174 3176 3178 3180 3182 3185 -9 
-9 3045 3043 3042 3040 3039 3037 3036 3034 3033 3031 3030 3028 3027 3025 3023 3022 3020 3018 3016 3014 3012 3009 3007 3005 3003 3001 2999 2997 2995 2993 2991 2989 2988 2986 2985 2984 2983 2982 2982 2981 2981 2980 2980 2980 2980 2980 2981 2981 2981 2982 2983 2983 2984 2985 2985 2986 2987 2989 2990 2991 2992 2994 2996 2998 3000 3002 3004 3007 3010 3013 3016 3019 3022 3026 3029 3033 3036 3040 3043 3047 3050 3054 3057 3060 3063 3067 3070 3073 3076 3079 3082 3084 3087 3089 3092 3094 3096 3098 3101 3103 3105 3106 3108 3110 3112 3113 3116 3118 3119 3120 3121 3122 3123 3124 3125 3126 3126 3126 3127 3127 3127 3127 3127 3127 3127 3127 3126 3126 3126 3126 3126 3126 3126 3126 3126 3127 3127 3127 3128 3128 3128 3129 3129 3130 3131 3131 3132 3132 3133 3133 3134 3135 3135 3136 3136 3137 3138 3139 3140 3141 3142 3143 3144 3145 3147 3148 3149 3151 3152 3154 3155 3156 3157 3158 3159 3160 3161 3161 3162 3162 3163 3163 3163 3164 3164 3164 3164 3164 3164 3164 3163 3163 3163 3163 3163 3163 3162 3162 3162 3161 3161 3160 3160 3159 3159 3158 3157 3156 3155 3155 3154 3153 3153 3152 3151 3151 3150 3150 3149 3149 3148 3148 3147 3147 3147 3146 3146 3146 3146 3146 3145 3145 3145 3145 3145 3145 3145 3145 3145 3145 3145 3145 3145 3145 3145 3145 3145 3145 3144 3144 3144 3144 3144 3144 3145 3144 3144 3144 3144 3144 3144 3144 3144 3144 3145 3145 3145 3146 3146 3147 3147 3148 3149 3149 3150 3151 3152 3153 3154 3155 3156 3158 3159 3160 3162 3163 3165 3167 3169 3170 3172 3174 3176 3178 3180 3182 3184 3186 3188 -9 
-9 3045 3043 3042 3040 3039 3037 3036 3034 3033 3031 3030 3028 3027 3025 3024 3022 3020 3018 3016 3014 3012 3010 3007 3005 3003 3001 2999 2997 2995 2993 2991 2989 2988 2986 2985 2984 2983 2982 2981 2981 2980 2980 2980 2980 2980 2980 2980 2981 2981 2982 2982 2983 2984 2984 2985 2986 2987 2988 2990 2991 2992 2994 2996 2998 3000 3002 3005 3007 3010 3013 3016 3020 3023 3027 3030 3034 3037 3041 3045 3048 3052 3055 3059 3062 3066 3069 3073 3076 3079 3081 3084 3087 3090 3092 3094 3097 3099 3101 3103 3105 3107 3109 3111 3113 3116 3118 3119 3121 3122 3123 3124 3125 3126 3127 3128 3129 3129 3129 3130 3130 3130 3130 3130 3130 3129 3129 3129 3129 3129 3129 3129 3129 3129 3129 3129 3129 3129 3130 3130 3131 3131 3131 3132 3133 3133 3134 3134 3135 3135 3136 3137 3137 3138 3138 3139 3140 3141 3141 3142 3143 3144 3145 3147 3148 3149 3151 3152 3154 3155 3156 3158 3159 3160 3161 3162 3162 3163 3164 3164 3165 3165 3166 3166 3166 3166 3166 3166 3166 3166 3166 3166 3166 3166 3165 3165 3165 3165 3165 3164 3164 3164 3163 3162 3162 3161 3161 3160 3159 3158 3158 3157 3156 3156 3155 3155 3154 3153 3153 3152 3152 3152 3151 3151 3150 3150 3150 3149 3149 3149 3149 3149 3149 3149 3148 3148 3148 3148 3148 3148 3148 3148 3148 3148 3148 3148 3148 3148 3148 3148 3148 3148 3147 3147 3148 3148 3148 3148 3148 3148 3148 3148 3147 3148 3148 3148 3148 3149 3149 3150 3150 3151 3152 3152 3153 3154 3155 3156 3157 3158 3159 3160 3161 3163 3164 3166 3167 3169 3170 3172 3174 3176 3178 3179 3181 3183 3185 3187 3189 3191 -9 
-9 3045 3043 3042 3040 3039 3037 3036 3035 3033 3032 3030 3029 3027 3026 3024 3022 3020 3018 3016 3014 3012 3010 3008 3005 3003 3001 2999 2997 2995 2993 2991 2989 2988 2986 2985 2984 2983 2982 2981 2981 2980 2980 2980 2980 2980 2980 2980 2981 2981 2982 2982 2983 2984 2984 2985 2986 2987 2988 2990 2991 2993 2994 2996 2998 3000 3002 3005 3008 3011 3014 3017 3020 3024 3028 3031 3035 3039 3042 3046 3050 3054 3057 3061 3065 3068 3072 3075 3078 3081 3084 3087 3089 3092 3095 3097 3100 3102 3104 3106 3108 3110 3112 3114 3117 3119 3121 3122 3124 3125 3126 3127 3128 3129 3130 3131 3131 3132 3132 3132 3133 3133 3132 3132 3132 3132 3132 3132 3131 3131 3131 3131 3131 3131 3131 3131 3132 3132 3132 3132 3133 3133 3134 3134 3135 3135 3136 3137 3137 3138 3138 3139 3140 3140 3141 3142 3142 3143 3144 3145 3146 3147 3148 3149 3151 3152 3153 3155 3156 3158 3159 3160 3161 3162 3163 3164 3165 3166 3166 3167 3167 3168 3168 3168 3169 3169 3169 3169 3169 3169 3169 3168 3168 3168 3168 3168 3168 3167 3167 3167 3166 3166 3165 3165 3165 3164 3163 3163 3162 3161 3160 3160 3159 3159 3158 3158 3157 3157 3156 3156 3155 3155 3154 3154 3153 3153 3153 3153 3152 3152 3152 3152 3152 3152 3152 3152 3152 3151 3151 3151 3151 3151 3151 3151 3151 3151 3151 3151 3152 3152 3151 3151 3151 3151 3151 3151 3151 3151 3151 3151 3151 3151 3151 3151 3151 3152 3152 3152 3153 3153 3154 3154 3155 3156 3157 3157 3158 3159 3160 3161 3162 3164 3165 3166 3168 3169 3171 3172 3174 3176 3177 3179 3181 3183 3185 3187 3189 3191 3192 3194 -9 
-9 3045 3044 3042 3041 3039 3038 3036 3035 3034 3032 3031 3029 3028 3026 3024 3023 3021 3019 3017 3015 3013 3010 3008 3006 3004 3001 2999 2997 2995 2993 2991 2990 2988 2987 2985 2984 2983 2982 2981 2981 2980 2980 2980 2980 2980 2980 2980 2981 2981 2982 2982 2983 2984 2984 2985 2986 2987 2989 2990 2991 2993 2995 2996 2998 3001 3003 3006 3008 3011 3014 3018 3021 3025 3029 3032 3036 3040 3044 3048 3052 3055 3059 3063 3067 3070 3074 3077 3080 3083 3086 3089 3092 3095 3097 3100 3102 3104 3107 3109 3111 3115 3117 3118 3120 3122 3124 3125 3126 3128 3129 3130 3131 3132 3133 3134 3134 3135 3135 3135 3135 3135 3135 3135 3135 3134 3134 3134 3134 3134 3133 3133 3133 3133 3133 3134 3134 3134 3134 3135 3135 3136 3136 3137 3137 3138 3138 3139 3140 3140 3141 3141 3142 3143 3143 3144 3145 3146 3146 3147 3148 3149 3151 3152 3153 3155 3156 3157 3159 3160 3161 3163 3164 3165 3166 3167 3168 3168 3169 3169 3170 3170 3171 3171 3171 3171 3171 3171 3171 3171 3171 3171 3171 3171 3170 3170 3170 3170 3170 3169 3169 3169 3168 3167 3167 3167 3166 3165 3165 3164 3163 3163 3162 3162 3161 3161 3160 3160 3159 3159 3158 3158 3157 3157 3157 3156 3156 3156 3156 3155 3155 3155 3155 3155 3155 3155 3155 3155 3154 3154 3154 3154 3154 3155 3155 3155 3155 3155 3155 3155 3155 3155 3155 3155 3154 3154 3154 3154 3154 3154 3154 3154 3154 3155 3155 3155 3155 3156 3156 3157 3157 3158 3159 3159 3160 3161 3162 3163 3164 3165 3166 3167 3168 3170 3171 3173 3174 3176 3177 3179 3181 3183 3184 3186 3188 3190 3192 3194 3196 3198 -9 
-9 3046 3044 3043 3041 3040 3038 3037 3036 3034 3033 3031 3030 3028 3027 3025 3023 3022 3020 3018 3016 3013 3011 3009 3006 3004 3002 3000 2998 2996 2994 2992 2990 2988 2987 2986 2984 2983 2982 2982 2981 2981 2980 2980 2980 2980 2980 2981 2981 2981 2982 2982 2983 2984 2985 2986 2987 2988 2989 2990 2992 2993 2995 2997 2999 3001 3004 3006 3009 3012 3015 3019 3022 3026 3030 3034 3038 3041 3045 3049 3053 3057 3061 3065 3069 3072 3076 3079 3082 3086 3089 3091 3094 3097 3100 3102 3105 3107 3111 3113 3115 3117 3119 3121 3123 3125 3126 3128 3129 3131 3132 3133 3134 3135 3136 3136 3137 3137 3137 3138 3138 3138 3137 3137 3137 3137 3136 3136 3136 3136 3136 3135 3135 3135 3135 3136 3136 3136 3136 3137 3137 3138 3138 3139 3139 3140 3141 3141 3142 3142 3143 3143 3144 3145 3146 3146 3147 3148 3149 3150 3151 3152 3153 3154 3156 3157 3158 3160 3161 3163 3164 3165 3166 3167 3168 3169 3170 3171 3171 3172 3172 3173 3173 3173 3174 3174 3174 3174 3174 3174 3174 3174 3173 3173 3173 3173 3173 3173 3172 3172 3172 3171 3171 3170 3170 3169 3169 3168 3167 3167 3166 3166 3165 3165 3164 3164 3163 3163 3162 3162 3161 3161 3160 3160 3160 3159 3159 3159 3159 3159 3158 3158 3158 3158 3158 3158 3158 3158 3158 3158 3158 3158 3158 3158 3158 3158 3158 3158 3158 3158 3158 3158 3158 3158 3158 3158 3157 3157 3157 3157 3157 3158 3158 3158 3158 3158 3159 3159 3160 3160 3161 3161 3162 3163 3163 3164 3165 3166 3167 3168 3169 3171 3172 3173 3175 3176 3178 3179 3181 3182 3184 3186 3188 3189 3191 3193 3195 3197 3199 3201 -9 
-9 3046 3045 3043 3042 3040 3039 3038 3036 3035 3033 3032 3031 3029 3027 3026 3024 3022 3020 3018 3016 3014 3012 3010 3007 3005 3003 3000 2998 2996 2994 2992 2991 2989 2988 2986 2985 2984 2983 2982 2982 2981 2981 2981 2981 2981 2981 2981 2981 2982 2982 2983 2984 2984 2985 2986 2987 2988 2990 2991 2992 2994 2996 2997 3000 3002 3004 3007 3010 3013 3016 3020 3023 3027 3031 3035 3039 3043 3047 3051 3055 3059 3063 3067 3071 3074 3078 3081 3085 3088 3091 3094 3097 3099 3102 3105 3107 3111 3113 3116 3118 3120 3122 3124 3126 3127 3129 3130 3132 3133 3134 3135 3136 3137 3138 3139 3139 3140 3140 3140 3140 3140 3140 3139 3139 3139 3139 3138 3138 3138 3138 3137 3137 3137 3137 3138 3138 3138 3138 3139 3139 3140 3140 3141 3141 3142 3143 3143 3144 3145 3145 3146 3146 3147 3148 3149 3149 3150 3151 3152 3153 3154 3156 3157 3158 3160 3161 3162 3164 3165 3166 3168 3169 3170 3171 3172 3173 3173 3174 3174 3175 3175 3176 3176 3176 3176 3176 3177 3176 3176 3176 3176 3176 3176 3176 3176 3175 3175 3175 3175 3174 3174 3173 3173 3172 3172 3171 3171 3170 3169 3169 3168 3168 3167 3167 3166 3166 3165 3165 3165 3164 3164 3163 3163 3163 3163 3162 3162 3162 3162 3161 3161 3161 3161 3161 3161 3161 3161 3161 3161 3161 3161 3161 3161 3161 3161 3161 3161 3161 3161 3161 3161 3161 3161 3161 3161 3161 3161 3161 3161 3161 3161 3161 3161 3161 3162 3162 3163 3163 3163 3164 3165 3165 3166 3167 3168 3169 3170 3171 3172 3173 3174 3175 3177 3178 3179 3181 3182 3184 3186 3187 3189 3191 3193 3194 3196 3198 3200 3202 3204 -9 
-9 3047 3045 3044 3043 3041 3040 3038 3037 3036 3034 3033 3031 3030 3028 3027 3025 3023 3021 3019 3017 3015 3013 3010 3008 3006 3004 3001 2999 2997 2995 2993 2991 2990 2988 2987 2986 2985 2984 2983 2982 2982 2981 2981 2981 2981 2981 2982 2982 2982 2983 2983 2984 2985 2986 2987 2988 2989 2990 2992 2993 2995 2996 2998 3000 3003 3005 3008 3011 3014 3017 3021 3024 3028 3032 3036 3040 3044 3048 3052 3057 3060 3065 3069 3073 3076 3080 3083 3087 3090 3093 3096 3099 3102 3104 3107 3109 3113 3116 3118 3120 3122 3124 3126 3128 3130 3131 3133 3134 3136 3137 3138 3139 3140 3140 3141 3141 3142 3142 3142 3142 3142 3142 3142 3141 3141 3141 3140 3140 3140 3139 3139 3139 3139 3139 3139 3140 3140 3140 3141 3141 3141 3142 3142 3143 3144 3144 3145 3146 3146 3147 3148 3148 3149 3150 3151 3152 3152 3153 3154 3155 3157 3158 3159 3161 3162 3163 3165 3166 3168 3169 3170 3171 3172 3173 3174 3175 3176 3176 3177 3178 3178 3178 3179 3179 3179 3179 3179 3179 3179 3179 3179 3179 3179 3179 3178 3178 3178 3178 3177 3177 3177 3176 3176 3175 3175 3174 3174 3173 3172 3172 3171 3171 3170 3170 3169 3169 3168 3168 3167 3167 3167 3166 3166 3166 3165 3165 3165 3165 3165 3164 3164 3164 3164 3164 3164 3164 3164 3164 3164 3164 3164 3164 3164 3164 3164 3164 3164 3164 3164 3164 3164 3164 3164 3164 3164 3164 3164 3164 3164 3164 3164 3164 3164 3165 3165 3165 3166 3166 3167 3167 3168 3169 3169 3170 3171 3172 3173 3174 3175 3176 3177 3178 3180 3181 3183 3184 3186 3187 3189 3191 3192 3194 3196 3197 3199 3201 3203 3205 3206 -9 
-9 3047 3046 3045 3043 3042 3041 3039 3038 3037 3035 3034 3032 3031 3029 3028 3026 3024 3022 3020 3018 3016 3014 3012 3009 3007 3005 3002 3000 2998 2996 2994 2992 2991 2989 2988 2987 2986 2985 2984 2983 2983 2982 2982 2982 2982 2982 2982 2983 2983 2984 2984 2985 2986 2987 2987 2989 2990 2991 2992 2994 2995 2997 2999 3001 3004 3006 3009 3012 3015 3018 3022 3026 3029 3033 3037 3042 3046 3050 3054 3058 3063 3067 3071 3074 3078 3082 3085 3089 3092 3095 3098 3101 3104 3107 3109 3113 3116 3118 3120 3123 3125 3127 3128 3130 3132 3134 3135 3137 3138 3139 3140 3141 3142 3143 3143 3144 3144 3144 3144 3144 3144 3144 3144 3143 3143 3143 3142 3142 3142 3141 3141 3141 3141 3141 3141 3141 3142 3142 3142 3143 3143 3144 3144 3145 3145 3146 3147 3147 3148 3149 3150 3150 3151 3152 3153 3154 3155 3156 3157 3158 3159 3160 3162 3163 3164 3166 3167 3169 3170 3171 3173 3174 3175 3176 3177 3178 3178 3179 3180 3180 3181 3181 3181 3182 3182 3182 3182 3182 3182 3182 3182 3182 3182 3181 3181 3181 3181 3181 3180 3180 3179 3179 3178 3178 3177 3177 3176 3176 3175 3174 3174 3173 3173 3172 3172 3171 3171 3171 3170 3170 3170 3169 3169 3169 3168 3168 3168 3168 3168 3167 3167 3167 3167 3167 3167 3167 3167 3167 3167 3167 3167 3167 3167 3167 3167 3167 3167 3167 3167 3167 3167 3167 3167 3167 3167 3167 3167 3167 3167 3167 3167 3167 3167 3168 3168 3168 3169 3169 3170 3170 3171 3172 3173 3173 3174 3175 3176 3177 3178 3179 3180 3182 3183 3184 3186 3187 3189 3190 3192 3194 3195 3197 3199 3200 3202 3204 3206 3208 3209 -9 
-9 3048 3047 3045 3044 3043 3042 3040 3039 3038 3036 3035 3033 3032 3030 3029 3027 3025 3024 3022 3019 3017 3015 3013 3010 3008 3006 3003 3001 2999 2997 2995 2993 2992 2990 2989 2988 2987 2986 2985 2984 2984 2983 2983 2983 2983 2983 2983 2983 2984 2984 2985 2986 2987 2987 2988 2989 2991 2992 2993 2995 2996 2998 3000 3002 3004 3007 3010 3013 3016 3019 3023 3027 3031 3035 3039 3043 3047 3051 3056 3060 3064 3068 3072 3076 3080 3084 3087 3091 3094 3097 3100 3103 3106 3109 3111 3114 3118 3120 3123 3125 3127 3129 3131 3133 3134 3136 3137 3139 3140 3141 3142 3143 3144 3145 3145 3146 3146 3146 3146 3146 3146 3146 3146 3145 3145 3144 3144 3144 3143 3143 3143 3143 3143 3143 3143 3143 3143 3144 3144 3144 3145 3145 3146 3146 3147 3148 3148 3149 3150 3151 3151 3152 3153 3154 3155 3156 3157 3158 3159 3160 3161 3163 3164 3165 3167 3168 3170 3171 3173 3174 3175 3176 3177 3178 3179 3180 3181 3182 3182 3183 3183 3184 3184 3184 3184 3185 3185 3185 3185 3185 3185 3185 3184 3184 3184 3184 3184 3183 3183 3183 3182 3182 3181 3181 3180 3179 3179 3178 3178 3177 3177 3176 3176 3175 3175 3174 3174 3173 3173 3173 3172 3172 3172 3171 3171 3171 3171 3170 3170 3170 3170 3170 3170 3170 3170 3170 3170 3170 3170 3170 3170 3170 3170 3170 3170 3170 3170 3171 3171 3170 3170 3170 3170 3170 3170 3170 3170 3170 3170 3170 3170 3170 3171 3171 3171 3172 3172 3173 3173 3174 3174 3175 3176 3176 3177 3178 3179 3180 3181 3182 3183 3185 3186 3187 3189 3190 3192 3193 3195 3197 3198 3200 3202 3203 3205 3207 3208 3210 3212 -9 
-9 3049 3048 3046 3045 3044 3043 3041 3040 3039 3037 3036 3035 3033 3032 3030 3028 3027 3025 3023 3021 3019 3016 3014 3012 3009 3007 3005 3003 3000 2998 2997 2995 2993 2991 2990 2989 2988 2987 2986 2985 2985 2984 2984 2984 2984 2984 2984 2984 2985 2985 2986 2987 2987 2988 2989 2990 2992 2993 2994 2996 2997 2999 3001 3003 3006 3008 3011 3014 3017 3021 3024 3028 3032 3036 3040 3044 3049 3053 3057 3061 3066 3070 3074 3078 3082 3086 3089 3093 3096 3099 3102 3105 3108 3111 3113 3116 3120 3122 3125 3127 3129 3131 3133 3135 3136 3138 3139 3141 3142 3143 3144 3145 3146 3147 3147 3148 3148 3148 3148 3148 3148 3148 3147 3147 3147 3146 3146 3145 3145 3145 3145 3144 3144 3144 3144 3145 3145 3145 3145 3146 3146 3147 3147 3148 3149 3149 3150 3151 3152 3152 3153 3154 3155 3156 3157 3158 3159 3160 3161 3162 3163 3165 3166 3168 3169 3171 3172 3174 3175 3176 3178 3179 3180 3181 3182 3183 3184 3184 3185 3186 3186 3186 3187 3187 3187 3187 3187 3188 3188 3188 3188 3187 3187 3187 3187 3187 3186 3186 3186 3185 3185 3184 3184 3183 3183 3182 3182 3181 3180 3180 3179 3179 3178 3178 3177 3177 3176 3176 3176 3175 3175 3175 3174 3174 3174 3174 3173 3173 3173 3173 3173 3173 3173 3173 3173 3173 3173 3173 3173 3173 3173 3173 3173 3173 3173 3173 3174 3174 3174 3174 3173 3173 3173 3173 3173 3173 3173 3173 3173 3173 3173 3173 3174 3174 3174 3175 3175 3176 3176 3177 3177 3178 3179 3180 3180 3181 3182 3183 3184 3185 3186 3188 3189 3190 3192 3193 3195 3196 3198 3199 3201 3203 3204 3206 3208 3209 3211 3213 3215 -9 
-9 3050 3049 3047 3046 3045 3044 3042 3041 3040 3039 3037 3036 3034 3033 3031 3030 3028 3026 3024 3022 3020 3018 3015 3013 3011 3008 3006 3004 3002 3000 2998 2996 2994 2993 2991 2990 2989 2988 2987 2986 2986 2985 2985 2985 2985 2985 2985 2986 2986 2986 2987 2988 2989 2989 2990 2991 2993 2994 2995 2997 2998 3000 3002 3004 3007 3009 3012 3015 3018 3022 3025 3029 3033 3037 3041 3046 3050 3054 3059 3063 3067 3072 3076 3080 3084 3087 3091 3094 3098 3101 3104 3107 3110 3112 3115 3118 3120 3122 3125 3127 3129 3131 3133 3137 3138 3140 3141 3143 3144 3145 3146 3147 3148 3149 3149 3150 3150 3150 3150 3150 3150 3150 3149 3149 3148 3148 3147 3147 3147 3146 3146 3146 3146 3146 3146 3146 3146 3147 3147 3147 3148 3148 3149 3150 3150 3151 3152 3152 3153 3154 3155 3156 3157 3157 3158 3159 3161 3162 3163 3164 3166 3167 3169 3170 3172 3173 3175 3176 3177 3179 3180 3181 3182 3183 3184 3185 3186 3187 3188 3188 3189 3189 3189 3190 3190 3190 3190 3190 3190 3190 3190 3190 3190 3190 3190 3190 3189 3189 3189 3188 3188 3187 3187 3186 3186 3185 3184 3184 3183 3182 3182 3181 3181 3180 3180 3179 3179 3179 3178 3178 3178 3177 3177 3177 3176 3176 3176 3176 3176 3176 3176 3176 3176 3176 3176 3176 3176 3176 3176 3176 3176 3176 3176 3176 3176 3176 3176 3177 3177 3176 3176 3176 3176 3176 3176 3176 3176 3176 3176 3176 3176 3176 3176 3177 3177 3178 3178 3179 3179 3180 3180 3181 3182 3183 3183 3184 3185 3186 3187 3188 3189 3191 3192 3193 3195 3196 3197 3199 3201 3202 3204 3205 3207 3209 3210 3212 3214 3216 3217 -9 
-9 3051 3050 3048 3047 3046 3045 3044 3042 3041 3040 3039 3037 3036 3034 3033 3031 3029 3028 3026 3024 3021 3019 3017 3015 3012 3010 3008 3005 3003 3001 2999 2997 2996 2994 2993 2991 2990 2989 2988 2988 2987 2987 2986 2986 2986 2986 2986 2987 2987 2988 2988 2989 2990 2991 2992 2993 2994 2995 2996 2998 2999 3001 3003 3005 3008 3010 3013 3016 3020 3023 3027 3031 3035 3039 3043 3047 3051 3056 3060 3064 3069 3073 3077 3081 3085 3089 3092 3096 3099 3103 3106 3109 3111 3114 3117 3119 3122 3124 3126 3129 3131 3133 3134 3136 3138 3142 3143 3145 3146 3147 3148 3149 3150 3151 3151 3151 3152 3152 3152 3152 3152 3151 3151 3150 3150 3149 3149 3149 3148 3148 3148 3147 3147 3147 3147 3148 3148 3148 3148 3149 3149 3150 3150 3151 3152 3152 3153 3154 3155 3156 3156 3157 3158 3159 3160 3161 3162 3164 3165 3166 3168 3169 3171 3172 3174 3175 3177 3178 3180 3181 3183 3184 3185 3186 3187 3188 3188 3189 3190 3190 3191 3191 3192 3192 3193 3193 3193 3193 3193 3193 3193 3193 3193 3193 3192 3192 3192 3192 3191 3191 3190 3190 3189 3189 3188 3188 3187 3186 3186 3185 3184 3184 3183 3183 3182 3182 3182 3181 3181 3180 3180 3180 3180 3179 3179 3179 3179 3179 3179 3179 3179 3179 3179 3179 3179 3179 3179 3179 3179 3179 3179 3179 3179 3179 3179 3179 3179 3179 3179 3179 3179 3179 3179 3179 3179 3179 3179 3179 3179 3179 3179 3179 3179 3180 3180 3180 3181 3181 3182 3183 3183 3184 3185 3185 3186 3187 3188 3189 3190 3191 3192 3193 3195 3196 3197 3199 3200 3202 3203 3205 3207 3208 3210 3211 3213 3215 3216 3218 3220 -9 
-9 3052 3051 3050 3048 3047 3046 3045 3044 3042 3041 3040 3039 3037 3036 3034 3033 3031 3029 3027 3025 3023 3021 3018 3016 3014 3011 3009 3007 3005 3003 3001 2999 2997 2996 2994 2993 2992 2991 2990 2989 2989 2988 2988 2988 2988 2988 2988 2988 2988 2989 2990 2990 2991 2992 2993 2994 2995 2996 2998 2999 3001 3002 3004 3007 3009 3012 3014 3017 3021 3024 3028 3032 3036 3040 3044 3048 3053 3057 3061 3066 3070 3075 3079 3083 3087 3090 3094 3098 3101 3104 3107 3110 3113 3116 3118 3121 3123 3126 3128 3130 3132 3134 3136 3138 3140 3141 3143 3144 3146 3149 3150 3151 3152 3152 3153 3153 3153 3153 3153 3153 3153 3153 3152 3152 3152 3151 3151 3150 3150 3149 3149 3149 3149 3149 3149 3149 3149 3150 3150 3150 3151 3151 3152 3153 3153 3154 3155 3156 3156 3157 3158 3159 3160 3161 3162 3163 3164 3166 3167 3168 3170 3171 3173 3175 3176 3178 3179 3181 3182 3184 3185 3186 3187 3188 3189 3190 3191 3192 3192 3193 3194 3194 3194 3195 3195 3195 3196 3196 3196 3196 3196 3196 3196 3195 3195 3195 3195 3194 3194 3193 3193 3192 3192 3191 3191 3190 3190 3189 3188 3188 3187 3186 3186 3185 3185 3184 3184 3184 3183 3183 3183 3182 3182 3182 3182 3182 3181 3181 3181 3181 3181 3181 3181 3181 3181 3181 3181 3181 3182 3182 3182 3182 3182 3182 3182 3182 3182 3182 3182 3182 3182 3182 3182 3182 3182 3181 3181 3181 3181 3182 3182 3182 3182 3183 3183 3183 3184 3184 3185 3186 3186 3187 3188 3188 3189 3190 3191 3192 3193 3194 3195 3196 3198 3199 3200 3202 3203 3204 3206 3208 3209 3211 3212 3214 3216 3217 3219 3221 3222 -9 
-9 3053 3052 3051 3050 3049 3047 3046 3045 3044 3043 3041 3040 3039 3037 3036 3034 3032 3031 3029 3027 3025 3022 3020 3018 3015 3013 3011 3009 3006 3004 3002 3001 2999 2997 2996 2995 2993 2992 2991 2991 2990 2990 2989 2989 2989 2989 2989 2989 2990 2990 2991 2991 2992 2993 2994 2995 2996 2997 2999 3000 3002 3004 3006 3008 3010 3013 3016 3019 3022 3026 3029 3033 3037 3041 3045 3050 3054 3058 3063 3067 3072 3076 3080 3084 3088 3092 3096 3099 3102 3106 3109 3112 3115 3117 3120 3122 3125 3127 3129 3132 3134 3136 3138 3139 3141 3143 3144 3146 3147 3148 3149 3152 3153 3154 3154 3155 3155 3155 3155 3155 3155 3154 3154 3153 3153 3153 3152 3152 3151 3151 3151 3150 3150 3150 3150 3150 3151 3151 3151 3152 3152 3153 3153 3154 3155 3155 3156 3157 3158 3159 3160 3161 3162 3163 3164 3165 3166 3168 3169 3170 3172 3173 3175 3177 3178 3180 3182 3183 3184 3186 3187 3188 3189 3190 3192 3192 3193 3194 3195 3196 3196 3197 3197 3197 3198 3198 3198 3198 3198 3198 3199 3199 3198 3198 3198 3198 3197 3197 3196 3196 3196 3195 3194 3194 3193 3193 3192 3191 3191 3190 3189 3189 3188 3188 3187 3187 3186 3186 3186 3185 3185 3185 3185 3184 3184 3184 3184 3184 3184 3184 3184 3184 3184 3184 3184 3184 3184 3184 3184 3184 3184 3185 3185 3185 3185 3185 3185 3185 3185 3185 3185 3185 3185 3185 3184 3184 3184 3184 3184 3184 3184 3185 3185 3185 3186 3186 3187 3187 3188 3188 3189 3190 3190 3191 3192 3193 3194 3195 3196 3197 3198 3199 3200 3201 3203 3204 3206 3207 3209 3210 3212 3213 3215 3217 3218 3220 3221 3223 3225 -9 
-9 3054 3053 3052 3051 3050 3049 3048 3047 3045 3044 3043 3042 3040 3039 3037 3036 3034 3032 3030 3028 3026 3024 3022 3019 3017 3015 3013 3010 3008 3006 3004 3002 3001 2999 2998 2996 2995 2994 2993 2992 2992 2991 2991 2991 2991 2991 2991 2991 2991 2992 2992 2993 2994 2994 2995 2996 2998 2999 3000 3002 3003 3005 3007 3009 3012 3014 3017 3020 3023 3027 3031 3034 3038 3043 3047 3051 3055 3060 3064 3068 3073 3077 3082 3086 3090 3093 3097 3100 3104 3107 3110 3113 3116 3119 3121 3124 3126 3129 3131 3133 3135 3137 3139 3141 3142 3144 3146 3147 3148 3150 3151 3152 3152 3153 3154 3154 3156 3156 3156 3156 3156 3156 3155 3155 3154 3154 3153 3153 3153 3152 3152 3152 3152 3152 3152 3152 3152 3152 3153 3153 3154 3154 3155 3156 3156 3157 3158 3159 3159 3160 3161 3162 3163 3165 3166 3167 3168 3170 3171 3172 3174 3176 3177 3179 3181 3182 3184 3185 3187 3188 3189 3191 3192 3193 3194 3195 3196 3197 3197 3198 3199 3199 3199 3200 3200 3200 3200 3201 3201 3201 3201 3200 3200 3201 3201 3200 3200 3200 3199 3199 3198 3198 3197 3196 3196 3195 3195 3194 3193 3192 3192 3191 3191 3190 3190 3189 3189 3188 3188 3188 3187 3187 3187 3187 3187 3186 3186 3186 3186 3186 3186 3186 3186 3186 3186 3187 3187 3187 3187 3187 3187 3187 3187 3188 3188 3188 3188 3188 3188 3188 3188 3188 3187 3187 3187 3187 3187 3187 3187 3187 3187 3187 3188 3188 3189 3189 3189 3190 3191 3191 3192 3192 3193 3194 3195 3196 3197 3197 3198 3199 3201 3202 3203 3204 3205 3207 3208 3210 3211 3213 3214 3216 3217 3219 3221 3222 3224 3225 3227 -9 
-9 3055 3054 3053 3052 3051 3050 3049 3048 3047 3046 3045 3043 3042 3041 3039 3038 3036 3034 3032 3030 3028 3026 3024 3021 3019 3017 3014 3012 3010 3008 3006 3004 3002 3001 2999 2998 2997 2996 2995 2994 2993 2993 2993 2992 2992 2992 2992 2992 2993 2993 2994 2994 2995 2996 2997 2998 2999 3000 3002 3003 3005 3006 3008 3011 3013 3016 3018 3021 3025 3028 3032 3036 3040 3044 3048 3052 3057 3061 3065 3070 3074 3079 3083 3087 3091 3095 3098 3102 3105 3108 3111 3114 3117 3120 3123 3125 3128 3130 3132 3134 3136 3138 3140 3142 3144 3145 3147 3148 3150 3151 3152 3153 3154 3154 3155 3156 3156 3156 3156 3156 3157 3157 3157 3156 3156 3155 3155 3154 3154 3154 3153 3153 3153 3153 3153 3153 3154 3154 3154 3155 3155 3156 3156 3157 3158 3159 3159 3160 3161 3162 3163 3164 3165 3166 3167 3169 3170 3171 3173 3174 3176 3178 3179 3181 3183 3184 3186 3187 3189 3190 3192 3193 3194 3195 3196 3197 3198 3199 3200 3200 3201 3201 3202 3202 3203 3203 3203 3203 3203 3203 3203 3203 3203 3203 3202 3202 3203 3202 3202 3201 3201 3200 3200 3199 3198 3198 3197 3196 3196 3195 3194 3194 3193 3193 3192 3192 3191 3191 3190 3190 3190 3190 3189 3189 3189 3189 3189 3189 3189 3189 3189 3189 3189 3189 3189 3189 3189 3189 3190 3190 3190 3190 3190 3190 3190 3190 3191 3191 3191 3190 3190 3190 3190 3190 3190 3190 3190 3190 3190 3190 3190 3190 3190 3191 3191 3192 3192 3193 3193 3194 3195 3195 3196 3197 3197 3198 3199 3200 3201 3202 3203 3204 3205 3207 3208 3209 3211 3212 3214 3215 3217 3218 3220 3221 3223 3224 3226 3228 3229 -9 
-9 3057 3056 3055 3054 3053 3052 3051 3050 3048 3047 3046 3045 3044 3042 3041 3039 3038 3036 3034 3032 3030 3028 3025 3023 3021 3019 3016 3014 3012 3010 3008 3006 3004 3003 3001 3000 2999 2998 2997 2996 2995 2995 2994 2994 2994 2994 2994 2994 2994 2995 2995 2996 2997 2997 2998 2999 3000 3002 3003 3005 3006 3008 3010 3012 3014 3017 3020 3023 3026 3029 3033 3037 3041 3045 3049 3054 3058 3062 3067 3071 3076 3080 3084 3088 3092 3096 3099 3103 3106 3110 3113 3116 3118 3121 3124 3126 3129 3131 3133 3135 3137 3139 3141 3143 3145 3146 3148 3149 3151 3152 3153 3154 3155 3156 3156 3157 3157 3157 3158 3158 3158 3157 3158 3158 3157 3157 3156 3156 3155 3155 3155 3155 3155 3155 3155 3155 3155 3155 3156 3156 3157 3157 3158 3159 3159 3160 3161 3162 3163 3164 3165 3166 3167 3168 3169 3171 3172 3173 3175 3176 3178 3180 3181 3183 3185 3187 3188 3189 3191 3192 3194 3195 3196 3197 3198 3199 3200 3201 3202 3203 3203 3204 3204 3205 3205 3205 3205 3205 3206 3206 3205 3205 3205 3205 3205 3204 3204 3204 3203 3203 3202 3202 3201 3201 3200 3200 3199 3198 3198 3197 3197 3196 3195 3195 3194 3194 3193 3193 3193 3192 3192 3192 3192 3192 3191 3191 3191 3191 3191 3191 3191 3191 3191 3191 3192 3192 3192 3192 3192 3192 3192 3193 3193 3193 3193 3193 3193 3193 3193 3193 3193 3193 3193 3193 3192 3192 3192 3192 3192 3192 3193 3193 3193 3194 3194 3194 3195 3195 3196 3197 3197 3198 3199 3199 3200 3201 3202 3203 3204 3205 3206 3207 3208 3209 3210 3212 3213 3215 3216 3217 3219 3221 3222 3224 3225 3227 3228 3230 3231 -9 
-9 3058 3057 3056 3055 3054 3053 3052 3051 3050 3049 3048 3047 3045 3044 3043 3041 3039 3038 3036 3034 3032 3030 3027 3025 3023 3020 3018 3016 3014 3012 3010 3008 3006 3005 3003 3002 3000 2999 2998 2998 2997 2996 2996 2996 2996 2996 2996 2996 2996 2996 2997 2998 2998 2999 3000 3001 3002 3003 3005 3006 3008 3009 3011 3013 3016 3018 3021 3024 3027 3031 3035 3038 3042 3046 3051 3055 3059 3063 3068 3073 3077 3081 3085 3089 3093 3097 3101 3104 3107 3111 3114 3117 3120 3122 3125 3127 3130 3132 3134 3136 3138 3140 3142 3144 3146 3147 3149 3150 3152 3153 3154 3155 3156 3157 3157 3158 3158 3158 3159 3159 3159 3159 3158 3159 3159 3158 3158 3157 3157 3157 3156 3156 3156 3156 3156 3156 3156 3157 3157 3158 3158 3159 3159 3160 3161 3162 3163 3163 3164 3165 3166 3168 3169 3170 3171 3172 3174 3175 3177 3178 3180 3182 3184 3185 3187 3188 3190 3192 3193 3195 3196 3197 3198 3200 3201 3202 3203 3203 3204 3205 3206 3206 3207 3207 3207 3208 3208 3208 3208 3208 3208 3208 3208 3207 3207 3207 3206 3206 3206 3205 3205 3204 3204 3203 3203 3202 3201 3201 3200 3199 3199 3198 3198 3197 3197 3196 3196 3195 3195 3195 3194 3194 3194 3194 3194 3194 3194 3194 3194 3194 3194 3194 3194 3194 3194 3194 3194 3195 3195 3195 3195 3195 3195 3196 3196 3196 3196 3196 3196 3196 3196 3196 3195 3195 3195 3195 3195 3195 3195 3195 3195 3195 3196 3196 3197 3197 3198 3198 3199 3199 3200 3201 3201 3202 3203 3204 3204 3205 3206 3207 3208 3209 3211 3212 3213 3214 3216 3217 3218 3220 3222 3223 3224 3226 3227 3229 3230 3232 3234 -9 
-9 3059 3059 3058 3057 3056 3055 3054 3053 3052 3051 3050 3048 3047 3046 3044 3043 3041 3040 3038 3036 3034 3031 3029 3027 3025 3022 3020 3018 3016 3014 3012 3010 3008 3006 3005 3004 3002 3001 3000 2999 2999 2998 2998 2998 2997 2997 2997 2998 2998 2998 2999 2999 3000 3001 3002 3003 3004 3005 3006 3008 3009 3011 3013 3015 3017 3020 3023 3026 3029 3032 3036 3040 3044 3048 3052 3056 3060 3065 3069 3074 3078 3082 3086 3090 3094 3098 3102 3105 3109 3112 3115 3118 3121 3123 3126 3128 3131 3133 3135 3137 3139 3141 3143 3145 3147 3148 3150 3151 3153 3154 3155 3156 3157 3158 3158 3159 3159 3160 3160 3160 3160 3160 3160 3159 3160 3159 3159 3159 3158 3158 3158 3158 3157 3157 3158 3158 3158 3158 3159 3159 3160 3160 3161 3162 3162 3163 3164 3165 3166 3167 3168 3169 3170 3172 3173 3174 3176 3177 3179 3180 3182 3184 3186 3187 3189 3191 3192 3194 3195 3197 3198 3199 3201 3202 3203 3204 3205 3206 3206 3207 3208 3208 3209 3209 3209 3210 3210 3210 3210 3210 3210 3210 3210 3210 3209 3209 3209 3208 3208 3207 3207 3206 3206 3205 3205 3204 3203 3203 3202 3201 3201 3200 3200 3199 3199 3198 3198 3197 3197 3197 3197 3196 3196 3196 3196 3196 3196 3196 3196 3196 3196 3196 3196 3196 3196 3196 3197 3197 3197 3197 3197 3197 3198 3198 3198 3198 3198 3198 3198 3198 3198 3198 3198 3198 3198 3198 3197 3197 3197 3198 3198 3198 3198 3199 3199 3200 3200 3201 3201 3202 3203 3203 3204 3205 3205 3206 3207 3208 3209 3210 3211 3212 3213 3214 3215 3217 3218 3219 3221 3222 3224 3225 3227 3228 3230 3231 3233 3234 3236 -9 
-9 3061 3060 3059 3058 3057 3056 3055 3054 3053 3052 3051 3050 3049 3048 3046 3045 3043 3041 3040 3038 3036 3033 3031 3029 3027 3024 3022 3020 3018 3016 3014 3012 3010 3008 3007 3006 3004 3003 3002 3001 3001 3000 3000 2999 2999 2999 2999 2999 3000 3000 3000 3001 3002 3002 3003 3004 3005 3007 3008 3009 3011 3013 3014 3017 3019 3021 3024 3027 3030 3034 3037 3041 3045 3049 3053 3057 3062 3066 3070 3075 3079 3083 3088 3092 3095 3099 3103 3106 3109 3113 3116 3119 3121 3124 3127 3129 3131 3134 3136 3138 3140 3142 3144 3146 3147 3149 3151 3152 3153 3155 3156 3157 3158 3158 3159 3160 3160 3160 3161 3161 3161 3161 3161 3161 3160 3160 3160 3160 3160 3159 3159 3159 3159 3159 3159 3159 3159 3160 3160 3161 3161 3162 3163 3163 3164 3165 3166 3167 3168 3169 3170 3171 3172 3174 3175 3176 3178 3179 3181 3182 3184 3186 3188 3189 3191 3193 3194 3196 3197 3199 3200 3201 3203 3204 3205 3206 3207 3208 3208 3209 3210 3210 3211 3211 3212 3212 3212 3212 3212 3212 3212 3212 3212 3212 3211 3211 3211 3210 3210 3209 3209 3208 3208 3207 3207 3206 3206 3205 3204 3204 3203 3202 3202 3201 3201 3200 3200 3200 3199 3199 3199 3199 3198 3198 3198 3198 3198 3198 3198 3198 3198 3198 3198 3199 3199 3199 3199 3199 3199 3200 3200 3200 3200 3200 3200 3200 3200 3200 3200 3201 3201 3201 3200 3200 3200 3200 3200 3200 3200 3200 3200 3201 3201 3201 3202 3202 3203 3203 3204 3205 3206 3206 3207 3208 3209 3209 3210 3210 3211 3212 3213 3214 3215 3217 3218 3219 3220 3222 3223 3225 3226 3227 3229 3230 3232 3233 3235 3236 3238 -9 
-9 3062 3062 3061 3060 3059 3058 3057 3056 3055 3054 3053 3052 3051 3049 3048 3047 3045 3043 3041 3040 3038 3035 3033 3031 3029 3026 3024 3022 3020 3018 3016 3014 3012 3011 3009 3008 3006 3005 3004 3003 3003 3002 3002 3001 3001 3001 3001 3001 3001 3002 3002 3003 3003 3004 3005 3006 3007 3008 3010 3011 3013 3014 3016 3018 3020 3023 3026 3029 3032 3035 3039 3043 3046 3050 3055 3059 3063 3067 3071 3075 3080 3085 3089 3093 3096 3100 3104 3107 3110 3113 3117 3119 3122 3125 3127 3130 3132 3134 3137 3139 3141 3143 3145 3146 3148 3150 3151 3153 3154 3155 3156 3157 3158 3159 3160 3160 3161 3161 3162 3162 3162 3162 3162 3162 3162 3161 3161 3161 3161 3161 3160 3160 3160 3160 3161 3161 3161 3161 3162 3162 3163 3163 3164 3165 3166 3167 3168 3169 3170 3171 3172 3173 3174 3175 3177 3178 3180 3181 3183 3184 3186 3188 3190 3191 3193 3195 3196 3198 3199 3201 3202 3203 3205 3206 3207 3208 3209 3210 3210 3211 3212 3212 3213 3213 3214 3214 3214 3214 3214 3214 3214 3214 3214 3214 3213 3213 3213 3212 3212 3211 3211 3210 3210 3209 3209 3208 3207 3207 3206 3206 3205 3204 3204 3203 3203 3202 3202 3202 3201 3201 3201 3201 3200 3200 3200 3200 3200 3200 3200 3200 3200 3201 3201 3201 3201 3201 3201 3202 3202 3202 3202 3202 3203 3203 3203 3203 3203 3203 3203 3203 3203 3203 3203 3203 3203 3203 3203 3203 3203 3203 3203 3203 3204 3205 3205 3205 3206 3207 3207 3208 3208 3209 3210 3210 3211 3212 3212 3213 3214 3215 3216 3217 3218 3219 3220 3221 3223 3224 3226 3227 3228 3230 3231 3232 3234 3235 3237 3238 3240 -9 
-9 3064 3063 3062 3061 3061 3060 3059 3058 3057 3056 3055 3054 3053 3051 3050 3048 3047 3045 3043 3042 3040 3037 3035 3033 3031 3028 3026 3024 3022 3020 3018 3016 3014 3013 3011 3010 3008 3007 3006 3005 3005 3004 3004 3003 3003 3003 3003 3003 3003 3004 3004 3005 3005 3006 3007 3008 3009 3010 3011 3013 3014 3016 3018 3020 3022 3025 3027 3030 3033 3037 3040 3044 3048 3052 3056 3060 3064 3068 3072 3077 3081 3086 3090 3093 3097 3101 3104 3108 3111 3114 3117 3120 3123 3125 3128 3130 3133 3135 3137 3139 3141 3141 3142 3144 3146 3148 3149 3151 3152 3153 3157 3158 3159 3160 3161 3161 3162 3162 3162 3163 3163 3163 3163 3163 3163 3163 3162 3162 3162 3162 3162 3162 3162 3162 3162 3162 3163 3163 3163 3164 3164 3165 3166 3167 3167 3168 3169 3170 3171 3172 3174 3175 3176 3177 3179 3180 3182 3183 3185 3186 3188 3190 3192 3193 3195 3197 3198 3200 3201 3203 3204 3205 3206 3208 3209 3210 3211 3212 3212 3213 3214 3214 3215 3215 3216 3216 3216 3216 3216 3216 3216 3216 3216 3216 3215 3215 3215 3214 3214 3213 3213 3212 3212 3211 3211 3210 3209 3209 3208 3207 3207 3206 3206 3205 3205 3204 3204 3203 3203 3203 3203 3203 3202 3202 3202 3202 3202 3202 3202 3203 3203 3203 3203 3203 3203 3204 3204 3204 3204 3204 3205 3205 3205 3205 3205 3205 3205 3206 3206 3206 3205 3205 3205 3205 3205 3205 3205 3205 3205 3205 3206 3206 3207 3207 3208 3208 3209 3209 3210 3210 3211 3212 3212 3213 3214 3215 3215 3216 3217 3218 3219 3219 3220 3221 3222 3224 3225 3227 3228 3229 3230 3232 3233 3235 3236 3237 3239 3240 3242 -9 
-9 3065 3065 3064 3063 3062 3061 3061 3060 3059 3058 3057 3056 3054 3053 3052 3050 3049 3047 3045 3043 3041 3039 3037 3035 3033 3031 3028 3026 3024 3022 3020 3018 3016 3015 3013 3012 3011 3009 3008 3007 3007 3006 3006 3005 3005 3005 3005 3005 3005 3006 3006 3007 3007 3008 3009 3010 3011 3012 3013 3015 3016 3018 3020 3022 3024 3026 3029 3032 3035 3038 3042 3045 3049 3053 3057 3061 3065 3069 3074 3078 3082 3086 3090 3094 3098 3102 3105 3109 3112 3115 3118 3121 3123 3126 3129 3131 3133 3135 3138 3140 3142 3141 3143 3145 3146 3148 3150 3151 3152 3154 3155 3156 3159 3160 3161 3162 3162 3163 3163 3164 3164 3164 3164 3164 3164 3164 3164 3163 3163 3163 3163 3163 3163 3163 3164 3164 3164 3164 3165 3165 3166 3167 3168 3168 3169 3170 3171 3172 3173 3174 3175 3177 3178 3179 3181 3182 3184 3185 3187 3188 3190 3192 3194 3195 3197 3198 3200 3202 3203 3205 3206 3207 3208 3210 3211 3212 3213 3213 3214 3215 3216 3216 3217 3217 3217 3218 3218 3218 3218 3218 3218 3218 3218 3217 3217 3217 3216 3216 3216 3215 3215 3214 3214 3213 3212 3212 3211 3210 3210 3209 3209 3208 3207 3207 3206 3206 3206 3205 3205 3205 3205 3205 3204 3204 3204 3204 3204 3204 3205 3205 3205 3205 3205 3205 3206 3206 3206 3206 3207 3207 3207 3207 3207 3208 3208 3208 3208 3208 3208 3208 3208 3208 3208 3208 3208 3208 3208 3208 3208 3208 3209 3209 3209 3210 3210 3211 3211 3212 3212 3213 3214 3214 3215 3216 3216 3217 3218 3219 3219 3220 3221 3222 3223 3224 3225 3226 3228 3229 3230 3231 3233 3234 3235 3237 3238 3239 3241 3242 3243 -9 
-9 3067 3066 3066 3065 3064 3063 3062 3061 3060 3059 3058 3057 3056 3055 3054 3052 3051 3049 3047 3045 3043 3041 3039 3037 3035 3033 3030 3028 3026 3024 3022 3020 3018 3017 3015 3014 3013 3012 3010 3010 3009 3008 3008 3007 3007 3007 3007 3007 3007 3008 3008 3009 3009 3010 3011 3012 3013 3014 3015 3017 3018 3020 3021 3023 3026 3028 3031 3033 3037 3040 3043 3047 3051 3054 3058 3062 3066 3071 3075 3079 3083 3087 3091 3095 3099 3102 3106 3109 3112 3115 3118 3121 3124 3126 3129 3131 3134 3136 3138 3140 3142 3141 3143 3145 3147 3148 3150 3151 3153 3154 3155 3157 3158 3159 3162 3162 3163 3164 3164 3164 3165 3165 3165 3165 3165 3165 3165 3165 3165 3165 3165 3165 3165 3165 3165 3165 3166 3166 3167 3167 3168 3168 3169 3170 3171 3172 3173 3174 3175 3176 3177 3179 3180 3181 3183 3184 3186 3187 3189 3190 3192 3194 3195 3197 3199 3200 3202 3204 3205 3206 3208 3209 3210 3211 3212 3213 3214 3215 3216 3217 3217 3218 3218 3219 3219 3219 3220 3220 3220 3220 3220 3219 3219 3219 3219 3218 3218 3218 3217 3217 3216 3216 3215 3215 3214 3213 3212 3212 3211 3211 3210 3210 3209 3209 3208 3208 3207 3207 3207 3207 3206 3206 3206 3206 3206 3206 3206 3207 3207 3207 3207 3207 3207 3208 3208 3208 3208 3209 3209 3209 3209 3210 3210 3210 3210 3210 3210 3211 3211 3211 3211 3210 3210 3210 3210 3210 3210 3210 3211 3211 3211 3211 3212 3212 3213 3213 3214 3214 3215 3216 3216 3217 3217 3218 3219 3220 3220 3221 3222 3223 3224 3225 3226 3227 3228 3229 3230 3231 3232 3233 3235 3236 3237 3239 3240 3241 3243 3244 3245 -9 
-9 3069 3068 3067 3066 3066 3065 3064 3063 3062 3061 3060 3059 3058 3057 3056 3054 3053 3051 3049 3047 3045 3043 3041 3039 3037 3035 3032 3030 3028 3026 3024 3022 3021 3019 3017 3016 3015 3014 3013 3012 3011 3010 3010 3010 3009 3009 3009 3009 3009 3010 3010 3011 3011 3012 3013 3014 3015 3016 3017 3018 3020 3022 3023 3025 3027 3030 3032 3035 3038 3041 3045 3048 3052 3056 3060 3064 3068 3072 3076 3080 3084 3088 3092 3096 3100 3103 3106 3110 3113 3116 3119 3122 3124 3127 3129 3132 3134 3136 3138 3140 3142 3142 3143 3145 3147 3149 3150 3152 3153 3154 3156 3157 3158 3159 3160 3161 3164 3164 3165 3165 3165 3166 3166 3166 3166 3166 3166 3166 3166 3166 3166 3166 3166 3166 3167 3167 3167 3168 3168 3169 3170 3170 3171 3172 3173 3174 3175 3176 3177 3178 3179 3181 3182 3183 3185 3186 3188 3189 3191 3192 3194 3196 3197 3199 3201 3202 3204 3205 3207 3208 3210 3211 3212 3213 3214 3215 3216 3217 3218 3218 3219 3220 3220 3220 3221 3221 3221 3221 3221 3221 3221 3221 3221 3221 3220 3220 3220 3219 3219 3217 3217 3216 3216 3215 3215 3214 3214 3213 3213 3212 3212 3211 3211 3210 3210 3209 3209 3209 3209 3208 3208 3208 3208 3208 3208 3208 3208 3208 3209 3209 3209 3209 3210 3210 3210 3210 3211 3211 3211 3212 3212 3212 3212 3212 3213 3213 3213 3213 3213 3213 3213 3213 3213 3213 3213 3213 3213 3213 3213 3213 3214 3214 3215 3215 3215 3216 3216 3217 3218 3218 3219 3219 3220 3221 3221 3222 3223 3224 3224 3225 3226 3227 3228 3229 3230 3231 3232 3233 3234 3236 3237 3238 3239 3241 3242 3243 3245 3246 3247 -9 
-9 3070 3069 3069 3068 3067 3067 3066 3065 3064 3063 3062 3061 3060 3059 3057 3056 3055 3053 3051 3049 3047 3045 3043 3041 3039 3037 3035 3032 3030 3028 3026 3025 3023 3021 3020 3018 3017 3016 3015 3014 3013 3013 3012 3012 3011 3011 3011 3011 3012 3012 3012 3013 3013 3014 3015 3016 3017 3018 3019 3021 3022 3024 3025 3027 3029 3032 3034 3037 3040 3043 3046 3050 3053 3057 3061 3065 3069 3073 3077 3081 3084 3089 3093 3097 3100 3104 3107 3110 3113 3116 3119 3122 3125 3127 3130 3132 3134 3136 3138 3140 3142 3142 3144 3145 3147 3149 3150 3152 3153 3155 3156 3157 3158 3159 3160 3161 3162 3163 3165 3166 3166 3166 3167 3167 3167 3167 3167 3167 3167 3167 3167 3167 3167 3168 3168 3168 3169 3169 3170 3171 3171 3172 3173 3174 3175 3176 3177 3178 3179 3180 3181 3183 3184 3185 3187 3188 3190 3191 3193 3194 3196 3198 3199 3201 3203 3204 3206 3207 3209 3210 3211 3213 3214 3215 3216 3217 3218 3219 3219 3220 3221 3221 3222 3222 3222 3223 3223 3223 3223 3223 3223 3223 3222 3222 3222 3221 3221 3221 3219 3218 3218 3218 3217 3217 3216 3216 3215 3215 3214 3214 3213 3213 3212 3212 3211 3211 3211 3210 3210 3210 3210 3210 3210 3210 3210 3210 3210 3210 3211 3211 3211 3211 3212 3212 3212 3213 3213 3213 3214 3214 3214 3214 3215 3215 3215 3215 3215 3215 3216 3216 3216 3215 3215 3215 3215 3215 3215 3216 3216 3216 3216 3217 3217 3218 3218 3219 3219 3220 3220 3221 3221 3222 3223 3223 3224 3225 3225 3226 3227 3228 3228 3229 3230 3231 3232 3233 3234 3235 3236 3238 3239 3240 3241 3243 3244 3245 3246 3248 3249 -9 
-9 3072 3071 3070 3070 3069 3068 3067 3067 3066 3065 3064 3063 3062 3061 3059 3058 3056 3055 3053 3051 3049 3047 3045 3043 3041 3039 3037 3035 3032 3030 3029 3027 3025 3023 3022 3020 3019 3018 3017 3016 3015 3015 3014 3014 3014 3014 3014 3014 3014 3014 3015 3015 3016 3016 3017 3018 3019 3020 3021 3023 3024 3026 3027 3029 3031 3034 3036 3039 3042 3045 3048 3051 3055 3059 3062 3066 3070 3074 3078 3082 3085 3089 3094 3097 3101 3104 3108 3111 3114 3117 3120 3122 3125 3127 3130 3132 3134 3136 3138 3140 3142 3142 3144 3146 3147 3149 3151 3152 3154 3155 3156 3157 3159 3160 3161 3162 3163 3163 3164 3166 3167 3167 3167 3168 3168 3168 3168 3168 3168 3168 3168 3169 3169 3169 3169 3170 3170 3171 3171 3172 3173 3174 3175 3176 3177 3178 3179 3180 3181 3182 3183 3184 3186 3187 3189 3190 3192 3193 3195 3196 3198 3200 3201 3203 3205 3206 3208 3209 3211 3212 3213 3214 3216 3217 3218 3219 3219 3220 3221 3222 3222 3223 3223 3222 3222 3222 3224 3224 3224 3222 3222 3222 3222 3222 3221 3221 3221 3221 3220 3220 3219 3219 3219 3218 3218 3217 3217 3216 3216 3215 3215 3214 3214 3213 3213 3212 3212 3212 3212 3212 3212 3212 3212 3212 3212 3212 3212 3212 3212 3213 3213 3213 3214 3214 3214 3215 3215 3215 3216 3216 3216 3217 3217 3217 3218 3218 3218 3218 3218 3218 3218 3218 3218 3218 3218 3218 3218 3218 3218 3219 3219 3219 3220 3220 3221 3221 3222 3222 3223 3223 3224 3225 3225 3226 3226 3227 3228 3229 3229 3230 3231 3232 3233 3233 3234 3235 3236 3238 3239 3240 3241 3242 3243 3245 3246 3247 3248 3250 3251 -9 
-9 3073 3073 3072 3071 3071 3070 3069 3068 3067 3067 3066 3065 3063 3062 3061 3060 3058 3057 3055 3053 3051 3049 3047 3045 3043 3041 3039 3037 3035 3033 3031 3029 3027 3026 3024 3023 3021 3020 3019 3018 3018 3017 3017 3016 3016 3016 3016 3016 3016 3016 3017 3017 3018 3019 3019 3020 3021 3022 3024 3025 3026 3028 3029 3031 3033 3036 3038 3041 3044 3047 3050 3053 3057 3060 3064 3068 3071 3075 3079 3083 3086 3090 3094 3098 3101 3105 3108 3111 3114 3117 3120 3122 3125 3127 3130 3132 3134 3136 3138 3140 3140 3142 3144 3146 3147 3149 3151 3152 3154 3155 3156 3158 3159 3160 3161 3162 3163 3164 3165 3165 3167 3168 3168 3168 3169 3169 3169 3169 3169 3170 3170 3170 3170 3171 3171 3171 3172 3172 3173 3174 3175 3175 3176 3177 3178 3179 3180 3182 3183 3184 3185 3186 3188 3189 3191 3192 3193 3195 3197 3198 3200 3202 3203 3205 3206 3208 3210 3211 3212 3214 3215 3216 3217 3218 3219 3220 3221 3222 3223 3223 3222 3222 3223 3223 3223 3224 3224 3224 3224 3224 3224 3223 3223 3223 3223 3223 3222 3222 3222 3221 3221 3220 3220 3220 3219 3219 3218 3218 3217 3216 3216 3216 3215 3215 3214 3214 3214 3213 3213 3213 3213 3213 3213 3213 3213 3214 3214 3214 3214 3215 3215 3215 3216 3216 3216 3217 3217 3218 3218 3218 3219 3219 3219 3220 3220 3220 3220 3220 3221 3221 3221 3221 3220 3220 3220 3220 3221 3221 3221 3221 3222 3222 3222 3223 3223 3224 3224 3225 3225 3226 3227 3227 3228 3228 3229 3230 3230 3231 3232 3233 3233 3234 3235 3236 3237 3238 3239 3240 3241 3242 3243 3244 3245 3247 3248 3249 3250 3251 3253 -9 
-9 3075 3074 3074 3073 3072 3072 3071 3070 3069 3068 3067 3066 3065 3064 3063 3061 3060 3059 3057 3055 3053 3051 3049 3047 3045 3043 3041 3039 3037 3035 3033 3031 3029 3028 3026 3025 3024 3023 3022 3021 3020 3019 3019 3019 3018 3018 3018 3018 3018 3019 3019 3020 3020 3021 3022 3023 3024 3025 3026 3027 3028 3030 3032 3034 3036 3038 3040 3043 3045 3048 3052 3055 3058 3062 3065 3069 3073 3076 3080 3084 3087 3091 3094 3099 3102 3105 3108 3112 3114 3117 3120 3123 3125 3127 3130 3132 3134 3136 3138 3140 3140 3142 3144 3146 3147 3149 3151 3152 3154 3155 3157 3158 3159 3160 3161 3162 3163 3164 3165 3166 3168 3168 3169 3169 3169 3170 3170 3170 3171 3171 3171 3171 3172 3172 3172 3173 3173 3174 3175 3175 3176 3177 3178 3179 3180 3181 3182 3183 3185 3186 3187 3188 3190 3191 3192 3194 3195 3197 3199 3200 3202 3204 3205 3207 3208 3210 3211 3213 3214 3216 3217 3218 3219 3220 3221 3222 3223 3224 3224 3223 3223 3224 3224 3225 3225 3225 3225 3225 3225 3225 3225 3225 3225 3224 3224 3224 3223 3223 3223 3222 3222 3222 3221 3221 3220 3220 3219 3219 3218 3218 3217 3217 3216 3216 3216 3215 3215 3215 3215 3215 3215 3215 3215 3215 3215 3215 3216 3216 3216 3216 3217 3217 3218 3218 3219 3219 3219 3220 3220 3221 3221 3221 3222 3222 3222 3223 3223 3223 3223 3223 3223 3223 3223 3223 3223 3223 3223 3223 3224 3224 3224 3225 3225 3225 3226 3226 3227 3228 3228 3229 3229 3230 3230 3231 3232 3232 3233 3234 3234 3235 3236 3237 3237 3238 3239 3240 3241 3242 3243 3244 3245 3246 3247 3248 3250 3251 3252 3253 3254 -9 
-9 3077 3076 3075 3075 3074 3073 3072 3072 3071 3070 3069 3068 3067 3066 3065 3063 3062 3060 3059 3057 3055 3053 3051 3049 3047 3045 3043 3041 3039 3037 3035 3033 3032 3030 3029 3027 3026 3025 3024 3023 3022 3022 3021 3021 3021 3021 3021 3021 3021 3021 3022 3022 3023 3023 3024 3025 3026 3027 3028 3029 3031 3032 3034 3036 3038 3040 3042 3045 3047 3050 3053 3057 3060 3063 3067 3070 3074 3078 3081 3085 3088 3092 3095 3099 3103 3106 3109 3112 3115 3118 3120 3123 3125 3128 3130 3132 3134 3136 3138 3140 3140 3142 3144 3146 3147 3149 3151 3152 3154 3155 3157 3158 3159 3161 3162 3163 3164 3165 3166 3167 3167 3169 3169 3170 3170 3171 3171 3171 3172 3172 3172 3173 3173 3173 3174 3174 3175 3176 3176 3177 3178 3179 3180 3181 3182 3183 3184 3185 3186 3188 3189 3190 3192 3193 3194 3196 3197 3199 3201 3202 3204 3206 3207 3209 3210 3212 3213 3215 3216 3217 3219 3220 3221 3222 3223 3224 3223 3223 3224 3224 3225 3225 3226 3226 3226 3226 3226 3226 3226 3226 3226 3226 3226 3226 3225 3225 3225 3224 3224 3224 3223 3223 3222 3222 3222 3221 3221 3220 3220 3219 3219 3218 3218 3217 3217 3217 3217 3216 3216 3216 3216 3216 3216 3217 3217 3217 3217 3218 3218 3218 3219 3219 3220 3220 3221 3221 3222 3222 3222 3223 3223 3224 3224 3224 3225 3225 3225 3225 3225 3226 3226 3226 3226 3226 3226 3226 3226 3226 3226 3226 3227 3227 3228 3228 3229 3229 3230 3230 3231 3231 3232 3232 3233 3234 3234 3235 3235 3236 3237 3237 3238 3239 3240 3241 3241 3242 3243 3244 3245 3246 3247 3248 3249 3250 3252 3253 3254 3255 3256 -9 
-9 3079 3078 3078 3077 3076 3075 3074 3073 3072 3072 3071 3070 3069 3068 3067 3065 3064 3062 3060 3059 3057 3055 3053 3051 3049 3047 3045 3043 3041 3039 3037 3035 3034 3032 3031 3030 3028 3027 3026 3025 3025 3024 3024 3023 3023 3023 3023 3023 3023 3024 3024 3025 3025 3026 3027 3028 3028 3030 3031 3032 3033 3035 3036 3038 3040 3042 3044 3047 3050 3052 3055 3058 3062 3065 3068 3072 3075 3079 3082 3086 3089 3093 3096 3099 3103 3106 3109 3112 3115 3118 3120 3123 3125 3128 3130 3132 3134 3136 3138 3140 3140 3142 3144 3146 3147 3149 3151 3152 3154 3155 3157 3158 3159 3161 3162 3163 3164 3165 3166 3167 3168 3170 3170 3171 3171 3172 3172 3172 3173 3173 3173 3174 3174 3175 3175 3176 3176 3177 3178 3179 3180 3181 3182 3183 3184 3185 3186 3187 3188 3190 3191 3192 3194 3195 3196 3198 3199 3201 3203 3204 3206 3207 3209 3211 3212 3214 3215 3217 3218 3219 3220 3221 3222 3223 3224 3224 3224 3225 3225 3226 3226 3227 3227 3227 3228 3228 3228 3228 3228 3228 3227 3227 3227 3227 3226 3226 3226 3226 3225 3225 3224 3224 3224 3223 3223 3222 3222 3221 3221 3220 3220 3219 3219 3219 3218 3218 3218 3218 3218 3218 3218 3218 3218 3218 3218 3219 3219 3219 3220 3220 3220 3221 3221 3222 3223 3223 3224 3224 3225 3225 3226 3226 3226 3227 3227 3227 3228 3228 3228 3228 3228 3228 3228 3228 3228 3228 3228 3229 3229 3229 3230 3230 3230 3231 3231 3232 3232 3233 3233 3234 3235 3235 3236 3236 3237 3237 3238 3239 3239 3240 3241 3241 3242 3243 3244 3245 3245 3246 3247 3248 3249 3250 3251 3252 3253 3255 3256 3257 3258 -9 
-9 3080 3080 3079 3079 3078 3077 3076 3076 3075 3074 3073 3072 3071 3070 3069 3067 3066 3064 3062 3060 3059 3057 3055 3053 3051 3049 3047 3045 3043 3041 3039 3038 3036 3034 3033 3032 3031 3030 3029 3028 3027 3027 3026 3026 3026 3025 3026 3026 3026 3026 3027 3027 3028 3028 3029 3030 3031 3032 3033 3034 3036 3037 3039 3041 3043 3045 3047 3049 3052 3054 3057 3060 3063 3067 3070 3073 3077 3080 3084 3087 3091 3094 3097 3100 3104 3107 3110 3113 3115 3118 3120 3123 3125 3128 3130 3132 3134 3136 3138 3138 3140 3142 3144 3146 3147 3149 3151 3152 3154 3155 3157 3158 3160 3161 3162 3163 3165 3166 3167 3168 3169 3169 3171 3171 3172 3172 3173 3173 3174 3174 3175 3175 3176 3176 3177 3177 3178 3179 3179 3180 3181 3182 3183 3184 3185 3187 3188 3189 3190 3191 3193 3194 3195 3197 3198 3200 3201 3203 3204 3206 3208 3209 3211 3213 3214 3216 3217 3218 3220 3221 3222 3223 3224 3224 3224 3225 3226 3226 3227 3227 3228 3228 3229 3229 3229 3229 3229 3229 3229 3229 3229 3228 3228 3228 3228 3227 3227 3227 3226 3226 3226 3225 3225 3224 3224 3223 3223 3222 3222 3222 3221 3221 3220 3220 3220 3219 3219 3219 3219 3219 3219 3219 3219 3220 3220 3220 3221 3221 3221 3222 3222 3223 3223 3224 3225 3225 3226 3226 3227 3227 3228 3228 3229 3229 3229 3230 3230 3230 3230 3230 3231 3231 3231 3231 3231 3231 3231 3231 3231 3232 3232 3233 3233 3234 3234 3235 3235 3236 3236 3237 3237 3238 3238 3239 3239 3240 3241 3241 3242 3243 3243 3244 3245 3245 3246 3247 3248 3249 3250 3251 3251 3252 3253 3254 3255 3256 3257 3258 3259 -9 
-9 3082 3081 3081 3080 3080 3079 3078 3077 3076 3075 3074 3073 3072 3071 3070 3069 3068 3066 3065 3063 3060 3059 3057 3055 3053 3051 3049 3047 3045 3043 3041 3040 3038 3037 3035 3034 3033 3032 3031 3030 3030 3029 3029 3028 3028 3028 3028 3028 3028 3029 3029 3030 3030 3031 3032 3033 3034 3035 3036 3037 3038 3040 3041 3043 3045 3047 3049 3052 3054 3057 3059 3062 3065 3069 3072 3075 3078 3082 3085 3088 3092 3095 3098 3101 3104 3107 3110 3113 3116 3118 3121 3123 3125 3128 3130 3132 3134 3136 3138 3138 3140 3142 3144 3146 3147 3149 3151 3152 3154 3155 3157 3158 3160 3161 3162 3164 3165 3166 3167 3168 3169 3170 3171 3172 3173 3173 3174 3174 3175 3175 3176 3176 3177 3177 3178 3179 3179 3180 3181 3182 3183 3184 3185 3186 3187 3188 3190 3191 3192 3193 3195 3196 3197 3199 3200 3202 3203 3205 3206 3208 3210 3211 3213 3214 3216 3217 3219 3220 3221 3223 3224 3223 3224 3225 3226 3227 3227 3228 3229 3229 3229 3230 3230 3230 3230 3230 3230 3230 3230 3230 3230 3230 3229 3229 3229 3228 3228 3228 3227 3227 3227 3226 3226 3225 3225 3225 3224 3224 3223 3223 3222 3222 3222 3221 3221 3221 3221 3220 3220 3220 3221 3221 3221 3221 3221 3222 3222 3223 3223 3224 3224 3225 3225 3226 3226 3227 3228 3228 3229 3229 3230 3230 3231 3231 3232 3232 3232 3233 3233 3233 3233 3233 3233 3233 3233 3233 3234 3234 3234 3234 3235 3235 3236 3236 3237 3237 3238 3238 3239 3239 3240 3240 3241 3242 3242 3243 3243 3244 3244 3245 3246 3246 3247 3248 3248 3249 3250 3251 3252 3253 3254 3255 3255 3256 3257 3258 3259 3260 3261 -9 
-9 3083 3083 3082 3082 3081 3080 3080 3079 3078 3077 3076 3075 3074 3073 3072 3070 3069 3068 3066 3065 3063 3061 3059 3057 3055 3053 3051 3049 3047 3045 3044 3042 3040 3039 3038 3036 3035 3034 3033 3033 3032 3032 3031 3031 3031 3031 3031 3031 3031 3031 3032 3032 3033 3034 3035 3035 3036 3038 3039 3040 3041 3043 3044 3046 3048 3050 3052 3054 3056 3059 3062 3064 3067 3070 3074 3077 3080 3083 3087 3090 3093 3096 3099 3102 3105 3108 3111 3113 3116 3118 3121 3123 3125 3127 3130 3132 3134 3136 3137 3138 3140 3142 3144 3146 3147 3149 3151 3152 3154 3155 3157 3158 3160 3161 3163 3164 3165 3166 3167 3169 3170 3171 3172 3173 3173 3174 3175 3175 3176 3176 3177 3178 3178 3179 3179 3180 3181 3182 3183 3184 3185 3186 3187 3188 3189 3190 3191 3193 3194 3195 3196 3198 3199 3201 3202 3204 3205 3207 3208 3210 3212 3213 3214 3216 3217 3218 3220 3221 3222 3223 3224 3225 3226 3227 3228 3228 3229 3229 3230 3230 3231 3231 3231 3232 3232 3232 3232 3232 3231 3231 3231 3231 3231 3230 3230 3230 3229 3229 3229 3228 3228 3227 3227 3227 3226 3226 3225 3225 3224 3224 3223 3223 3223 3222 3222 3222 3222 3222 3222 3222 3222 3222 3222 3223 3223 3223 3224 3224 3225 3225 3226 3226 3227 3228 3228 3229 3230 3230 3231 3232 3232 3233 3233 3234 3234 3234 3235 3235 3235 3235 3236 3236 3236 3236 3236 3236 3236 3236 3237 3237 3238 3238 3239 3239 3240 3240 3241 3241 3242 3242 3243 3243 3244 3244 3245 3245 3246 3246 3247 3248 3248 3249 3249 3250 3251 3252 3252 3253 3254 3255 3256 3257 3257 3258 3259 3260 3261 3262 3263 -9 
-9 3085 3084 3084 3083 3083 3082 3081 3080 3079 3078 3077 3076 3075 3074 3073 3072 3071 3069 3068 3066 3064 3063 3061 3059 3057 3055 3053 3051 3049 3047 3046 3044 3043 3041 3040 3039 3038 3037 3036 3035 3035 3034 3034 3034 3033 3033 3033 3034 3034 3034 3035 3035 3036 3037 3037 3038 3039 3040 3042 3043 3044 3045 3047 3049 3050 3052 3054 3057 3059 3061 3064 3067 3070 3073 3076 3079 3082 3085 3088 3091 3094 3097 3100 3103 3106 3109 3111 3114 3116 3119 3121 3123 3125 3127 3130 3131 3133 3135 3137 3138 3140 3142 3144 3146 3147 3149 3151 3152 3154 3155 3157 3158 3160 3161 3163 3164 3165 3167 3168 3169 3170 3171 3172 3173 3174 3175 3175 3176 3177 3177 3178 3179 3179 3180 3181 3182 3182 3183 3184 3185 3186 3187 3188 3189 3191 3192 3193 3194 3196 3197 3198 3200 3201 3203 3204 3205 3207 3208 3210 3212 3213 3215 3216 3218 3219 3220 3221 3223 3224 3225 3226 3227 3228 3228 3229 3230 3230 3231 3231 3232 3232 3233 3233 3233 3233 3233 3233 3233 3233 3233 3232 3232 3232 3231 3231 3231 3230 3230 3230 3229 3229 3229 3228 3228 3227 3227 3226 3226 3226 3225 3225 3224 3224 3224 3223 3223 3223 3223 3223 3223 3223 3224 3224 3224 3224 3225 3225 3226 3226 3227 3228 3228 3229 3230 3230 3231 3232 3232 3233 3234 3234 3235 3235 3236 3236 3237 3237 3237 3238 3238 3238 3238 3238 3238 3238 3239 3239 3239 3239 3240 3240 3241 3241 3242 3242 3243 3243 3244 3244 3245 3245 3246 3246 3247 3247 3248 3249 3249 3250 3250 3251 3251 3252 3253 3253 3254 3255 3256 3256 3257 3258 3259 3259 3260 3261 3262 3263 3264 3265 -9 
-9 3086 3086 3085 3085 3084 3083 3083 3082 3081 3080 3079 3078 3077 3076 3075 3073 3072 3071 3069 3068 3066 3064 3063 3061 3059 3057 3055 3053 3051 3049 3048 3046 3045 3043 3042 3041 3040 3039 3038 3038 3037 3037 3036 3036 3036 3036 3036 3036 3037 3037 3038 3038 3039 3040 3040 3041 3042 3043 3044 3046 3047 3048 3050 3052 3053 3055 3057 3059 3061 3064 3066 3069 3072 3075 3078 3081 3084 3087 3090 3093 3096 3099 3101 3104 3107 3109 3112 3114 3117 3119 3121 3123 3125 3127 3129 3131 3133 3135 3137 3138 3140 3142 3144 3145 3147 3149 3151 3152 3154 3155 3157 3159 3160 3162 3163 3164 3166 3167 3168 3170 3171 3172 3173 3174 3175 3176 3176 3177 3178 3178 3179 3180 3181 3181 3182 3183 3184 3185 3186 3187 3188 3189 3190 3191 3192 3194 3195 3196 3197 3199 3200 3201 3203 3204 3206 3207 3209 3210 3212 3213 3215 3216 3218 3219 3221 3222 3223 3224 3225 3227 3228 3228 3229 3230 3231 3231 3232 3232 3233 3233 3234 3234 3234 3234 3234 3234 3234 3234 3234 3234 3233 3233 3233 3233 3232 3232 3232 3231 3231 3230 3230 3230 3229 3229 3228 3228 3228 3227 3227 3226 3226 3225 3225 3225 3225 3225 3224 3224 3225 3225 3225 3225 3225 3226 3226 3226 3227 3227 3228 3229 3229 3230 3231 3231 3232 3233 3234 3234 3235 3236 3236 3237 3238 3238 3239 3239 3239 3240 3240 3240 3240 3241 3241 3241 3241 3241 3241 3242 3242 3243 3243 3243 3244 3244 3245 3246 3246 3247 3247 3248 3248 3249 3249 3250 3250 3251 3251 3252 3252 3253 3253 3254 3254 3255 3256 3256 3257 3258 3258 3259 3260 3261 3262 3262 3263 3264 3265 3266 3267 -9 
-9 3088 3087 3087 3086 3085 3085 3084 3083 3082 3081 3080 3079 3078 3077 3076 3075 3073 3072 3071 3069 3068 3066 3064 3062 3061 3059 3057 3055 3053 3051 3050 3048 3047 3046 3044 3043 3042 3042 3041 3040 3040 3039 3039 3039 3039 3039 3039 3039 3040 3040 3041 3041 3042 3043 3043 3044 3045 3046 3048 3049 3050 3051 3053 3055 3056 3058 3060 3062 3064 3067 3069 3071 3074 3077 3080 3083 3085 3088 3091 3094 3097 3100 3103 3105 3108 3110 3113 3115 3117 3119 3122 3124 3126 3128 3129 3131 3133 3135 3137 3138 3140 3142 3144 3145 3147 3149 3150 3152 3154 3155 3157 3159 3160 3162 3163 3165 3166 3167 3169 3170 3171 3172 3173 3174 3175 3176 3177 3178 3179 3179 3180 3181 3182 3183 3183 3184 3185 3186 3187 3188 3189 3190 3192 3193 3194 3195 3197 3198 3199 3200 3202 3203 3205 3206 3208 3209 3211 3212 3214 3215 3217 3218 3220 3221 3222 3224 3225 3226 3227 3228 3229 3230 3231 3232 3232 3233 3233 3234 3234 3235 3235 3235 3235 3236 3236 3236 3236 3235 3235 3235 3235 3234 3234 3234 3233 3233 3233 3232 3232 3232 3231 3231 3230 3230 3230 3229 3229 3228 3228 3227 3227 3227 3226 3226 3226 3226 3226 3226 3226 3226 3226 3226 3227 3227 3227 3228 3228 3229 3230 3230 3231 3232 3232 3233 3234 3235 3236 3236 3237 3238 3239 3239 3240 3240 3241 3241 3242 3242 3243 3243 3243 3243 3243 3243 3244 3244 3244 3244 3245 3245 3246 3246 3247 3247 3248 3248 3249 3249 3250 3250 3251 3251 3252 3252 3253 3253 3254 3254 3255 3255 3256 3256 3257 3257 3258 3259 3259 3260 3261 3261 3262 3263 3264 3264 3265 3266 3267 3268 3269 -9 
-9 3090 3089 3088 3087 3087 3086 3085 3084 3084 3083 3082 3081 3080 3078 3077 3076 3075 3074 3072 3071 3069 3068 3066 3064 3062 3060 3059 3057 3055 3053 3052 3051 3049 3048 3047 3046 3045 3044 3044 3043 3043 3042 3042 3042 3042 3042 3042 3042 3043 3043 3044 3044 3045 3046 3047 3048 3049 3050 3051 3052 3053 3055 3056 3058 3059 3061 3063 3065 3067 3069 3072 3074 3077 3079 3082 3085 3087 3090 3093 3096 3099 3101 3104 3106 3109 3111 3114 3116 3118 3120 3122 3124 3126 3128 3129 3131 3133 3135 3137 3138 3140 3142 3144 3145 3147 3149 3150 3152 3154 3155 3157 3159 3160 3162 3163 3165 3166 3168 3169 3170 3172 3173 3174 3175 3176 3177 3178 3179 3180 3180 3181 3182 3183 3184 3185 3186 3186 3187 3188 3190 3191 3192 3193 3194 3196 3197 3198 3199 3201 3202 3204 3205 3206 3208 3209 3211 3212 3214 3215 3217 3218 3220 3221 3223 3224 3225 3227 3228 3229 3230 3231 3232 3232 3233 3234 3234 3235 3235 3236 3236 3236 3237 3237 3237 3237 3237 3237 3237 3236 3236 3236 3236 3235 3235 3235 3234 3234 3233 3233 3233 3232 3232 3231 3231 3231 3230 3230 3229 3229 3229 3228 3228 3228 3227 3227 3227 3227 3227 3227 3227 3227 3228 3228 3228 3229 3229 3230 3231 3231 3232 3233 3233 3234 3235 3236 3237 3238 3238 3239 3240 3241 3241 3242 3243 3243 3244 3244 3245 3245 3245 3245 3246 3246 3246 3246 3246 3247 3247 3247 3248 3248 3249 3249 3250 3251 3251 3252 3252 3253 3253 3254 3254 3255 3255 3256 3256 3256 3257 3257 3258 3258 3259 3259 3260 3260 3261 3262 3262 3263 3263 3264 3265 3266 3266 3267 3268 3269 3270 3270 -9 
-9 3091 3091 3090 3090 3088 3087 3087 3086 3085 3084 3083 3082 3081 3080 3079 3077 3076 3075 3074 3072 3071 3069 3067 3066 3064 3062 3061 3059 3057 3055 3054 3053 3052 3050 3049 3048 3048 3047 3046 3046 3045 3045 3045 3045 3045 3045 3045 3046 3046 3047 3047 3048 3048 3049 3050 3051 3052 3053 3054 3055 3057 3058 3059 3061 3063 3064 3066 3068 3070 3072 3074 3077 3079 3082 3084 3087 3090 3092 3095 3098 3100 3103 3105 3108 3110 3112 3114 3117 3119 3121 3123 3124 3126 3128 3129 3131 3133 3135 3137 3138 3140 3142 3144 3145 3147 3149 3150 3152 3154 3155 3157 3159 3160 3162 3163 3165 3166 3168 3169 3171 3172 3173 3175 3176 3177 3178 3179 3180 3181 3182 3183 3183 3184 3185 3186 3187 3188 3189 3190 3191 3192 3193 3195 3196 3197 3198 3200 3201 3203 3204 3205 3207 3208 3210 3211 3213 3214 3216 3217 3219 3220 3222 3223 3224 3226 3227 3228 3229 3230 3231 3232 3233 3234 3235 3235 3236 3236 3237 3237 3237 3238 3238 3238 3238 3238 3238 3238 3238 3238 3237 3237 3237 3236 3236 3236 3235 3235 3235 3234 3234 3233 3233 3233 3232 3232 3231 3231 3230 3230 3230 3229 3229 3229 3229 3228 3228 3228 3228 3228 3229 3229 3229 3229 3230 3230 3231 3232 3232 3233 3234 3234 3235 3236 3237 3238 3239 3240 3241 3241 3242 3243 3244 3244 3245 3246 3246 3247 3247 3247 3248 3248 3248 3248 3249 3249 3249 3249 3250 3250 3251 3251 3252 3252 3253 3253 3254 3254 3255 3255 3256 3256 3257 3258 3258 3258 3259 3259 3260 3260 3260 3261 3261 3262 3262 3263 3263 3264 3264 3265 3266 3266 3267 3268 3268 3269 3270 3271 3271 3272 -9 
-9 3093 3092 3092 3091 3090 3090 3088 3087 3086 3085 3084 3083 3082 3081 3080 3079 3078 3076 3075 3074 3072 3071 3069 3067 3066 3064 3062 3061 3059 3058 3056 3055 3053 3053 3052 3051 3050 3050 3049 3049 3048 3048 3048 3048 3048 3048 3049 3049 3049 3050 3051 3051 3052 3053 3054 3055 3056 3057 3058 3059 3060 3062 3063 3064 3066 3068 3069 3071 3073 3075 3077 3080 3082 3084 3087 3089 3092 3094 3097 3099 3102 3104 3107 3109 3111 3113 3115 3117 3119 3121 3123 3125 3127 3128 3130 3132 3133 3135 3137 3139 3140 3142 3144 3145 3147 3149 3150 3152 3154 3155 3157 3159 3160 3162 3164 3165 3167 3168 3170 3171 3173 3174 3175 3176 3178 3179 3180 3181 3182 3183 3184 3185 3185 3186 3187 3188 3189 3190 3192 3193 3194 3195 3196 3197 3199 3200 3202 3203 3204 3206 3207 3208 3210 3211 3213 3214 3216 3217 3219 3220 3222 3223 3225 3226 3227 3229 3230 3231 3232 3233 3234 3234 3235 3236 3237 3237 3238 3238 3238 3239 3239 3239 3239 3239 3239 3239 3239 3239 3239 3238 3238 3238 3237 3237 3237 3236 3236 3236 3235 3235 3234 3234 3234 3233 3233 3232 3232 3232 3231 3231 3230 3230 3230 3230 3230 3230 3230 3230 3230 3230 3230 3230 3231 3231 3232 3232 3233 3234 3234 3235 3236 3237 3238 3239 3240 3241 3242 3243 3243 3244 3245 3246 3247 3247 3248 3248 3249 3249 3250 3250 3250 3251 3251 3251 3251 3252 3252 3252 3253 3253 3254 3254 3255 3256 3256 3257 3257 3258 3258 3259 3259 3260 3260 3261 3261 3261 3262 3262 3263 3263 3263 3264 3264 3265 3265 3265 3266 3267 3267 3268 3268 3269 3270 3270 3271 3272 3273 3273 3274 -9 
-9 3094 3093 3093 3092 3092 3091 3090 3089 3088 3087 3087 3086 3084 3083 3082 3080 3079 3078 3076 3075 3074 3072 3071 3069 3068 3066 3064 3063 3061 3060 3058 3057 3056 3055 3054 3054 3053 3052 3052 3052 3051 3051 3051 3051 3051 3052 3052 3052 3053 3054 3054 3055 3056 3056 3057 3058 3059 3060 3062 3063 3064 3065 3067 3068 3070 3071 3073 3075 3076 3078 3080 3083 3085 3087 3089 3092 3094 3096 3099 3101 3104 3106 3108 3110 3112 3114 3116 3118 3120 3122 3124 3125 3127 3129 3130 3132 3134 3135 3137 3139 3140 3142 3144 3145 3147 3149 3150 3152 3154 3156 3157 3159 3161 3162 3164 3165 3167 3169 3170 3172 3173 3174 3176 3177 3178 3179 3181 3182 3183 3184 3185 3186 3187 3188 3189 3190 3191 3192 3193 3194 3195 3197 3198 3199 3200 3202 3203 3205 3206 3207 3209 3210 3212 3213 3214 3216 3217 3219 3220 3222 3223 3225 3226 3228 3229 3230 3231 3232 3233 3234 3235 3236 3237 3237 3238 3238 3239 3239 3240 3240 3240 3240 3241 3241 3241 3241 3240 3240 3240 3240 3239 3239 3239 3238 3238 3237 3237 3237 3236 3236 3235 3235 3235 3234 3234 3233 3233 3233 3232 3232 3232 3231 3231 3231 3231 3231 3231 3231 3231 3231 3231 3232 3232 3233 3233 3234 3235 3235 3236 3237 3238 3239 3240 3241 3242 3243 3244 3245 3246 3246 3247 3248 3249 3250 3250 3251 3251 3252 3252 3253 3253 3253 3253 3254 3254 3254 3255 3255 3256 3256 3257 3257 3258 3258 3259 3259 3260 3261 3261 3262 3262 3263 3263 3263 3264 3264 3264 3265 3265 3265 3266 3266 3267 3267 3267 3268 3268 3269 3269 3270 3270 3271 3272 3272 3273 3274 3274 3275 3276 -9 
-9 3095 3095 3094 3093 3093 3092 3091 3090 3090 3089 3088 3087 3086 3085 3083 3082 3081 3079 3077 3076 3075 3074 3072 3071 3069 3068 3066 3065 3063 3062 3061 3060 3059 3058 3057 3056 3055 3055 3055 3055 3055 3054 3055 3055 3055 3055 3056 3056 3057 3057 3058 3059 3059 3060 3061 3062 3063 3064 3066 3067 3068 3069 3071 3072 3073 3075 3077 3078 3080 3082 3084 3086 3088 3090 3092 3094 3097 3099 3101 3103 3105 3108 3110 3112 3114 3116 3117 3119 3121 3123 3124 3126 3128 3129 3131 3132 3134 3136 3137 3139 3140 3142 3144 3145 3147 3149 3150 3152 3154 3156 3157 3159 3161 3162 3164 3166 3167 3169 3171 3172 3174 3175 3176 3178 3179 3180 3181 3183 3184 3185 3186 3187 3188 3189 3190 3191 3192 3193 3194 3196 3197 3198 3199 3201 3202 3203 3205 3206 3207 3209 3210 3212 3213 3215 3216 3218 3219 3221 3222 3224 3225 3226 3228 3229 3230 3232 3233 3234 3235 3236 3236 3237 3238 3239 3239 3240 3240 3241 3241 3241 3242 3242 3242 3242 3242 3242 3241 3241 3241 3241 3240 3240 3240 3239 3239 3239 3238 3238 3237 3237 3236 3236 3236 3235 3235 3234 3234 3234 3233 3233 3233 3232 3232 3232 3232 3232 3232 3232 3232 3232 3233 3233 3234 3234 3235 3235 3236 3237 3238 3239 3240 3241 3242 3243 3244 3245 3246 3247 3248 3249 3249 3250 3251 3252 3253 3253 3254 3254 3255 3255 3255 3256 3256 3256 3257 3257 3257 3258 3258 3259 3259 3260 3261 3261 3262 3263 3263 3264 3264 3264 3265 3265 3266 3266 3266 3267 3267 3267 3268 3268 3268 3269 3269 3269 3270 3270 3270 3271 3271 3272 3272 3273 3273 3274 3275 3275 3276 3277 3278 -9 
-9 3096 3096 3095 3095 3094 3093 3092 3091 3090 3090 3089 3088 3087 3086 3084 3083 3082 3081 3080 3079 3076 3075 3074 3072 3071 3070 3068 3067 3066 3064 3063 3062 3061 3060 3059 3059 3058 3058 3058 3058 3058 3058 3058 3058 3058 3059 3059 3060 3060 3061 3062 3063 3063 3064 3065 3066 3067 3068 3070 3071 3072 3073 3075 3076 3077 3079 3080 3082 3084 3085 3087 3089 3091 3093 3095 3097 3099 3101 3103 3105 3107 3109 3111 3113 3115 3116 3117 3119 3121 3124 3125 3127 3128 3130 3131 3133 3134 3136 3137 3139 3141 3142 3144 3146 3147 3149 3151 3152 3154 3156 3158 3159 3161 3163 3164 3166 3168 3169 3171 3173 3174 3176 3177 3178 3180 3181 3182 3183 3185 3186 3187 3188 3189 3190 3191 3192 3193 3194 3196 3197 3198 3199 3201 3202 3203 3205 3206 3208 3209 3210 3212 3213 3215 3216 3218 3219 3221 3222 3224 3225 3227 3228 3229 3231 3232 3233 3234 3235 3236 3237 3238 3239 3239 3240 3240 3241 3241 3242 3242 3242 3243 3243 3243 3243 3243 3243 3243 3242 3242 3242 3241 3241 3241 3240 3240 3240 3239 3239 3238 3238 3237 3237 3237 3236 3236 3235 3235 3235 3234 3234 3234 3233 3233 3233 3233 3233 3233 3233 3233 3234 3234 3235 3235 3236 3236 3237 3238 3238 3239 3240 3241 3242 3243 3244 3246 3247 3248 3249 3250 3251 3252 3253 3253 3254 3255 3256 3256 3257 3257 3258 3258 3258 3259 3259 3259 3260 3260 3261 3261 3262 3262 3263 3264 3264 3265 3265 3266 3266 3267 3267 3268 3268 3268 3269 3269 3269 3270 3270 3270 3270 3271 3271 3271 3271 3272 3272 3272 3273 3273 3274 3274 3275 3275 3276 3277 3277 3278 3279 3279 -9 
-9 3098 3097 3096 3095 3095 3094 3093 3092 3091 3090 3089 3088 3087 3086 3085 3084 3083 3082 3081 3080 3079 3077 3075 3074 3073 3071 3070 3069 3068 3067 3066 3065 3064 3063 3062 3062 3061 3061 3061 3061 3061 3061 3061 3062 3062 3063 3063 3064 3064 3065 3066 3067 3068 3068 3069 3071 3072 3073 3074 3075 3076 3077 3079 3080 3081 3083 3084 3086 3087 3089 3091 3092 3094 3096 3098 3100 3102 3104 3106 3108 3110 3111 3113 3115 3115 3117 3119 3120 3122 3123 3126 3127 3129 3130 3132 3133 3135 3136 3138 3139 3141 3143 3144 3146 3147 3149 3151 3153 3154 3156 3158 3160 3161 3163 3165 3166 3168 3170 3171 3173 3175 3176 3178 3179 3180 3182 3183 3184 3186 3187 3188 3189 3190 3191 3192 3193 3195 3196 3197 3198 3200 3201 3202 3204 3205 3206 3208 3209 3211 3212 3213 3215 3216 3218 3219 3221 3222 3224 3225 3227 3228 3229 3231 3232 3233 3234 3235 3236 3237 3238 3239 3240 3241 3241 3242 3242 3243 3243 3243 3244 3244 3244 3244 3244 3244 3244 3244 3243 3243 3243 3242 3242 3242 3241 3241 3241 3240 3240 3239 3239 3238 3238 3238 3237 3237 3236 3236 3236 3235 3235 3235 3234 3234 3234 3234 3234 3234 3234 3235 3235 3235 3236 3236 3237 3238 3238 3239 3240 3241 3242 3243 3244 3245 3246 3247 3249 3250 3251 3252 3253 3254 3255 3256 3256 3257 3258 3259 3259 3260 3260 3261 3261 3261 3262 3262 3262 3263 3263 3264 3265 3265 3266 3266 3267 3268 3268 3269 3269 3269 3270 3270 3271 3271 3271 3272 3272 3272 3272 3273 3273 3273 3273 3273 3274 3274 3274 3275 3275 3275 3276 3276 3277 3277 3278 3278 3279 3280 3280 3281 -9 
-9 3099 3099 3098 3098 3096 3095 3094 3093 3092 3091 3090 3089 3088 3087 3086 3085 3084 3083 3082 3081 3080 3079 3077 3076 3074 3073 3072 3071 3070 3069 3068 3067 3066 3066 3065 3065 3064 3064 3064 3064 3064 3065 3065 3065 3066 3066 3067 3068 3068 3069 3070 3071 3072 3073 3074 3075 3076 3077 3078 3079 3081 3082 3083 3084 3086 3087 3088 3090 3091 3093 3094 3096 3098 3099 3101 3103 3105 3106 3108 3110 3112 3113 3115 3117 3117 3118 3120 3121 3123 3124 3125 3127 3128 3130 3132 3134 3135 3137 3138 3140 3141 3143 3144 3146 3148 3149 3151 3153 3155 3156 3158 3160 3162 3163 3165 3167 3169 3170 3172 3174 3175 3177 3178 3180 3181 3183 3184 3185 3187 3188 3189 3190 3191 3192 3194 3195 3196 3197 3198 3200 3201 3202 3204 3205 3206 3208 3209 3211 3212 3214 3215 3216 3218 3219 3221 3222 3224 3225 3227 3228 3229 3231 3232 3233 3235 3236 3237 3238 3239 3240 3240 3241 3242 3242 3243 3243 3244 3244 3244 3245 3245 3245 3245 3245 3245 3245 3245 3244 3244 3244 3244 3243 3243 3242 3242 3241 3241 3241 3240 3240 3239 3239 3239 3238 3238 3237 3237 3237 3236 3236 3236 3235 3235 3235 3235 3235 3235 3236 3236 3236 3237 3237 3238 3238 3239 3240 3241 3242 3243 3244 3245 3246 3247 3248 3249 3251 3252 3253 3254 3255 3256 3257 3258 3259 3260 3260 3261 3262 3262 3263 3263 3263 3264 3264 3265 3265 3266 3266 3267 3267 3268 3269 3269 3270 3270 3271 3271 3272 3272 3273 3273 3273 3274 3274 3274 3274 3275 3275 3275 3275 3275 3275 3276 3276 3276 3276 3277 3277 3277 3278 3278 3279 3279 3280 3280 3281 3282 3282 3283 -9 
-9 3100 3100 3099 3099 3098 3097 3095 3094 3093 3092 3091 3090 3089 3088 3087 3086 3085 3084 3083 3082 3081 3080 3079 3078 3076 3075 3074 3073 3072 3071 3070 3070 3069 3068 3068 3068 3067 3067 3067 3067 3068 3068 3069 3069 3070 3070 3071 3072 3072 3073 3074 3075 3076 3077 3078 3079 3080 3082 3083 3084 3085 3086 3088 3089 3090 3091 3093 3094 3095 3097 3098 3100 3101 3103 3104 3106 3108 3109 3111 3112 3114 3116 3117 3117 3118 3120 3121 3122 3124 3125 3126 3128 3129 3130 3132 3133 3134 3137 3139 3140 3142 3143 3145 3146 3148 3150 3151 3153 3155 3157 3158 3160 3162 3164 3166 3167 3169 3171 3173 3174 3176 3178 3179 3181 3182 3184 3185 3186 3188 3189 3190 3191 3192 3194 3195 3196 3197 3199 3200 3201 3203 3204 3205 3206 3208 3209 3211 3212 3214 3215 3217 3218 3219 3221 3222 3224 3225 3227 3228 3230 3231 3232 3234 3235 3236 3237 3238 3239 3240 3241 3242 3242 3243 3244 3244 3245 3245 3245 3246 3246 3246 3246 3246 3246 3246 3246 3246 3246 3245 3245 3244 3244 3244 3243 3243 3242 3242 3242 3241 3241 3240 3240 3239 3239 3239 3238 3238 3237 3237 3237 3237 3236 3236 3236 3236 3236 3236 3237 3237 3237 3238 3238 3239 3240 3241 3241 3242 3243 3244 3245 3247 3248 3249 3250 3251 3253 3254 3255 3256 3257 3258 3259 3260 3261 3262 3263 3263 3264 3265 3265 3266 3266 3266 3267 3267 3268 3268 3269 3269 3270 3271 3271 3272 3272 3273 3274 3274 3274 3275 3275 3276 3276 3276 3276 3277 3277 3277 3277 3277 3277 3278 3278 3278 3278 3278 3278 3279 3279 3279 3280 3280 3280 3281 3281 3282 3283 3283 3284 3285 -9 
-9 3101 3101 3100 3099 3099 3098 3097 3094 3094 3093 3092 3091 3090 3089 3088 3087 3086 3085 3084 3083 3082 3081 3080 3079 3078 3077 3076 3075 3074 3073 3073 3072 3072 3071 3071 3071 3071 3071 3071 3071 3071 3072 3072 3073 3074 3074 3075 3076 3077 3078 3078 3079 3081 3082 3083 3084 3085 3086 3087 3089 3090 3091 3092 3093 3095 3096 3097 3098 3100 3101 3102 3103 3105 3106 3108 3109 3111 3112 3113 3115 3116 3116 3118 3119 3120 3121 3123 3124 3125 3126 3127 3129 3130 3131 3132 3134 3135 3136 3139 3141 3142 3144 3145 3147 3149 3150 3152 3154 3155 3157 3159 3161 3163 3164 3166 3168 3170 3172 3173 3175 3177 3178 3180 3182 3183 3185 3186 3187 3189 3190 3191 3192 3194 3195 3196 3197 3199 3200 3201 3202 3204 3205 3207 3208 3209 3211 3212 3214 3215 3217 3218 3220 3221 3222 3224 3225 3227 3228 3230 3231 3232 3234 3235 3236 3237 3238 3239 3240 3241 3242 3243 3244 3244 3245 3245 3246 3246 3246 3247 3247 3247 3247 3247 3247 3247 3247 3247 3247 3246 3246 3245 3245 3245 3244 3244 3243 3243 3242 3242 3242 3241 3241 3240 3240 3240 3239 3239 3238 3238 3238 3238 3237 3237 3237 3237 3237 3238 3238 3238 3239 3239 3240 3240 3241 3242 3243 3244 3245 3246 3247 3248 3249 3251 3252 3253 3255 3256 3257 3258 3259 3260 3262 3262 3263 3264 3265 3266 3266 3267 3268 3268 3269 3269 3270 3270 3270 3271 3271 3272 3273 3273 3274 3275 3275 3276 3276 3277 3277 3278 3278 3278 3278 3279 3279 3279 3279 3279 3279 3280 3280 3280 3280 3280 3280 3280 3280 3281 3281 3281 3281 3282 3282 3283 3283 3284 3284 3285 3286 3286 -9 
-9 3102 3101 3101 3100 3099 3098 3097 3097 3096 3095 3094 3093 3091 3089 3088 3087 3086 3085 3084 3084 3083 3082 3081 3080 3079 3078 3078 3077 3076 3075 3075 3075 3074 3074 3074 3074 3074 3074 3074 3074 3075 3075 3076 3077 3078 3078 3079 3080 3081 3082 3083 3084 3085 3086 3087 3088 3090 3091 3092 3093 3094 3096 3097 3098 3099 3100 3101 3103 3104 3105 3106 3107 3109 3110 3111 3112 3114 3115 3116 3118 3117 3119 3120 3121 3122 3123 3124 3125 3126 3127 3128 3130 3131 3132 3133 3134 3136 3137 3138 3141 3143 3144 3146 3148 3149 3151 3153 3154 3156 3158 3160 3161 3163 3165 3167 3169 3170 3172 3174 3176 3178 3179 3181 3183 3184 3186 3187 3189 3190 3191 3192 3194 3195 3196 3198 3199 3200 3201 3203 3204 3205 3207 3208 3210 3211 3213 3214 3215 3217 3218 3220 3221 3223 3224 3225 3227 3228 3230 3231 3232 3234 3235 3236 3238 3239 3240 3241 3242 3243 3243 3244 3245 3245 3246 3246 3247 3247 3248 3248 3248 3248 3248 3248 3248 3248 3248 3248 3248 3247 3247 3246 3246 3246 3245 3245 3244 3244 3243 3243 3242 3242 3242 3241 3241 3240 3240 3240 3239 3239 3239 3238 3238 3238 3238 3238 3238 3239 3239 3239 3240 3240 3241 3242 3242 3243 3244 3245 3246 3248 3249 3250 3251 3253 3254 3255 3257 3258 3259 3260 3262 3263 3264 3265 3266 3267 3267 3268 3269 3270 3270 3271 3271 3272 3272 3273 3273 3273 3274 3275 3275 3276 3277 3277 3278 3278 3279 3279 3280 3280 3280 3281 3281 3281 3281 3282 3282 3282 3282 3282 3282 3282 3282 3282 3282 3282 3282 3282 3283 3283 3283 3284 3284 3284 3285 3285 3286 3287 3287 3288 -9 
-9 3103 3102 3101 3101 3100 3099 3098 3097 3096 3095 3094 3093 3092 3091 3090 3088 3087 3086 3085 3084 3084 3083 3082 3081 3080 3080 3079 3078 3078 3078 3077 3077 3077 3077 3077 3077 3077 3077 3077 3078 3078 3079 3080 3080 3082 3082 3083 3084 3085 3086 3087 3088 3090 3091 3092 3093 3094 3096 3097 3098 3099 3100 3102 3103 3104 3105 3106 3107 3108 3109 3110 3111 3112 3113 3115 3115 3116 3117 3118 3119 3120 3121 3122 3123 3124 3125 3126 3127 3128 3129 3130 3131 3132 3133 3134 3135 3136 3138 3139 3141 3144 3145 3147 3148 3150 3151 3153 3155 3157 3158 3160 3162 3164 3166 3167 3169 3171 3173 3175 3177 3178 3180 3182 3184 3185 3187 3188 3190 3191 3192 3194 3195 3196 3198 3199 3200 3201 3203 3204 3206 3207 3208 3210 3211 3213 3214 3216 3217 3218 3220 3221 3223 3224 3226 3227 3228 3230 3231 3233 3234 3235 3237 3238 3239 3240 3241 3242 3243 3244 3245 3245 3246 3247 3247 3248 3248 3248 3249 3249 3249 3249 3249 3249 3249 3249 3249 3249 3248 3248 3248 3247 3247 3247 3246 3246 3245 3245 3244 3244 3243 3243 3242 3242 3242 3241 3241 3240 3240 3240 3240 3239 3239 3239 3239 3239 3239 3240 3240 3240 3241 3242 3242 3243 3244 3245 3246 3247 3248 3249 3250 3252 3253 3254 3256 3257 3259 3260 3261 3262 3264 3265 3266 3267 3268 3269 3270 3271 3271 3272 3273 3273 3274 3274 3275 3275 3275 3276 3277 3277 3278 3279 3279 3280 3280 3281 3282 3282 3282 3283 3283 3283 3284 3284 3284 3284 3284 3284 3284 3284 3284 3284 3284 3284 3284 3284 3284 3284 3284 3285 3285 3285 3286 3286 3286 3287 3288 3288 3289 3290 -9 
-9 3103 3103 3102 3101 3100 3099 3099 3097 3096 3095 3094 3093 3092 3091 3090 3088 3088 3087 3086 3085 3084 3084 3083 3082 3082 3081 3081 3080 3080 3080 3080 3079 3079 3079 3080 3080 3080 3080 3081 3081 3082 3083 3084 3084 3086 3087 3087 3088 3090 3091 3092 3093 3094 3095 3097 3098 3099 3100 3102 3103 3104 3105 3106 3107 3108 3109 3110 3111 3112 3113 3114 3115 3116 3117 3117 3118 3119 3120 3121 3122 3122 3123 3124 3125 3126 3127 3127 3128 3129 3130 3131 3132 3133 3134 3135 3136 3137 3139 3140 3141 3143 3146 3147 3149 3151 3152 3154 3156 3157 3159 3161 3163 3165 3166 3168 3170 3172 3174 3176 3178 3179 3181 3183 3185 3186 3188 3189 3191 3192 3194 3195 3196 3198 3199 3200 3202 3203 3204 3206 3207 3209 3210 3211 3213 3214 3216 3217 3219 3220 3222 3223 3224 3226 3227 3229 3230 3231 3233 3234 3235 3237 3238 3239 3240 3241 3242 3243 3244 3245 3246 3246 3247 3248 3248 3249 3249 3249 3250 3250 3250 3250 3250 3250 3250 3250 3250 3250 3249 3249 3249 3248 3248 3247 3247 3247 3246 3246 3245 3245 3244 3244 3243 3243 3242 3242 3242 3241 3241 3241 3240 3240 3240 3240 3240 3240 3240 3241 3241 3242 3242 3243 3243 3244 3245 3246 3247 3248 3249 3251 3252 3253 3255 3256 3258 3259 3260 3262 3263 3265 3266 3267 3268 3269 3270 3271 3272 3273 3274 3274 3275 3276 3276 3277 3277 3277 3278 3279 3279 3280 3281 3281 3282 3282 3283 3284 3284 3284 3285 3285 3285 3286 3286 3286 3286 3286 3286 3286 3286 3286 3286 3286 3286 3286 3286 3286 3286 3286 3286 3286 3287 3287 3287 3288 3288 3289 3289 3290 3290 3291 -9 
-9 3104 3103 3103 3102 3101 3100 3099 3098 3097 3096 3095 3094 3093 3092 3091 3090 3088 3087 3087 3086 3085 3085 3084 3083 3083 3082 3082 3082 3081 3082 3082 3082 3082 3082 3082 3083 3083 3084 3084 3085 3086 3086 3087 3088 3090 3091 3092 3093 3094 3095 3096 3097 3099 3100 3101 3103 3104 3105 3106 3108 3109 3110 3111 3112 3113 3114 3115 3116 3117 3117 3118 3119 3120 3120 3121 3122 3122 3123 3124 3124 3125 3126 3126 3127 3128 3128 3129 3130 3131 3131 3132 3133 3134 3135 3136 3137 3138 3140 3141 3142 3144 3147 3148 3150 3151 3153 3155 3156 3158 3160 3162 3164 3165 3167 3169 3171 3173 3175 3177 3179 3180 3182 3184 3186 3187 3189 3191 3192 3194 3195 3197 3198 3199 3201 3202 3203 3205 3206 3207 3209 3210 3212 3213 3215 3216 3217 3219 3220 3222 3223 3225 3226 3227 3229 3230 3232 3233 3234 3236 3237 3238 3239 3241 3242 3243 3244 3245 3246 3246 3247 3248 3248 3249 3249 3250 3250 3250 3251 3251 3251 3251 3251 3251 3251 3251 3251 3251 3250 3250 3250 3249 3249 3248 3248 3247 3247 3246 3246 3246 3245 3245 3244 3244 3243 3243 3243 3242 3242 3242 3241 3241 3241 3241 3241 3241 3241 3242 3242 3243 3243 3244 3245 3246 3246 3247 3249 3250 3251 3252 3254 3255 3256 3258 3259 3261 3262 3264 3265 3267 3268 3269 3270 3271 3272 3273 3274 3275 3276 3277 3277 3278 3279 3279 3279 3280 3280 3281 3282 3282 3283 3284 3284 3285 3286 3286 3287 3287 3287 3288 3288 3288 3288 3288 3288 3288 3288 3288 3288 3288 3288 3288 3288 3288 3288 3288 3288 3288 3288 3288 3288 3289 3289 3289 3290 3290 3291 3291 3292 3293 -9 
-9 3105 3104 3103 3102 3101 3100 3099 3098 3097 3096 3095 3094 3093 3092 3091 3090 3089 3088 3087 3087 3086 3085 3085 3085 3084 3084 3084 3083 3083 3084 3084 3084 3085 3085 3085 3086 3086 3087 3088 3088 3089 3090 3091 3092 3094 3095 3096 3097 3098 3099 3101 3102 3103 3105 3106 3107 3109 3110 3111 3113 3114 3115 3116 3117 3118 3119 3120 3120 3121 3122 3122 3123 3123 3124 3125 3125 3126 3126 3127 3127 3128 3128 3129 3129 3130 3130 3131 3132 3132 3133 3134 3135 3135 3136 3137 3138 3139 3141 3142 3143 3144 3148 3149 3151 3152 3154 3156 3157 3159 3161 3163 3164 3166 3168 3170 3172 3174 3176 3178 3180 3181 3183 3185 3187 3189 3190 3192 3194 3195 3197 3198 3199 3201 3202 3204 3205 3206 3208 3209 3210 3212 3213 3215 3216 3218 3219 3221 3222 3223 3225 3226 3228 3229 3230 3232 3233 3235 3236 3237 3238 3240 3241 3242 3243 3244 3245 3246 3247 3248 3248 3249 3249 3250 3250 3251 3251 3252 3252 3252 3252 3252 3252 3252 3252 3252 3252 3252 3251 3251 3251 3250 3250 3249 3249 3248 3248 3247 3247 3246 3246 3245 3245 3245 3244 3244 3243 3243 3243 3242 3242 3242 3242 3242 3242 3242 3242 3243 3243 3244 3244 3245 3246 3247 3248 3249 3250 3251 3252 3254 3255 3257 3258 3260 3261 3263 3264 3266 3267 3268 3270 3271 3272 3273 3274 3276 3276 3277 3278 3279 3280 3279 3280 3281 3281 3282 3283 3283 3284 3285 3285 3286 3287 3287 3288 3288 3289 3289 3290 3290 3290 3290 3290 3291 3291 3291 3290 3290 3290 3290 3290 3290 3290 3290 3290 3289 3289 3289 3290 3290 3290 3290 3290 3291 3291 3292 3292 3293 3293 3294 -9 
-9 3105 3105 3104 3103 3102 3101 3100 3099 3098 3097 3095 3094 3093 3092 3091 3091 3089 3089 3088 3087 3087 3086 3086 3086 3085 3085 3085 3085 3085 3086 3086 3087 3087 3088 3088 3089 3089 3090 3091 3092 3093 3094 3095 3096 3098 3099 3100 3101 3103 3104 3105 3107 3108 3109 3111 3112 3113 3115 3116 3117 3119 3120 3120 3121 3122 3123 3124 3125 3125 3126 3127 3127 3127 3128 3128 3129 3129 3129 3130 3130 3130 3131 3131 3132 3132 3132 3133 3133 3134 3135 3135 3136 3137 3138 3138 3139 3140 3142 3143 3144 3145 3149 3150 3152 3153 3155 3156 3158 3160 3162 3163 3165 3167 3169 3171 3173 3175 3177 3179 3181 3183 3185 3186 3188 3190 3192 3193 3195 3196 3198 3199 3201 3202 3204 3205 3207 3208 3209 3211 3212 3214 3215 3217 3218 3219 3221 3222 3224 3225 3227 3228 3229 3231 3232 3234 3235 3236 3237 3239 3240 3241 3242 3243 3245 3246 3246 3247 3248 3249 3250 3250 3251 3251 3252 3252 3252 3253 3253 3253 3253 3253 3253 3253 3253 3253 3253 3253 3252 3252 3252 3251 3251 3250 3250 3249 3249 3248 3248 3247 3247 3246 3246 3245 3245 3245 3244 3244 3244 3243 3243 3243 3243 3243 3243 3243 3243 3244 3244 3245 3245 3246 3247 3248 3249 3250 3251 3253 3254 3255 3257 3258 3260 3261 3263 3264 3266 3267 3269 3270 3272 3273 3274 3275 3277 3278 3277 3278 3279 3280 3281 3281 3282 3283 3283 3284 3285 3286 3286 3287 3288 3288 3289 3290 3290 3291 3291 3292 3292 3292 3292 3292 3293 3293 3293 3293 3292 3292 3292 3292 3292 3292 3291 3291 3291 3291 3291 3291 3291 3291 3291 3292 3292 3292 3293 3293 3294 3294 3295 3296 -9 
-9 3106 3105 3104 3103 3102 3101 3100 3099 3098 3097 3096 3095 3094 3093 3092 3091 3090 3089 3089 3088 3088 3087 3087 3087 3087 3087 3087 3087 3087 3088 3089 3089 3090 3090 3091 3092 3093 3093 3094 3095 3097 3098 3099 3100 3102 3103 3104 3106 3107 3108 3110 3111 3112 3114 3115 3117 3118 3119 3121 3122 3124 3125 3125 3126 3127 3128 3129 3129 3130 3130 3131 3131 3131 3132 3133 3133 3133 3134 3133 3133 3133 3133 3134 3134 3134 3134 3135 3135 3136 3136 3137 3137 3138 3139 3140 3141 3142 3143 3144 3145 3149 3150 3151 3153 3154 3156 3158 3159 3161 3163 3164 3166 3168 3170 3172 3174 3176 3178 3180 3182 3184 3186 3188 3189 3191 3193 3195 3196 3198 3199 3201 3202 3204 3205 3207 3208 3210 3211 3213 3214 3215 3217 3218 3220 3221 3223 3224 3226 3227 3228 3230 3231 3233 3234 3235 3237 3238 3239 3240 3242 3243 3244 3245 3246 3247 3248 3249 3249 3250 3251 3251 3252 3252 3253 3253 3253 3254 3254 3254 3254 3254 3254 3254 3254 3254 3254 3254 3253 3253 3252 3252 3252 3251 3251 3250 3250 3249 3249 3248 3248 3247 3247 3246 3246 3245 3245 3245 3244 3244 3244 3244 3244 3244 3244 3244 3244 3245 3245 3246 3247 3247 3248 3249 3250 3251 3253 3254 3255 3257 3258 3260 3261 3263 3264 3266 3268 3269 3271 3272 3274 3275 3276 3277 3278 3278 3279 3280 3281 3282 3283 3283 3284 3285 3286 3286 3287 3288 3288 3289 3290 3290 3291 3292 3292 3293 3293 3294 3294 3294 3294 3295 3295 3295 3295 3295 3294 3294 3294 3294 3294 3293 3293 3293 3293 3293 3293 3293 3293 3293 3293 3293 3293 3294 3294 3295 3295 3296 3296 3297 -9 
-9 3107 3106 3105 3104 3103 3102 3101 3100 3098 3097 3096 3095 3094 3093 3092 3091 3091 3090 3089 3089 3089 3088 3088 3088 3088 3088 3088 3088 3089 3091 3091 3092 3092 3093 3094 3095 3096 3097 3098 3099 3100 3101 3103 3104 3106 3107 3109 3110 3111 3113 3114 3116 3117 3118 3120 3121 3123 3124 3125 3126 3128 3129 3130 3131 3131 3132 3133 3134 3134 3135 3135 3135 3135 3136 3136 3137 3137 3137 3137 3137 3136 3136 3136 3136 3136 3137 3137 3137 3138 3138 3138 3139 3140 3140 3141 3142 3143 3144 3145 3149 3150 3151 3152 3154 3155 3157 3159 3160 3162 3164 3166 3167 3169 3171 3173 3175 3177 3179 3181 3183 3185 3187 3189 3191 3193 3194 3196 3198 3199 3201 3203 3204 3206 3207 3208 3210 3211 3213 3214 3216 3217 3219 3220 3222 3223 3224 3226 3227 3229 3230 3232 3233 3234 3236 3237 3238 3239 3241 3242 3243 3244 3245 3246 3247 3248 3249 3250 3251 3251 3252 3253 3253 3254 3254 3254 3255 3255 3255 3255 3255 3256 3256 3255 3255 3255 3255 3255 3254 3254 3253 3253 3252 3252 3251 3251 3250 3250 3249 3249 3248 3248 3247 3247 3247 3246 3246 3246 3245 3245 3245 3245 3245 3245 3245 3245 3245 3246 3246 3247 3248 3248 3249 3250 3251 3253 3254 3255 3257 3258 3260 3261 3263 3264 3266 3268 3269 3271 3272 3274 3275 3277 3278 3279 3279 3280 3281 3282 3283 3284 3285 3285 3286 3287 3287 3288 3289 3290 3290 3291 3292 3293 3293 3294 3294 3295 3295 3296 3296 3296 3296 3296 3296 3296 3296 3296 3296 3296 3296 3296 3295 3295 3295 3295 3294 3294 3294 3294 3294 3294 3294 3294 3295 3295 3295 3296 3297 3297 3298 3298 -9 
-9 3107 3107 3106 3105 3104 3102 3101 3100 3099 3098 3097 3096 3095 3094 3093 3092 3091 3091 3090 3090 3090 3090 3089 3089 3089 3090 3090 3090 3091 3093 3094 3094 3095 3096 3097 3098 3099 3100 3101 3102 3104 3105 3107 3108 3110 3111 3113 3114 3116 3117 3118 3120 3121 3123 3124 3126 3127 3129 3130 3131 3133 3134 3134 3135 3136 3137 3137 3138 3139 3139 3139 3139 3140 3140 3140 3140 3140 3140 3140 3140 3140 3141 3141 3139 3139 3139 3139 3141 3142 3142 3143 3141 3141 3142 3145 3146 3147 3148 3149 3150 3151 3152 3154 3155 3157 3158 3160 3161 3163 3165 3167 3168 3170 3172 3174 3176 3178 3180 3182 3184 3186 3188 3190 3192 3194 3196 3198 3199 3201 3203 3204 3206 3207 3209 3210 3212 3213 3215 3216 3218 3219 3221 3222 3223 3225 3226 3228 3229 3231 3232 3233 3235 3236 3237 3239 3240 3241 3242 3244 3245 3246 3247 3248 3249 3250 3251 3251 3252 3253 3253 3254 3254 3255 3255 3256 3256 3256 3256 3256 3257 3257 3257 3257 3256 3256 3256 3256 3255 3255 3254 3254 3253 3253 3252 3252 3251 3251 3250 3250 3249 3249 3248 3248 3247 3247 3247 3246 3246 3246 3246 3246 3246 3246 3246 3246 3246 3247 3247 3248 3249 3250 3250 3251 3253 3254 3255 3256 3258 3259 3261 3263 3264 3266 3268 3269 3271 3272 3274 3275 3277 3278 3280 3280 3281 3282 3283 3284 3285 3285 3286 3287 3288 3289 3289 3290 3291 3292 3292 3293 3294 3294 3295 3296 3296 3297 3297 3297 3298 3298 3298 3298 3298 3298 3298 3298 3298 3298 3297 3297 3297 3297 3296 3296 3296 3296 3296 3295 3295 3296 3296 3296 3296 3296 3297 3297 3298 3298 3299 3300 -9 
-9 3108 3107 3106 3105 3103 3102 3101 3100 3099 3098 3097 3096 3095 3094 3093 3093 3092 3092 3091 3091 3091 3091 3091 3091 3091 3091 3092 3092 3094 3095 3096 3097 3098 3099 3100 3101 3102 3103 3105 3106 3107 3109 3110 3112 3114 3115 3117 3118 3120 3121 3123 3124 3126 3127 3129 3130 3132 3133 3134 3136 3137 3138 3139 3140 3140 3141 3142 3142 3143 3143 3143 3143 3143 3143 3143 3143 3143 3143 3143 3143 3143 3143 3143 3143 3143 3143 3143 3144 3144 3144 3144 3145 3145 3146 3147 3147 3148 3149 3150 3151 3152 3154 3155 3156 3158 3159 3161 3163 3164 3166 3168 3170 3172 3173 3175 3177 3179 3181 3183 3186 3188 3190 3192 3193 3195 3197 3199 3201 3202 3204 3206 3207 3209 3210 3212 3213 3215 3216 3218 3219 3221 3222 3224 3225 3227 3228 3230 3231 3232 3234 3235 3236 3238 3239 3240 3242 3243 3244 3245 3246 3247 3248 3249 3250 3251 3252 3253 3253 3254 3255 3255 3256 3256 3256 3257 3257 3257 3257 3258 3258 3258 3258 3258 3257 3257 3257 3257 3256 3256 3255 3255 3254 3254 3253 3253 3252 3252 3251 3251 3250 3250 3249 3249 3248 3248 3248 3247 3247 3247 3247 3247 3247 3247 3247 3247 3247 3248 3248 3249 3250 3251 3252 3253 3254 3255 3256 3258 3259 3261 3262 3264 3266 3267 3269 3271 3272 3274 3276 3277 3278 3280 3280 3281 3282 3283 3284 3285 3286 3287 3288 3289 3290 3290 3291 3292 3293 3293 3294 3295 3295 3296 3297 3297 3298 3298 3299 3299 3299 3300 3300 3300 3300 3300 3300 3300 3299 3299 3299 3299 3298 3298 3298 3297 3297 3297 3297 3297 3297 3297 3297 3297 3297 3298 3298 3299 3299 3300 3300 3301 -9 
-9 3108 3107 3106 3105 3104 3103 3102 3101 3100 3099 3098 3097 3096 3095 3094 3094 3093 3093 3092 3092 3092 3092 3092 3092 3092 3093 3093 3094 3097 3097 3098 3099 3100 3102 3103 3104 3105 3107 3108 3109 3111 3113 3114 3116 3118 3119 3121 3122 3124 3126 3127 3129 3130 3132 3133 3135 3136 3137 3139 3140 3141 3142 3143 3144 3145 3145 3146 3146 3147 3147 3147 3147 3147 3147 3147 3147 3147 3147 3146 3146 3146 3146 3146 3146 3146 3146 3146 3146 3146 3146 3146 3147 3147 3148 3148 3149 3150 3151 3152 3153 3154 3155 3156 3158 3159 3161 3162 3164 3166 3167 3169 3171 3173 3175 3177 3179 3181 3183 3185 3187 3189 3191 3193 3195 3197 3199 3201 3202 3204 3206 3207 3209 3211 3212 3214 3215 3217 3218 3220 3221 3223 3224 3226 3227 3229 3230 3231 3233 3234 3236 3237 3238 3240 3241 3242 3243 3245 3246 3247 3248 3249 3250 3251 3252 3253 3253 3254 3255 3255 3256 3256 3257 3257 3258 3258 3258 3258 3259 3259 3259 3259 3259 3259 3259 3258 3258 3258 3257 3257 3256 3256 3255 3255 3254 3254 3253 3253 3252 3252 3251 3251 3250 3250 3249 3249 3248 3248 3248 3248 3248 3247 3247 3248 3248 3248 3248 3249 3249 3250 3251 3252 3253 3254 3255 3256 3257 3259 3260 3262 3264 3265 3267 3269 3270 3272 3274 3275 3277 3278 3280 3280 3281 3283 3284 3285 3286 3287 3288 3289 3289 3290 3291 3292 3293 3293 3294 3295 3296 3296 3297 3298 3298 3299 3300 3300 3300 3301 3301 3301 3301 3301 3301 3301 3301 3301 3301 3301 3300 3300 3300 3299 3299 3299 3299 3298 3298 3298 3298 3298 3298 3298 3299 3299 3299 3300 3300 3301 3302 3302 -9 
-9 3109 3108 3107 3106 3105 3104 3103 3102 3101 3099 3098 3098 3097 3096 3095 3095 3094 3094 3093 3093 3093 3093 3093 3094 3094 3095 3095 3098 3099 3100 3101 3102 3103 3104 3106 3107 3108 3110 3111 3113 3115 3116 3118 3120 3122 3123 3125 3126 3128 3130 3131 3133 3134 3136 3137 3139 3140 3142 3143 3144 3145 3146 3147 3148 3149 3150 3150 3150 3151 3151 3151 3151 3151 3151 3151 3150 3150 3150 3150 3149 3149 3149 3148 3148 3148 3148 3148 3148 3148 3148 3148 3149 3149 3149 3150 3151 3151 3152 3153 3154 3155 3157 3158 3159 3161 3162 3164 3165 3167 3169 3171 3172 3174 3176 3178 3180 3182 3184 3186 3188 3190 3192 3194 3196 3198 3200 3202 3204 3206 3207 3209 3211 3212 3214 3216 3217 3219 3220 3222 3223 3225 3226 3228 3229 3230 3232 3233 3235 3236 3237 3239 3240 3241 3243 3244 3245 3246 3247 3249 3250 3251 3252 3252 3253 3254 3255 3256 3256 3257 3257 3258 3258 3259 3259 3259 3260 3260 3260 3260 3260 3260 3260 3260 3260 3259 3259 3259 3258 3258 3257 3257 3256 3256 3255 3255 3254 3254 3253 3253 3252 3252 3251 3251 3250 3250 3249 3249 3249 3249 3248 3248 3248 3249 3249 3249 3249 3250 3250 3251 3252 3253 3254 3255 3256 3257 3259 3260 3262 3263 3265 3266 3268 3270 3272 3273 3275 3277 3277 3279 3280 3281 3283 3284 3285 3286 3287 3288 3289 3290 3291 3292 3293 3293 3294 3295 3296 3296 3297 3298 3299 3299 3300 3301 3301 3302 3302 3302 3303 3303 3303 3303 3303 3303 3303 3302 3302 3302 3302 3301 3301 3301 3300 3300 3300 3300 3299 3299 3299 3299 3299 3300 3300 3300 3301 3301 3302 3302 3303 3304 -9 
-9 3110 3109 3108 3107 3106 3105 3104 3103 3102 3100 3099 3099 3098 3097 3096 3096 3095 3095 3095 3095 3095 3095 3095 3095 3096 3096 3097 3100 3101 3102 3103 3105 3106 3107 3109 3110 3112 3113 3115 3116 3118 3120 3122 3124 3126 3127 3129 3130 3132 3134 3135 3137 3139 3140 3142 3143 3145 3146 3147 3149 3150 3151 3152 3152 3153 3154 3154 3154 3155 3155 3155 3155 3154 3154 3154 3154 3153 3153 3153 3152 3152 3151 3151 3151 3151 3150 3150 3150 3150 3150 3150 3151 3151 3151 3152 3153 3153 3154 3155 3156 3157 3158 3160 3161 3162 3164 3165 3167 3169 3170 3172 3174 3176 3178 3180 3182 3184 3186 3188 3190 3192 3194 3196 3198 3200 3202 3204 3206 3207 3209 3211 3213 3214 3216 3217 3219 3220 3222 3224 3225 3227 3228 3229 3231 3232 3234 3235 3237 3238 3239 3241 3242 3243 3244 3246 3247 3248 3249 3250 3251 3252 3253 3254 3255 3256 3256 3257 3258 3258 3259 3259 3260 3260 3260 3261 3261 3261 3261 3261 3261 3261 3261 3261 3261 3261 3260 3260 3259 3259 3258 3258 3257 3257 3256 3256 3255 3255 3254 3254 3253 3253 3252 3252 3251 3251 3250 3250 3250 3250 3249 3249 3249 3250 3250 3250 3250 3251 3251 3252 3253 3254 3255 3256 3257 3258 3260 3261 3263 3264 3266 3268 3269 3271 3273 3274 3276 3277 3279 3280 3281 3283 3284 3285 3286 3287 3288 3289 3290 3291 3292 3293 3294 3295 3295 3296 3297 3298 3298 3299 3300 3301 3301 3302 3302 3303 3303 3304 3304 3304 3304 3304 3304 3304 3304 3304 3303 3303 3303 3303 3302 3302 3302 3301 3301 3301 3301 3300 3300 3300 3301 3301 3301 3301 3302 3302 3303 3303 3304 3305 -9 
-9 3111 3110 3109 3108 3107 3106 3105 3104 3103 3102 3101 3100 3099 3098 3097 3097 3096 3096 3096 3096 3096 3096 3097 3097 3098 3098 3101 3102 3103 3105 3106 3107 3109 3110 3111 3113 3115 3116 3118 3120 3122 3123 3125 3128 3129 3131 3133 3134 3136 3138 3139 3141 3143 3144 3146 3147 3149 3150 3151 3153 3154 3155 3156 3156 3157 3158 3158 3158 3158 3158 3158 3158 3158 3158 3157 3157 3157 3156 3156 3155 3155 3154 3154 3153 3153 3153 3153 3152 3152 3152 3152 3153 3153 3153 3154 3154 3155 3156 3157 3158 3159 3160 3161 3163 3164 3165 3167 3168 3170 3172 3174 3175 3177 3179 3181 3183 3185 3187 3189 3191 3194 3196 3198 3200 3202 3204 3206 3207 3209 3211 3213 3214 3216 3218 3219 3221 3222 3224 3225 3227 3228 3230 3231 3233 3234 3236 3237 3238 3240 3241 3242 3244 3245 3246 3248 3249 3250 3251 3252 3253 3254 3255 3256 3257 3257 3258 3259 3259 3260 3260 3261 3261 3262 3262 3262 3262 3262 3263 3263 3263 3263 3263 3262 3262 3262 3262 3261 3261 3260 3260 3259 3259 3258 3257 3257 3256 3256 3255 3255 3254 3254 3253 3253 3252 3252 3251 3251 3251 3251 3251 3250 3250 3251 3251 3251 3251 3252 3252 3253 3254 3255 3256 3257 3258 3259 3261 3262 3264 3265 3267 3269 3270 3272 3274 3275 3277 3278 3280 3281 3282 3284 3285 3286 3287 3289 3290 3291 3292 3292 3293 3294 3295 3296 3297 3297 3298 3299 3300 3300 3301 3302 3302 3303 3303 3304 3304 3305 3305 3305 3305 3305 3305 3305 3305 3305 3305 3304 3304 3304 3303 3303 3303 3302 3302 3302 3302 3301 3301 3301 3302 3302 3302 3302 3303 3303 3304 3305 3305 3306 -9 
-9 3112 3111 3110 3109 3108 3107 3106 3105 3104 3103 3102 3101 3100 3099 3099 3098 3098 3098 3097 3097 3098 3098 3098 3099 3099 3103 3104 3105 3106 3107 3108 3110 3111 3113 3114 3116 3118 3120 3121 3123 3125 3127 3129 3131 3133 3135 3136 3138 3140 3141 3143 3145 3147 3148 3150 3151 3153 3154 3155 3157 3158 3159 3160 3160 3161 3161 3162 3162 3162 3162 3162 3162 3162 3161 3161 3160 3160 3159 3159 3158 3158 3157 3157 3156 3156 3155 3155 3155 3155 3155 3155 3155 3155 3155 3156 3156 3157 3158 3159 3160 3161 3162 3163 3164 3166 3167 3169 3170 3172 3174 3175 3177 3179 3181 3183 3185 3187 3189 3191 3193 3195 3197 3199 3201 3203 3205 3207 3209 3211 3213 3214 3216 3218 3220 3221 3223 3224 3226 3227 3229 3230 3232 3233 3235 3236 3238 3239 3240 3242 3243 3244 3246 3247 3248 3249 3251 3252 3253 3254 3255 3256 3257 3257 3258 3259 3260 3260 3261 3261 3262 3262 3263 3263 3263 3264 3264 3264 3264 3264 3264 3264 3264 3264 3264 3263 3263 3262 3262 3261 3261 3260 3260 3259 3259 3258 3258 3257 3256 3256 3255 3255 3254 3254 3253 3253 3253 3252 3252 3252 3252 3252 3252 3252 3252 3252 3252 3253 3253 3254 3255 3256 3257 3258 3259 3260 3262 3263 3265 3266 3268 3270 3271 3273 3275 3276 3278 3279 3281 3282 3283 3285 3286 3287 3288 3290 3291 3292 3293 3294 3294 3295 3296 3297 3298 3298 3299 3300 3301 3301 3302 3303 3303 3304 3304 3305 3305 3306 3306 3306 3306 3306 3306 3306 3306 3306 3306 3305 3305 3305 3304 3304 3304 3303 3303 3303 3303 3302 3302 3302 3303 3303 3303 3303 3304 3304 3305 3306 3306 3307 -9 
-9 3113 3113 3112 3111 3110 3108 3107 3106 3105 3105 3104 3103 3101 3101 3100 3100 3099 3099 3099 3099 3099 3100 3100 3101 3104 3105 3106 3107 3108 3110 3111 3112 3114 3116 3117 3119 3121 3123 3125 3127 3128 3130 3133 3135 3136 3138 3140 3142 3144 3145 3147 3149 3150 3152 3154 3155 3157 3158 3159 3161 3164 3165 3163 3164 3165 3165 3166 3166 3166 3166 3166 3165 3165 3165 3164 3164 3163 3162 3162 3161 3160 3160 3159 3159 3158 3158 3157 3157 3157 3157 3157 3157 3157 3157 3158 3158 3159 3160 3161 3162 3163 3164 3165 3166 3168 3169 3170 3172 3174 3175 3177 3179 3181 3183 3185 3187 3189 3191 3193 3195 3197 3199 3201 3203 3205 3207 3209 3211 3213 3215 3216 3218 3220 3221 3223 3225 3226 3228 3229 3231 3232 3234 3235 3237 3238 3239 3241 3242 3244 3245 3246 3247 3249 3250 3251 3252 3254 3255 3256 3257 3258 3258 3259 3260 3261 3261 3262 3263 3263 3264 3264 3264 3265 3265 3265 3265 3265 3266 3266 3266 3266 3265 3265 3265 3265 3264 3264 3263 3263 3262 3262 3261 3261 3260 3259 3259 3258 3258 3257 3257 3256 3255 3255 3255 3254 3254 3253 3253 3253 3253 3253 3253 3253 3253 3253 3254 3254 3255 3255 3256 3257 3258 3259 3260 3261 3263 3264 3266 3267 3269 3271 3272 3274 3275 3277 3279 3280 3282 3283 3284 3286 3287 3288 3289 3291 3292 3293 3294 3294 3295 3296 3297 3298 3299 3299 3300 3301 3302 3302 3303 3304 3304 3305 3305 3306 3306 3306 3307 3307 3307 3307 3307 3307 3307 3307 3306 3306 3306 3305 3305 3305 3304 3304 3304 3304 3304 3303 3303 3303 3304 3304 3304 3304 3305 3305 3306 3307 3307 3308 -9 
-9 3115 3114 3113 3112 3111 3110 3109 3108 3107 3106 3105 3104 3104 3103 3103 3103 3102 3101 3101 3101 3101 3101 3102 3105 3106 3107 3108 3109 3111 3112 3114 3115 3117 3118 3120 3122 3124 3126 3128 3130 3132 3134 3136 3138 3140 3142 3144 3145 3147 3149 3151 3152 3154 3156 3157 3159 3160 3162 3163 3167 3168 3169 3169 3170 3171 3171 3171 3171 3171 3171 3169 3169 3168 3168 3167 3167 3166 3165 3165 3164 3163 3163 3162 3161 3161 3160 3160 3160 3159 3159 3159 3159 3159 3160 3160 3161 3161 3162 3163 3164 3165 3166 3167 3168 3169 3171 3172 3174 3175 3177 3179 3181 3183 3184 3186 3188 3190 3192 3195 3197 3199 3201 3203 3205 3207 3209 3211 3213 3215 3216 3218 3220 3222 3223 3225 3227 3228 3230 3231 3233 3234 3236 3237 3239 3240 3241 3243 3244 3245 3247 3248 3249 3251 3252 3253 3254 3255 3256 3257 3258 3259 3260 3261 3262 3263 3263 3264 3264 3265 3265 3266 3266 3266 3267 3267 3267 3267 3267 3267 3267 3267 3267 3267 3267 3266 3266 3265 3265 3264 3264 3263 3263 3262 3261 3261 3260 3260 3259 3258 3258 3257 3257 3256 3256 3255 3255 3255 3254 3254 3254 3254 3254 3254 3254 3254 3255 3255 3256 3256 3257 3258 3259 3260 3261 3262 3264 3265 3267 3268 3270 3272 3273 3275 3276 3278 3279 3281 3282 3284 3285 3287 3288 3289 3290 3291 3292 3293 3294 3295 3296 3297 3298 3299 3299 3300 3301 3302 3302 3303 3304 3304 3305 3306 3306 3306 3307 3307 3307 3308 3308 3308 3308 3308 3308 3307 3307 3307 3307 3306 3306 3306 3305 3305 3305 3305 3304 3304 3304 3304 3304 3305 3305 3305 3306 3306 3307 3308 3308 3309 -9 
-9 3117 3116 3115 3114 3113 3112 3110 3109 3109 3108 3107 3106 3105 3105 3105 3104 3104 3104 3104 3105 3105 3106 3106 3107 3108 3109 3110 3112 3113 3115 3116 3118 3119 3121 3123 3125 3127 3129 3131 3133 3135 3138 3140 3141 3143 3145 3147 3149 3151 3152 3154 3156 3158 3159 3161 3163 3164 3165 3167 3170 3172 3172 3173 3174 3174 3175 3175 3175 3175 3174 3174 3172 3172 3171 3170 3170 3169 3168 3168 3167 3166 3165 3165 3164 3163 3163 3162 3162 3162 3162 3161 3162 3162 3162 3162 3163 3163 3164 3165 3166 3167 3168 3169 3170 3171 3173 3174 3176 3177 3179 3181 3183 3184 3186 3188 3190 3192 3194 3196 3199 3201 3203 3205 3207 3209 3211 3213 3215 3216 3218 3220 3222 3224 3225 3227 3228 3230 3232 3233 3235 3236 3238 3239 3240 3242 3243 3245 3246 3247 3249 3250 3251 3253 3254 3255 3256 3257 3258 3259 3260 3261 3262 3263 3264 3264 3265 3266 3266 3267 3267 3268 3268 3268 3268 3269 3269 3269 3269 3269 3269 3269 3269 3268 3268 3268 3267 3267 3266 3266 3265 3265 3264 3264 3263 3262 3262 3261 3260 3260 3259 3259 3258 3258 3257 3257 3256 3256 3256 3255 3255 3255 3255 3255 3255 3255 3256 3256 3257 3257 3258 3259 3260 3261 3262 3263 3265 3266 3268 3269 3271 3273 3274 3276 3277 3279 3280 3282 3283 3285 3286 3287 3289 3290 3291 3292 3293 3294 3295 3296 3297 3298 3299 3299 3300 3301 3302 3302 3303 3304 3304 3305 3306 3306 3307 3307 3307 3308 3308 3308 3308 3308 3309 3308 3308 3308 3308 3308 3307 3307 3307 3306 3306 3306 3306 3305 3305 3305 3305 3305 3305 3306 3306 3306 3307 3307 3308 3309 3309 3310 -9 
-9 3118 3117 3116 3115 3114 3113 3112 3111 3110 3109 3108 3108 3107 3107 3106 3106 3106 3106 3106 3107 3107 3108 3108 3109 3110 3111 3113 3114 3116 3117 3119 3120 3122 3124 3126 3128 3130 3132 3134 3136 3139 3141 3143 3145 3147 3149 3150 3152 3154 3156 3158 3160 3161 3163 3165 3166 3168 3169 3170 3171 3175 3176 3177 3177 3178 3178 3178 3178 3178 3178 3177 3175 3175 3174 3174 3173 3172 3171 3170 3170 3169 3168 3167 3167 3166 3165 3165 3164 3164 3164 3164 3164 3164 3164 3165 3165 3166 3166 3167 3168 3169 3170 3171 3172 3174 3175 3176 3178 3179 3181 3183 3185 3186 3188 3190 3192 3194 3196 3198 3200 3203 3205 3207 3209 3211 3213 3215 3217 3218 3220 3222 3224 3226 3227 3229 3230 3232 3234 3235 3237 3238 3240 3241 3242 3244 3245 3247 3248 3249 3251 3252 3253 3255 3256 3257 3258 3259 3260 3261 3262 3263 3264 3265 3266 3266 3267 3268 3268 3269 3269 3269 3270 3270 3270 3270 3271 3271 3271 3271 3271 3271 3270 3270 3270 3270 3269 3269 3268 3268 3267 3266 3266 3265 3265 3264 3263 3263 3262 3261 3261 3260 3260 3259 3259 3258 3258 3257 3257 3257 3256 3256 3256 3256 3256 3257 3257 3257 3258 3258 3259 3260 3261 3262 3263 3264 3266 3267 3268 3270 3272 3273 3275 3276 3278 3280 3281 3283 3284 3285 3287 3288 3289 3291 3292 3293 3294 3295 3296 3297 3298 3298 3299 3300 3301 3301 3302 3303 3304 3304 3305 3306 3306 3307 3307 3308 3308 3308 3309 3309 3309 3309 3309 3309 3309 3309 3309 3308 3308 3308 3308 3307 3307 3307 3306 3306 3306 3306 3306 3306 3306 3306 3307 3307 3308 3308 3309 3310 3311 3311 -9 
-9 3120 3119 3118 3117 3116 3115 3114 3113 3112 3111 3110 3110 3109 3109 3108 3108 3108 3108 3108 3109 3109 3110 3111 3112 3113 3114 3115 3117 3118 3120 3121 3123 3125 3127 3129 3131 3133 3135 3138 3140 3142 3144 3146 3148 3150 3152 3154 3156 3158 3159 3161 3163 3165 3166 3168 3170 3171 3172 3174 3175 3179 3180 3180 3181 3181 3182 3182 3182 3181 3181 3180 3180 3178 3177 3177 3176 3175 3174 3173 3173 3172 3171 3170 3169 3169 3168 3167 3167 3167 3166 3166 3166 3166 3167 3167 3167 3168 3168 3169 3170 3171 3172 3173 3174 3176 3177 3179 3180 3182 3183 3185 3187 3189 3190 3192 3194 3196 3198 3200 3202 3205 3207 3209 3211 3213 3215 3217 3219 3220 3222 3224 3226 3227 3229 3231 3232 3234 3235 3237 3239 3240 3241 3243 3244 3246 3247 3249 3250 3251 3253 3254 3255 3257 3258 3259 3260 3261 3262 3263 3264 3265 3266 3267 3268 3268 3269 3270 3270 3271 3271 3271 3272 3272 3272 3272 3273 3273 3273 3273 3273 3272 3272 3272 3272 3271 3271 3270 3270 3269 3269 3268 3267 3267 3266 3266 3265 3264 3264 3263 3262 3262 3261 3261 3260 3260 3259 3259 3258 3258 3258 3258 3258 3258 3258 3258 3258 3258 3259 3260 3260 3261 3262 3263 3264 3265 3266 3268 3270 3271 3273 3274 3276 3277 3279 3280 3282 3283 3285 3286 3287 3289 3290 3291 3292 3293 3294 3295 3296 3297 3298 3299 3300 3301 3301 3302 3303 3303 3304 3305 3305 3306 3307 3307 3308 3308 3308 3309 3309 3309 3309 3310 3310 3310 3310 3309 3309 3309 3309 3309 3308 3308 3308 3307 3307 3307 3307 3307 3307 3307 3307 3307 3308 3308 3309 3309 3310 3311 3312 3312 -9 
-9 3122 3121 3120 3119 3118 3117 3116 3115 3114 3113 3112 3111 3111 3110 3110 3110 3110 3110 3110 3111 3111 3112 3113 3114 3115 3116 3118 3119 3121 3122 3124 3126 3128 3130 3132 3134 3138 3139 3141 3143 3145 3147 3149 3151 3153 3155 3157 3159 3161 3163 3165 3166 3168 3170 3171 3173 3174 3176 3177 3178 3179 3183 3184 3184 3185 3185 3185 3185 3185 3184 3184 3183 3181 3180 3179 3179 3178 3177 3176 3175 3174 3174 3173 3172 3171 3171 3170 3170 3169 3169 3169 3169 3169 3169 3169 3170 3170 3171 3172 3172 3173 3174 3175 3177 3178 3179 3181 3182 3184 3185 3187 3189 3191 3193 3194 3196 3198 3200 3202 3205 3207 3209 3211 3213 3215 3217 3219 3221 3222 3224 3226 3228 3229 3231 3233 3234 3236 3237 3239 3241 3242 3243 3245 3246 3248 3249 3251 3252 3253 3255 3256 3257 3259 3260 3261 3262 3263 3264 3265 3266 3267 3268 3269 3270 3270 3271 3272 3272 3273 3273 3273 3274 3274 3274 3274 3275 3275 3275 3275 3274 3274 3274 3274 3274 3273 3273 3272 3272 3271 3270 3270 3269 3269 3268 3267 3267 3266 3265 3265 3264 3263 3263 3262 3262 3261 3261 3260 3260 3260 3259 3259 3259 3259 3259 3259 3259 3260 3260 3261 3261 3262 3263 3264 3265 3266 3267 3269 3271 3272 3273 3275 3276 3278 3279 3281 3282 3284 3285 3287 3288 3289 3290 3292 3293 3294 3295 3296 3297 3298 3299 3299 3300 3301 3302 3302 3303 3304 3304 3305 3306 3306 3307 3307 3308 3308 3309 3309 3309 3310 3310 3310 3310 3310 3310 3310 3310 3310 3309 3309 3309 3309 3308 3308 3308 3308 3308 3308 3308 3308 3308 3308 3309 3309 3310 3310 3311 3312 3313 3314 -9 
-9 3123 3123 3122 3121 3120 3119 3118 3117 3116 3115 3114 3113 3113 3112 3112 3112 3112 3112 3113 3113 3114 3114 3115 3116 3117 3119 3120 3122 3123 3125 3127 3129 3131 3133 3137 3139 3141 3142 3144 3146 3148 3150 3152 3154 3156 3158 3160 3162 3164 3166 3168 3170 3171 3173 3175 3176 3178 3179 3180 3181 3182 3183 3187 3188 3188 3188 3188 3188 3188 3187 3187 3186 3185 3183 3182 3182 3181 3180 3179 3178 3177 3176 3175 3175 3174 3173 3173 3172 3172 3171 3171 3171 3171 3171 3172 3172 3173 3173 3174 3175 3176 3177 3178 3179 3180 3182 3183 3185 3186 3188 3189 3191 3193 3195 3197 3199 3201 3203 3205 3207 3209 3211 3213 3215 3217 3219 3221 3223 3224 3226 3228 3230 3231 3233 3235 3236 3238 3239 3241 3243 3244 3245 3247 3248 3250 3251 3253 3254 3255 3257 3258 3259 3261 3262 3263 3264 3265 3266 3267 3268 3269 3270 3271 3272 3273 3273 3274 3274 3275 3275 3276 3276 3276 3276 3276 3277 3277 3277 3277 3276 3276 3276 3276 3276 3275 3275 3274 3274 3273 3272 3272 3271 3270 3270 3269 3268 3268 3267 3266 3266 3265 3264 3264 3263 3263 3262 3262 3261 3261 3261 3261 3260 3260 3260 3260 3261 3261 3261 3262 3262 3263 3264 3265 3266 3267 3268 3270 3272 3273 3274 3276 3277 3278 3280 3281 3283 3284 3286 3287 3288 3290 3291 3292 3293 3294 3295 3296 3297 3298 3299 3300 3301 3301 3302 3303 3303 3304 3305 3305 3306 3307 3307 3308 3308 3309 3309 3310 3310 3310 3310 3310 3311 3311 3311 3311 3310 3310 3310 3310 3310 3309 3309 3309 3309 3309 3309 3309 3309 3309 3309 3309 3310 3310 3311 3311 3312 3313 3314 3315 -9 
-9 3126 3125 3124 3122 3121 3120 3119 3119 3118 3117 3116 3115 3115 3115 3114 3114 3114 3114 3115 3115 3116 3117 3118 3119 3120 3121 3123 3124 3126 3128 3129 3131 3136 3138 3140 3142 3143 3145 3147 3150 3152 3154 3156 3158 3160 3162 3164 3165 3167 3169 3171 3173 3175 3176 3178 3179 3181 3182 3183 3184 3185 3186 3187 3191 3191 3191 3191 3191 3191 3190 3190 3189 3188 3186 3185 3184 3184 3183 3182 3181 3180 3179 3178 3177 3177 3176 3175 3175 3174 3174 3174 3174 3174 3174 3174 3175 3175 3176 3176 3177 3178 3179 3180 3181 3183 3184 3185 3187 3188 3190 3192 3193 3195 3197 3199 3201 3203 3205 3207 3209 3211 3213 3215 3217 3219 3221 3223 3225 3226 3228 3230 3232 3233 3235 3237 3238 3240 3242 3243 3245 3246 3247 3249 3250 3252 3253 3255 3256 3257 3259 3260 3261 3263 3264 3265 3266 3267 3269 3270 3271 3271 3272 3273 3274 3275 3275 3276 3276 3277 3277 3278 3278 3278 3278 3279 3279 3279 3279 3279 3279 3278 3278 3278 3278 3277 3277 3276 3276 3275 3274 3274 3273 3272 3272 3271 3270 3269 3268 3268 3268 3267 3266 3266 3265 3264 3264 3263 3263 3263 3262 3262 3262 3262 3262 3262 3262 3262 3263 3263 3264 3264 3265 3266 3267 3268 3270 3271 3272 3274 3275 3276 3278 3279 3281 3282 3283 3285 3286 3288 3289 3290 3291 3292 3294 3295 3296 3297 3297 3298 3299 3300 3301 3302 3302 3303 3304 3304 3305 3306 3306 3307 3307 3308 3308 3309 3309 3310 3310 3310 3311 3311 3311 3311 3311 3311 3311 3311 3311 3310 3310 3310 3310 3310 3310 3309 3309 3309 3309 3310 3310 3310 3311 3311 3312 3312 3313 3314 3315 3316 -9 
-9 3128 3127 3126 3125 3124 3123 3122 3122 3121 3120 3120 3118 3117 3117 3117 3116 3117 3117 3117 3118 3118 3119 3120 3121 3122 3124 3125 3127 3129 3130 3132 3137 3139 3140 3142 3144 3146 3148 3150 3153 3155 3157 3159 3161 3163 3165 3167 3169 3171 3172 3174 3176 3178 3179 3181 3182 3184 3185 3186 3188 3189 3189 3190 3191 3194 3194 3194 3194 3194 3193 3193 3192 3191 3189 3188 3187 3186 3185 3185 3184 3183 3182 3181 3180 3179 3178 3178 3177 3177 3177 3176 3176 3176 3176 3177 3177 3178 3178 3179 3180 3181 3182 3183 3184 3185 3186 3188 3189 3191 3192 3194 3196 3197 3199 3201 3203 3205 3207 3209 3211 3213 3215 3217 3219 3221 3223 3225 3227 3228 3230 3232 3234 3235 3237 3239 3240 3242 3243 3245 3247 3248 3250 3251 3252 3254 3255 3257 3258 3260 3261 3262 3264 3265 3266 3267 3268 3270 3271 3272 3273 3274 3275 3275 3276 3277 3277 3278 3279 3279 3279 3280 3280 3280 3281 3281 3281 3281 3281 3281 3281 3280 3280 3280 3280 3279 3279 3278 3278 3277 3276 3276 3275 3274 3273 3273 3272 3271 3270 3270 3269 3269 3268 3267 3267 3266 3266 3265 3265 3264 3264 3264 3263 3263 3263 3263 3263 3263 3264 3264 3265 3265 3266 3267 3268 3269 3271 3272 3273 3274 3276 3277 3278 3280 3281 3282 3284 3285 3287 3288 3289 3290 3292 3293 3294 3295 3296 3297 3298 3299 3299 3300 3301 3302 3302 3303 3304 3304 3305 3306 3306 3307 3308 3308 3309 3309 3310 3310 3310 3311 3311 3311 3311 3311 3311 3311 3311 3311 3311 3311 3311 3311 3311 3310 3310 3310 3310 3310 3310 3310 3311 3311 3311 3312 3313 3313 3314 3315 3316 3317 -9 
-9 3130 3129 3128 3127 3126 3125 3125 3124 3123 3122 3122 3121 3121 3119 3119 3119 3119 3119 3119 3120 3121 3122 3123 3124 3125 3126 3128 3129 3131 3133 3138 3139 3141 3143 3145 3147 3149 3151 3153 3156 3158 3160 3162 3164 3166 3168 3170 3172 3174 3175 3177 3179 3181 3182 3184 3186 3187 3188 3189 3191 3191 3192 3193 3194 3194 3197 3197 3197 3197 3196 3196 3195 3194 3192 3191 3190 3189 3188 3187 3186 3185 3184 3184 3183 3182 3181 3180 3180 3179 3179 3179 3179 3179 3179 3179 3180 3180 3181 3181 3182 3183 3184 3185 3186 3188 3189 3190 3192 3193 3195 3196 3198 3200 3202 3204 3205 3207 3209 3211 3213 3215 3217 3219 3221 3223 3225 3227 3229 3231 3232 3234 3236 3237 3239 3241 3242 3244 3245 3247 3249 3250 3252 3253 3254 3256 3257 3259 3260 3262 3263 3264 3266 3267 3268 3269 3271 3272 3273 3274 3275 3276 3277 3277 3278 3279 3280 3280 3281 3281 3282 3282 3282 3283 3283 3283 3283 3283 3283 3283 3283 3283 3282 3282 3282 3281 3281 3280 3280 3279 3278 3278 3277 3276 3276 3275 3274 3273 3272 3272 3271 3270 3270 3269 3269 3268 3267 3267 3266 3266 3265 3265 3265 3265 3265 3265 3265 3265 3265 3265 3266 3266 3267 3268 3269 3271 3272 3273 3274 3275 3276 3278 3279 3280 3282 3283 3284 3286 3287 3288 3290 3291 3292 3293 3294 3295 3296 3297 3298 3299 3300 3300 3301 3302 3303 3303 3304 3305 3305 3306 3306 3307 3308 3308 3309 3309 3310 3310 3311 3311 3311 3311 3312 3312 3312 3312 3312 3312 3312 3312 3311 3311 3311 3311 3311 3311 3311 3311 3311 3311 3312 3312 3312 3313 3314 3314 3315 3316 3317 3318 -9 
-9 3132 3131 3130 3129 3128 3127 3127 3126 3125 3125 3124 3124 3123 3123 3121 3121 3121 3121 3122 3122 3123 3124 3125 3126 3128 3129 3131 3132 3134 3139 3140 3142 3144 3146 3148 3150 3152 3154 3156 3159 3161 3163 3165 3167 3169 3171 3173 3175 3177 3179 3180 3182 3184 3185 3187 3189 3190 3191 3192 3193 3194 3195 3196 3196 3197 3197 3200 3200 3200 3199 3199 3198 3195 3194 3194 3193 3192 3191 3190 3189 3188 3187 3186 3185 3185 3184 3183 3183 3182 3182 3182 3181 3181 3182 3182 3182 3183 3183 3184 3185 3186 3187 3188 3189 3190 3191 3193 3194 3196 3197 3199 3201 3202 3204 3206 3208 3210 3212 3214 3216 3218 3219 3221 3223 3225 3227 3229 3231 3233 3234 3236 3238 3239 3241 3243 3244 3246 3247 3249 3251 3252 3254 3255 3257 3258 3259 3261 3262 3264 3265 3266 3268 3269 3270 3272 3273 3274 3275 3276 3277 3278 3279 3280 3280 3281 3282 3282 3283 3283 3284 3284 3284 3285 3285 3285 3285 3285 3285 3285 3285 3285 3285 3284 3284 3283 3283 3282 3282 3281 3281 3280 3279 3279 3278 3277 3276 3275 3275 3274 3273 3272 3271 3271 3270 3270 3269 3269 3268 3268 3267 3267 3266 3266 3266 3266 3266 3266 3266 3267 3267 3268 3268 3269 3270 3272 3273 3274 3275 3276 3277 3278 3280 3281 3282 3283 3285 3286 3287 3289 3290 3291 3292 3293 3294 3295 3296 3297 3298 3299 3300 3300 3301 3302 3303 3303 3304 3305 3305 3306 3306 3307 3308 3308 3309 3309 3310 3310 3311 3311 3311 3312 3312 3312 3312 3312 3312 3312 3312 3312 3312 3312 3312 3312 3312 3312 3312 3312 3312 3312 3312 3313 3313 3314 3314 3315 3316 3317 3318 3319 -9 
-9 3134 3133 3132 3131 3130 3130 3129 3128 3127 3127 3126 3126 3126 3125 3125 3123 3124 3124 3124 3125 3126 3127 3128 3129 3130 3132 3133 3135 3139 3141 3143 3145 3147 3149 3151 3153 3155 3157 3159 3162 3164 3166 3168 3170 3172 3174 3176 3178 3180 3182 3183 3185 3187 3188 3190 3192 3193 3194 3195 3196 3197 3198 3199 3199 3200 3200 3203 3203 3202 3202 3201 3198 3198 3197 3196 3195 3195 3194 3193 3192 3191 3190 3189 3188 3187 3186 3186 3185 3185 3184 3184 3184 3184 3184 3184 3185 3185 3186 3187 3187 3188 3189 3190 3191 3193 3194 3195 3197 3198 3200 3201 3203 3205 3207 3208 3210 3212 3214 3216 3218 3220 3222 3224 3226 3227 3229 3231 3233 3235 3236 3238 3240 3241 3243 3245 3246 3248 3249 3251 3253 3254 3256 3257 3259 3260 3261 3263 3264 3266 3267 3268 3270 3271 3272 3274 3275 3276 3277 3278 3279 3280 3281 3282 3283 3283 3284 3285 3285 3286 3286 3286 3287 3287 3287 3287 3287 3287 3287 3287 3287 3287 3287 3286 3286 3286 3285 3285 3284 3283 3283 3282 3282 3281 3280 3279 3278 3278 3277 3276 3275 3274 3273 3273 3272 3272 3271 3270 3270 3269 3269 3268 3268 3268 3268 3268 3267 3268 3268 3268 3268 3269 3269 3270 3271 3272 3273 3274 3275 3277 3278 3279 3280 3281 3283 3284 3285 3286 3288 3289 3290 3291 3292 3293 3294 3295 3296 3297 3298 3299 3300 3300 3301 3302 3303 3303 3304 3305 3305 3306 3306 3307 3308 3308 3309 3309 3310 3310 3311 3311 3312 3312 3312 3312 3312 3313 3313 3313 3313 3313 3312 3312 3312 3312 3312 3312 3312 3312 3313 3313 3313 3314 3314 3315 3315 3316 3317 3318 3319 3320 -9 
-9 3136 3135 3134 3133 3132 3132 3131 3130 3130 3129 3128 3128 3128 3128 3128 3126 3126 3126 3127 3127 3128 3129 3130 3132 3133 3134 3136 3138 3142 3144 3146 3148 3150 3152 3154 3156 3158 3160 3162 3165 3167 3169 3171 3173 3175 3177 3179 3181 3183 3185 3186 3188 3190 3191 3193 3194 3196 3197 3198 3199 3200 3201 3202 3202 3202 3203 3203 3205 3205 3205 3202 3201 3201 3200 3199 3198 3197 3196 3195 3194 3194 3193 3192 3191 3190 3189 3189 3188 3187 3187 3187 3187 3187 3187 3187 3187 3188 3188 3189 3190 3191 3192 3193 3194 3195 3197 3198 3199 3201 3202 3204 3206 3208 3209 3211 3213 3215 3216 3218 3220 3222 3224 3226 3228 3230 3232 3233 3235 3237 3239 3240 3242 3244 3245 3247 3248 3250 3252 3253 3255 3256 3258 3259 3261 3262 3264 3265 3266 3268 3269 3271 3272 3273 3275 3276 3277 3278 3279 3280 3281 3282 3283 3284 3285 3286 3286 3287 3287 3288 3288 3289 3289 3289 3289 3289 3290 3290 3290 3289 3289 3289 3289 3289 3288 3288 3287 3287 3286 3286 3285 3285 3284 3283 3282 3281 3281 3280 3279 3278 3277 3276 3276 3275 3274 3273 3273 3272 3272 3271 3271 3270 3270 3269 3269 3269 3269 3269 3269 3269 3270 3270 3271 3271 3272 3273 3274 3275 3276 3277 3278 3280 3281 3282 3283 3284 3286 3287 3288 3289 3290 3291 3293 3294 3295 3295 3296 3297 3298 3299 3300 3300 3301 3302 3303 3303 3304 3305 3305 3306 3306 3307 3308 3308 3309 3309 3310 3310 3311 3311 3312 3312 3312 3313 3313 3313 3313 3313 3313 3313 3313 3313 3313 3313 3313 3313 3313 3313 3313 3314 3314 3314 3315 3316 3316 3317 3318 3319 3320 3321 -9 
-9 3138 3137 3136 3135 3135 3134 3133 3132 3132 3131 3131 3130 3130 3130 3130 3130 3128 3129 3129 3130 3131 3132 3133 3134 3136 3137 3139 3141 3145 3147 3149 3151 3153 3155 3157 3159 3161 3163 3165 3168 3170 3172 3174 3176 3178 3180 3182 3184 3186 3188 3189 3191 3193 3194 3196 3197 3199 3200 3201 3202 3203 3204 3204 3205 3205 3205 3205 3205 3208 3207 3204 3204 3203 3202 3202 3201 3200 3199 3198 3197 3196 3195 3194 3193 3193 3192 3191 3191 3190 3190 3190 3189 3189 3190 3190 3190 3191 3191 3192 3193 3194 3195 3196 3197 3198 3199 3201 3202 3204 3205 3207 3209 3210 3212 3214 3216 3217 3219 3221 3223 3224 3226 3228 3230 3232 3234 3236 3237 3239 3241 3242 3244 3246 3247 3249 3250 3252 3254 3255 3257 3258 3260 3261 3263 3264 3266 3267 3268 3270 3271 3273 3274 3275 3277 3278 3279 3280 3281 3283 3283 3284 3285 3286 3287 3288 3288 3289 3290 3290 3290 3291 3291 3291 3291 3292 3292 3292 3292 3292 3291 3291 3291 3291 3290 3290 3289 3289 3289 3288 3288 3287 3286 3285 3285 3284 3283 3282 3281 3280 3279 3279 3278 3277 3276 3275 3274 3274 3273 3273 3272 3272 3271 3271 3271 3271 3270 3270 3271 3271 3271 3271 3272 3272 3273 3274 3275 3276 3277 3278 3279 3280 3281 3283 3284 3285 3286 3287 3288 3290 3291 3292 3293 3294 3295 3296 3296 3297 3298 3299 3300 3300 3301 3302 3303 3303 3304 3304 3305 3306 3306 3307 3308 3308 3309 3309 3310 3310 3311 3311 3312 3312 3312 3313 3313 3313 3313 3313 3313 3313 3313 3313 3313 3313 3313 3314 3314 3314 3314 3314 3315 3315 3316 3316 3317 3318 3319 3320 3321 3322 -9 
-9 3140 3139 3138 3138 3137 3136 3135 3135 3134 3133 3133 3133 3133 3133 3133 3133 3131 3131 3132 3133 3133 3135 3136 3137 3138 3140 3142 3143 3148 3150 3152 3154 3156 3158 3160 3162 3164 3166 3168 3170 3173 3175 3177 3179 3181 3183 3185 3187 3189 3191 3192 3194 3196 3197 3199 3200 3202 3203 3204 3205 3206 3206 3207 3207 3208 3208 3208 3208 3210 3210 3207 3206 3206 3205 3204 3204 3203 3202 3201 3200 3199 3198 3197 3196 3195 3195 3194 3193 3193 3193 3192 3192 3192 3192 3192 3193 3193 3194 3195 3195 3196 3197 3198 3199 3201 3202 3203 3205 3206 3208 3210 3211 3213 3215 3216 3218 3220 3222 3223 3225 3227 3229 3231 3232 3234 3236 3238 3239 3241 3243 3245 3246 3248 3249 3251 3253 3254 3256 3257 3259 3260 3262 3263 3265 3266 3268 3269 3271 3272 3273 3275 3276 3277 3279 3280 3281 3282 3284 3285 3286 3286 3287 3288 3289 3290 3290 3291 3292 3292 3293 3293 3293 3293 3294 3294 3294 3294 3294 3294 3294 3293 3293 3293 3293 3292 3292 3291 3291 3291 3290 3289 3288 3288 3287 3286 3285 3284 3283 3283 3282 3281 3280 3279 3278 3277 3277 3276 3275 3275 3274 3274 3273 3273 3272 3272 3272 3272 3272 3272 3272 3273 3273 3274 3274 3275 3276 3277 3278 3279 3280 3281 3282 3283 3284 3285 3286 3288 3289 3290 3291 3292 3293 3294 3295 3296 3297 3297 3298 3299 3300 3300 3301 3302 3302 3303 3304 3304 3305 3306 3306 3307 3307 3308 3309 3309 3310 3310 3311 3311 3312 3312 3313 3313 3313 3313 3314 3314 3314 3314 3314 3314 3314 3314 3314 3314 3314 3314 3315 3315 3315 3316 3317 3317 3318 3319 3320 3321 3322 3323 -9 
-9 3142 3141 3141 3140 3139 3138 3137 3137 3136 3136 3135 3135 3135 3135 3135 3135 3133 3134 3135 3135 3136 3137 3138 3140 3141 3143 3144 3146 3151 3152 3154 3156 3158 3161 3163 3165 3167 3169 3171 3173 3176 3178 3180 3182 3184 3186 3188 3190 3192 3194 3195 3197 3199 3200 3202 3203 3204 3206 3207 3208 3208 3209 3210 3210 3210 3211 3211 3211 3213 3212 3210 3209 3208 3208 3207 3206 3205 3204 3203 3202 3202 3201 3200 3199 3198 3197 3197 3196 3196 3195 3195 3195 3195 3195 3195 3196 3196 3197 3197 3198 3199 3200 3201 3202 3203 3205 3206 3207 3209 3210 3212 3214 3215 3217 3219 3221 3222 3224 3226 3227 3229 3231 3233 3235 3236 3238 3240 3242 3243 3245 3247 3248 3250 3251 3253 3255 3256 3258 3259 3261 3262 3264 3265 3267 3268 3270 3271 3273 3274 3275 3277 3278 3280 3281 3282 3283 3285 3286 3287 3288 3289 3289 3290 3291 3292 3293 3293 3294 3294 3295 3295 3295 3296 3296 3296 3296 3296 3296 3296 3296 3296 3295 3295 3295 3294 3294 3294 3293 3293 3292 3291 3291 3290 3289 3288 3287 3287 3286 3285 3284 3283 3282 3281 3280 3279 3279 3278 3277 3277 3276 3275 3275 3274 3274 3274 3274 3273 3273 3273 3274 3274 3274 3275 3275 3277 3277 3278 3279 3280 3281 3282 3283 3284 3285 3286 3287 3288 3289 3290 3291 3292 3293 3294 3295 3296 3297 3297 3298 3299 3300 3300 3301 3302 3302 3303 3304 3304 3305 3306 3306 3307 3307 3308 3309 3309 3310 3310 3311 3311 3312 3312 3313 3313 3313 3314 3314 3314 3314 3314 3314 3314 3314 3314 3315 3315 3315 3315 3315 3316 3316 3317 3317 3318 3319 3320 3321 3322 3323 3324 -9 
-9 3144 3144 3143 3142 3141 3140 3140 3139 3139 3138 3138 3137 3137 3137 3137 3138 3136 3137 3137 3138 3139 3140 3141 3142 3144 3146 3147 3149 3153 3155 3157 3159 3161 3163 3166 3168 3170 3172 3174 3176 3179 3181 3183 3185 3187 3189 3191 3193 3195 3196 3198 3200 3201 3203 3204 3206 3207 3208 3209 3210 3211 3212 3212 3213 3213 3213 3213 3216 3215 3215 3214 3212 3211 3210 3210 3209 3208 3207 3206 3205 3204 3203 3202 3202 3201 3200 3199 3199 3198 3198 3198 3198 3198 3198 3198 3198 3199 3199 3200 3201 3202 3203 3204 3205 3206 3207 3209 3210 3211 3213 3215 3216 3218 3220 3221 3223 3225 3227 3228 3230 3232 3233 3235 3237 3239 3240 3242 3244 3246 3247 3249 3250 3252 3254 3255 3257 3258 3260 3261 3263 3264 3266 3267 3269 3270 3272 3273 3275 3276 3277 3279 3280 3282 3283 3284 3285 3287 3288 3289 3290 3291 3292 3293 3294 3294 3295 3295 3296 3296 3297 3297 3297 3298 3298 3298 3298 3298 3298 3298 3298 3298 3297 3297 3297 3296 3297 3296 3296 3295 3294 3294 3293 3292 3291 3291 3290 3289 3288 3287 3286 3285 3284 3283 3282 3281 3281 3280 3279 3278 3278 3277 3277 3276 3276 3275 3275 3275 3275 3275 3275 3275 3276 3276 3276 3278 3278 3279 3280 3281 3281 3282 3283 3284 3285 3286 3287 3288 3289 3290 3291 3292 3293 3294 3295 3296 3297 3297 3298 3299 3300 3300 3301 3302 3302 3303 3304 3304 3305 3305 3306 3307 3307 3308 3309 3309 3310 3310 3311 3311 3312 3312 3313 3313 3314 3314 3314 3314 3314 3315 3315 3315 3315 3315 3315 3315 3315 3316 3316 3316 3317 3317 3318 3319 3320 3321 3322 3323 3324 3325 -9 
-9 3147 3146 3145 3144 3144 3143 3142 3141 3141 3140 3140 3140 3140 3140 3140 3140 3139 3139 3140 3141 3142 3143 3144 3145 3147 3148 3150 3152 3156 3158 3160 3162 3164 3166 3168 3171 3173 3175 3177 3179 3181 3184 3186 3188 3190 3192 3194 3196 3197 3199 3201 3203 3204 3206 3207 3209 3210 3211 3212 3213 3214 3214 3215 3215 3216 3216 3219 3218 3218 3217 3217 3214 3214 3213 3212 3211 3210 3210 3209 3208 3207 3206 3205 3204 3203 3203 3202 3201 3201 3201 3200 3200 3200 3200 3201 3201 3201 3202 3203 3204 3204 3205 3206 3208 3209 3210 3211 3213 3214 3216 3217 3219 3221 3222 3224 3226 3227 3229 3231 3232 3234 3236 3237 3239 3241 3243 3244 3246 3248 3249 3251 3253 3254 3256 3257 3259 3260 3262 3263 3265 3266 3268 3269 3271 3272 3274 3275 3277 3278 3279 3281 3282 3284 3285 3286 3288 3289 3290 3291 3292 3293 3294 3295 3296 3297 3297 3298 3298 3298 3299 3299 3300 3300 3300 3300 3300 3300 3300 3300 3300 3300 3300 3299 3299 3298 3299 3299 3298 3297 3297 3296 3295 3294 3294 3293 3292 3291 3290 3289 3288 3287 3286 3285 3284 3283 3283 3282 3281 3280 3280 3279 3278 3278 3277 3277 3277 3276 3276 3276 3276 3277 3277 3277 3278 3279 3279 3280 3281 3281 3282 3283 3284 3285 3286 3287 3288 3289 3290 3291 3292 3293 3294 3294 3295 3296 3297 3298 3298 3299 3300 3300 3301 3302 3302 3303 3303 3304 3305 3305 3306 3307 3307 3308 3308 3309 3310 3310 3311 3311 3312 3312 3313 3313 3314 3314 3314 3315 3315 3315 3315 3315 3315 3315 3316 3316 3316 3316 3317 3317 3318 3318 3319 3320 3320 3321 3322 3324 3325 3326 -9 
-9 3149 3148 3147 3147 3146 3145 3144 3144 3143 3143 3143 3142 3142 3142 3143 3143 3141 3142 3142 3143 3144 3145 3147 3148 3150 3151 3153 3155 3159 3161 3163 3165 3167 3169 3171 3173 3176 3178 3180 3182 3184 3186 3189 3191 3193 3195 3197 3198 3200 3202 3204 3205 3207 3209 3210 3211 3213 3214 3215 3216 3216 3217 3218 3218 3218 3218 3221 3221 3220 3220 3219 3218 3216 3215 3215 3214 3213 3212 3211 3210 3209 3208 3208 3207 3206 3205 3205 3204 3204 3203 3203 3203 3203 3203 3203 3204 3204 3205 3205 3206 3207 3208 3209 3210 3211 3213 3214 3215 3217 3218 3220 3222 3223 3225 3226 3228 3230 3231 3233 3235 3236 3238 3240 3242 3243 3245 3247 3248 3250 3251 3253 3255 3256 3258 3259 3261 3263 3264 3265 3267 3268 3270 3271 3273 3274 3276 3277 3279 3280 3281 3283 3284 3286 3287 3288 3290 3291 3292 3293 3294 3295 3296 3297 3298 3299 3299 3300 3301 3301 3302 3301 3302 3302 3302 3302 3302 3302 3302 3302 3302 3302 3302 3301 3301 3302 3301 3301 3300 3299 3299 3298 3297 3297 3296 3295 3294 3293 3292 3291 3290 3289 3288 3287 3286 3285 3284 3284 3283 3282 3281 3281 3280 3279 3279 3279 3278 3278 3278 3278 3278 3278 3278 3278 3279 3280 3280 3281 3282 3282 3283 3284 3285 3286 3287 3288 3288 3289 3290 3291 3292 3293 3294 3295 3295 3296 3297 3298 3298 3299 3300 3300 3301 3302 3302 3303 3303 3304 3305 3305 3306 3307 3307 3308 3308 3309 3310 3310 3311 3312 3312 3313 3313 3314 3314 3314 3315 3315 3315 3315 3315 3316 3316 3316 3316 3316 3317 3317 3317 3318 3318 3319 3320 3320 3321 3322 3323 3325 3326 3327 -9 
-9 3151 3151 3150 3149 3148 3148 3147 3146 3146 3145 3145 3145 3145 3145 3145 3145 3146 3145 3145 3146 3147 3148 3150 3151 3152 3154 3156 3158 3162 3164 3166 3168 3170 3172 3174 3176 3179 3181 3183 3185 3187 3189 3191 3193 3195 3197 3199 3201 3203 3205 3207 3208 3210 3211 3213 3214 3215 3216 3217 3218 3219 3220 3220 3221 3221 3221 3223 3223 3223 3222 3222 3221 3219 3218 3217 3216 3216 3215 3214 3213 3212 3211 3210 3209 3209 3208 3207 3207 3206 3206 3206 3206 3206 3206 3206 3206 3207 3207 3208 3209 3210 3211 3212 3213 3214 3215 3217 3218 3219 3221 3223 3224 3226 3227 3229 3231 3232 3234 3236 3237 3239 3240 3242 3244 3245 3247 3249 3250 3252 3254 3255 3257 3258 3260 3262 3263 3265 3266 3267 3269 3270 3272 3273 3275 3276 3278 3279 3281 3282 3283 3285 3286 3288 3289 3290 3292 3293 3294 3295 3296 3297 3298 3299 3300 3301 3302 3302 3303 3303 3304 3304 3304 3304 3304 3304 3304 3304 3304 3304 3304 3304 3304 3303 3303 3304 3303 3303 3302 3302 3301 3300 3299 3299 3298 3297 3296 3295 3294 3293 3292 3291 3290 3289 3288 3287 3286 3285 3285 3284 3283 3282 3282 3281 3281 3280 3280 3280 3279 3279 3279 3279 3279 3280 3281 3281 3281 3282 3283 3283 3284 3285 3286 3286 3287 3288 3289 3290 3291 3292 3293 3293 3294 3295 3296 3296 3297 3298 3299 3299 3300 3300 3301 3302 3302 3303 3304 3304 3305 3305 3306 3307 3307 3308 3309 3309 3310 3310 3311 3312 3312 3313 3313 3314 3314 3315 3315 3315 3315 3316 3316 3316 3316 3316 3317 3317 3317 3318 3318 3318 3319 3320 3320 3321 3322 3323 3324 3325 3327 3328 -9 
-9 3154 3153 3152 3152 3151 3150 3149 3149 3148 3148 3148 3147 3147 3147 3148 3148 3149 3147 3148 3149 3150 3151 3152 3154 3155 3157 3159 3161 3165 3167 3169 3171 3173 3175 3177 3179 3181 3184 3186 3188 3190 3192 3194 3196 3198 3200 3202 3204 3206 3208 3209 3211 3213 3214 3215 3217 3218 3219 3220 3221 3222 3222 3223 3223 3223 3226 3226 3225 3225 3224 3224 3223 3222 3220 3220 3219 3218 3217 3216 3215 3214 3214 3213 3212 3211 3210 3210 3209 3209 3209 3208 3208 3208 3208 3209 3209 3209 3210 3211 3211 3212 3213 3214 3215 3217 3218 3219 3220 3222 3223 3225 3227 3228 3230 3231 3233 3235 3236 3238 3240 3241 3243 3244 3246 3248 3249 3251 3253 3254 3256 3257 3259 3260 3262 3264 3265 3267 3268 3269 3271 3272 3274 3275 3277 3278 3280 3281 3282 3284 3285 3287 3288 3290 3291 3292 3293 3295 3296 3297 3298 3299 3300 3301 3302 3303 3303 3304 3305 3305 3306 3306 3306 3307 3306 3306 3306 3306 3306 3306 3306 3306 3305 3305 3305 3306 3305 3305 3304 3304 3303 3302 3301 3301 3300 3299 3298 3297 3296 3295 3294 3293 3292 3291 3290 3289 3288 3287 3286 3286 3285 3284 3283 3283 3282 3282 3281 3281 3281 3281 3281 3281 3281 3281 3282 3282 3283 3283 3284 3284 3285 3286 3286 3287 3288 3289 3290 3291 3291 3292 3293 3294 3295 3295 3296 3297 3297 3298 3299 3299 3300 3301 3301 3302 3302 3303 3304 3304 3305 3305 3306 3307 3307 3308 3309 3309 3310 3311 3311 3312 3312 3313 3314 3314 3315 3315 3315 3316 3316 3316 3316 3317 3317 3317 3317 3317 3318 3318 3319 3319 3320 3320 3321 3322 3323 3324 3325 3326 3328 3329 -9 
-9 3156 3156 3155 3154 3153 3153 3152 3151 3151 3151 3150 3150 3150 3150 3150 3151 3151 3150 3151 3152 3153 3154 3155 3157 3158 3160 3162 3164 3166 3169 3171 3174 3176 3178 3180 3182 3184 3186 3189 3191 3193 3195 3197 3199 3201 3203 3205 3207 3209 3210 3212 3214 3215 3217 3218 3219 3220 3222 3223 3223 3224 3225 3225 3226 3228 3228 3228 3228 3227 3227 3226 3225 3225 3224 3222 3221 3220 3220 3219 3218 3217 3216 3215 3214 3214 3213 3212 3212 3211 3211 3211 3211 3211 3211 3211 3212 3212 3213 3213 3214 3215 3216 3217 3218 3219 3220 3222 3223 3224 3226 3228 3229 3231 3232 3234 3235 3237 3239 3240 3242 3244 3245 3247 3249 3250 3252 3253 3255 3257 3258 3260 3261 3263 3264 3266 3267 3269 3270 3271 3273 3274 3276 3277 3279 3280 3282 3283 3284 3286 3287 3289 3290 3291 3293 3294 3295 3297 3298 3299 3300 3301 3302 3303 3304 3305 3305 3306 3307 3307 3308 3308 3308 3309 3308 3308 3308 3308 3308 3308 3308 3308 3307 3307 3308 3308 3307 3307 3306 3305 3305 3304 3303 3303 3302 3301 3300 3299 3298 3297 3296 3295 3294 3293 3292 3291 3290 3289 3288 3287 3286 3286 3285 3284 3284 3283 3283 3282 3282 3282 3282 3282 3282 3283 3283 3283 3284 3284 3285 3285 3286 3287 3287 3288 3289 3290 3290 3291 3292 3293 3293 3294 3295 3296 3296 3297 3298 3298 3299 3300 3300 3301 3301 3302 3303 3303 3304 3304 3305 3306 3306 3307 3308 3308 3309 3310 3310 3311 3311 3312 3313 3313 3314 3314 3315 3315 3316 3316 3316 3317 3317 3317 3317 3318 3318 3318 3318 3319 3319 3320 3320 3321 3322 3323 3324 3325 3326 3327 3328 3330 -9 
-9 3159 3158 3157 3157 3156 3155 3155 3154 3154 3153 3153 3153 3153 3153 3153 3154 3154 3153 3154 3155 3156 3157 3158 3160 3161 3163 3165 3167 3169 3172 3174 3176 3178 3181 3183 3185 3187 3189 3191 3194 3196 3198 3200 3202 3204 3206 3208 3210 3211 3213 3215 3216 3218 3219 3221 3222 3223 3224 3225 3226 3227 3227 3228 3228 3231 3231 3230 3230 3230 3229 3228 3228 3227 3226 3224 3224 3223 3222 3221 3220 3219 3219 3218 3217 3216 3215 3215 3214 3214 3214 3213 3213 3213 3214 3214 3214 3215 3215 3216 3217 3218 3219 3220 3221 3222 3223 3224 3226 3227 3228 3230 3232 3233 3235 3236 3238 3239 3241 3243 3244 3246 3248 3249 3251 3252 3254 3256 3257 3259 3260 3262 3263 3265 3266 3268 3269 3271 3272 3273 3275 3276 3278 3279 3281 3282 3283 3285 3286 3288 3289 3291 3292 3293 3295 3296 3297 3298 3300 3301 3302 3303 3304 3305 3306 3307 3307 3308 3308 3309 3309 3310 3310 3310 3311 3310 3310 3310 3310 3310 3310 3309 3309 3309 3310 3309 3309 3309 3308 3307 3307 3306 3305 3304 3304 3303 3302 3301 3300 3299 3298 3297 3296 3295 3294 3293 3292 3291 3290 3289 3288 3287 3287 3286 3285 3285 3284 3284 3284 3283 3283 3283 3283 3284 3284 3284 3285 3285 3286 3286 3287 3288 3288 3289 3290 3290 3291 3292 3293 3293 3294 3295 3295 3296 3297 3297 3298 3299 3299 3300 3301 3301 3302 3302 3303 3303 3304 3305 3305 3306 3306 3307 3308 3308 3309 3310 3310 3311 3312 3312 3313 3314 3314 3315 3315 3316 3316 3316 3317 3317 3317 3318 3318 3318 3318 3319 3319 3319 3320 3320 3321 3322 3322 3323 3324 3325 3327 3328 3329 3331 -9 
-9 3162 3161 3160 3159 3159 3158 3157 3157 3156 3156 3156 3156 3156 3156 3156 3156 3157 3158 3157 3158 3159 3160 3161 3163 3164 3166 3168 3170 3172 3175 3177 3179 3181 3184 3186 3188 3190 3192 3194 3197 3199 3201 3203 3205 3207 3209 3211 3212 3214 3216 3217 3219 3221 3222 3223 3225 3226 3227 3228 3228 3229 3230 3230 3233 3233 3233 3233 3232 3232 3231 3231 3230 3229 3228 3227 3226 3225 3224 3224 3223 3222 3221 3220 3219 3219 3218 3217 3217 3216 3216 3216 3216 3216 3216 3216 3217 3217 3218 3218 3219 3220 3221 3222 3223 3224 3225 3227 3228 3229 3231 3233 3234 3235 3237 3238 3240 3242 3243 3245 3247 3248 3250 3251 3253 3255 3256 3258 3259 3261 3262 3264 3265 3267 3268 3270 3271 3272 3274 3275 3277 3278 3280 3281 3282 3284 3285 3287 3288 3290 3291 3292 3294 3295 3296 3298 3299 3300 3301 3303 3304 3305 3306 3307 3308 3308 3309 3310 3310 3311 3311 3312 3312 3312 3312 3311 3311 3311 3311 3311 3311 3311 3311 3311 3310 3310 3310 3310 3310 3309 3309 3308 3307 3306 3305 3305 3304 3303 3302 3301 3300 3299 3298 3296 3295 3294 3293 3292 3291 3291 3290 3289 3288 3288 3287 3286 3286 3285 3285 3285 3285 3284 3285 3285 3285 3286 3286 3286 3287 3287 3288 3288 3289 3290 3290 3291 3292 3293 3293 3294 3295 3295 3296 3297 3297 3298 3298 3299 3300 3300 3301 3301 3302 3303 3303 3304 3304 3305 3305 3306 3307 3307 3308 3309 3309 3310 3311 3311 3312 3313 3313 3314 3315 3315 3316 3316 3316 3317 3317 3318 3318 3318 3318 3319 3319 3319 3320 3320 3321 3321 3322 3322 3323 3324 3325 3326 3327 3329 3330 3332 -9 
-9 3164 3164 3163 3162 3162 3161 3160 3160 3159 3159 3159 3159 3159 3159 3159 3159 3160 3161 3160 3161 3162 3163 3164 3166 3167 3169 3171 3173 3175 3177 3180 3182 3184 3186 3189 3191 3193 3195 3197 3199 3202 3204 3206 3208 3210 3212 3213 3215 3217 3219 3220 3222 3223 3225 3226 3227 3228 3229 3230 3231 3232 3232 3235 3235 3235 3235 3235 3235 3234 3234 3233 3232 3231 3231 3230 3229 3228 3227 3226 3225 3224 3223 3223 3222 3221 3220 3220 3219 3219 3219 3218 3218 3218 3219 3219 3219 3220 3220 3221 3222 3223 3224 3225 3226 3227 3228 3229 3230 3232 3233 3235 3236 3238 3239 3241 3242 3244 3246 3247 3249 3250 3252 3254 3255 3257 3258 3260 3261 3263 3264 3266 3267 3269 3270 3272 3273 3274 3276 3277 3279 3280 3282 3283 3284 3286 3287 3289 3290 3291 3293 3294 3296 3297 3298 3300 3301 3302 3303 3304 3306 3307 3308 3308 3309 3310 3311 3311 3312 3313 3313 3313 3314 3313 3313 3313 3313 3313 3313 3313 3313 3313 3313 3312 3312 3312 3311 3311 3310 3311 3310 3310 3309 3308 3307 3306 3305 3305 3304 3303 3302 3301 3299 3298 3297 3296 3295 3294 3293 3292 3291 3290 3290 3289 3288 3288 3287 3287 3286 3286 3286 3286 3286 3286 3287 3287 3287 3287 3288 3288 3289 3289 3290 3291 3291 3292 3293 3293 3294 3295 3295 3296 3296 3297 3298 3298 3299 3299 3300 3301 3301 3302 3302 3303 3304 3304 3305 3305 3306 3306 3307 3308 3308 3309 3310 3310 3311 3312 3312 3313 3314 3314 3315 3316 3316 3317 3317 3317 3318 3318 3318 3319 3319 3319 3320 3320 3320 3321 3321 3322 3322 3323 3324 3325 3326 3327 3328 3330 3331 3333 -9 
-9 3167 3167 3166 3165 3165 3164 3163 3163 3162 3162 3162 3162 3162 3162 3162 3162 3163 3164 3163 3164 3165 3166 3167 3169 3170 3172 3174 3176 3178 3180 3183 3185 3187 3189 3192 3194 3196 3198 3200 3202 3204 3207 3209 3211 3212 3214 3216 3218 3220 3221 3223 3224 3226 3227 3229 3230 3231 3232 3233 3233 3234 3237 3237 3237 3237 3237 3237 3237 3236 3236 3235 3234 3234 3233 3232 3231 3230 3229 3228 3227 3227 3226 3225 3224 3223 3223 3222 3222 3221 3221 3221 3221 3221 3221 3221 3222 3222 3223 3223 3224 3225 3226 3227 3228 3229 3230 3232 3233 3234 3236 3237 3239 3240 3242 3243 3245 3246 3248 3249 3251 3253 3254 3256 3257 3259 3261 3262 3264 3265 3266 3268 3269 3271 3272 3274 3275 3276 3278 3279 3281 3282 3283 3285 3286 3288 3289 3290 3292 3293 3295 3296 3297 3299 3300 3301 3303 3304 3305 3306 3307 3308 3309 3310 3311 3312 3313 3313 3314 3314 3315 3314 3314 3314 3315 3315 3315 3315 3315 3315 3315 3314 3314 3314 3314 3313 3313 3312 3312 3311 3311 3311 3311 3310 3309 3308 3307 3306 3305 3304 3303 3302 3301 3300 3299 3298 3297 3296 3295 3294 3293 3292 3291 3290 3290 3289 3289 3288 3288 3287 3287 3288 3288 3288 3288 3288 3288 3289 3289 3289 3290 3290 3291 3292 3292 3293 3293 3294 3295 3295 3296 3296 3297 3298 3298 3299 3299 3300 3301 3301 3302 3302 3303 3303 3304 3304 3305 3306 3306 3307 3307 3308 3309 3309 3310 3311 3311 3312 3313 3314 3314 3315 3315 3316 3317 3317 3317 3318 3318 3319 3319 3319 3320 3320 3320 3321 3321 3321 3322 3322 3323 3324 3325 3326 3327 3328 3329 3330 3332 3333 -9 
-9 3170 3170 3169 3168 3168 3167 3166 3166 3165 3165 3165 3165 3165 3165 3165 3166 3166 3167 3166 3167 3168 3169 3171 3172 3174 3175 3177 3179 3181 3183 3186 3188 3190 3193 3195 3197 3199 3201 3203 3205 3207 3209 3211 3213 3215 3217 3219 3221 3222 3224 3226 3227 3229 3230 3231 3232 3233 3234 3235 3236 3239 3239 3240 3240 3240 3240 3239 3239 3239 3238 3237 3237 3236 3235 3234 3233 3232 3231 3231 3230 3229 3228 3227 3227 3226 3225 3225 3224 3224 3224 3223 3223 3223 3223 3224 3224 3225 3225 3226 3227 3228 3229 3230 3231 3232 3233 3234 3235 3237 3238 3239 3241 3242 3244 3245 3247 3249 3250 3252 3253 3255 3256 3258 3260 3261 3263 3264 3266 3267 3269 3270 3271 3273 3274 3276 3277 3278 3280 3281 3283 3284 3285 3287 3288 3289 3291 3292 3294 3295 3296 3298 3299 3300 3302 3303 3304 3306 3307 3308 3309 3310 3311 3312 3313 3313 3314 3315 3315 3316 3315 3315 3316 3316 3316 3316 3316 3316 3316 3316 3316 3316 3316 3316 3315 3315 3315 3314 3314 3313 3312 3312 3311 3311 3311 3310 3309 3308 3306 3305 3304 3303 3302 3301 3300 3299 3298 3297 3296 3295 3294 3293 3293 3292 3291 3291 3290 3290 3289 3289 3289 3289 3289 3289 3289 3289 3289 3290 3290 3290 3291 3291 3292 3292 3293 3294 3294 3295 3295 3296 3296 3297 3298 3298 3299 3299 3300 3300 3301 3302 3302 3303 3303 3304 3304 3305 3305 3306 3307 3307 3308 3308 3309 3310 3310 3311 3312 3313 3313 3314 3315 3315 3316 3316 3317 3317 3318 3318 3319 3319 3319 3320 3320 3320 3321 3321 3322 3322 3323 3323 3324 3325 3325 3326 3327 3329 3330 3331 3333 3334 -9 
-9 3173 3173 3172 3171 3171 3170 3170 3169 3169 3168 3168 3168 3168 3168 3168 3169 3169 3170 3170 3171 3172 3173 3174 3176 3177 3179 3180 3182 3184 3186 3189 3191 3193 3196 3198 3200 3202 3204 3206 3208 3210 3212 3214 3216 3218 3220 3222 3224 3225 3227 3228 3230 3231 3233 3234 3235 3236 3237 3238 3241 3241 3242 3242 3242 3242 3242 3242 3241 3241 3240 3239 3239 3238 3237 3236 3235 3234 3233 3233 3232 3231 3230 3230 3229 3228 3228 3227 3227 3226 3226 3226 3226 3226 3226 3226 3227 3227 3228 3228 3229 3230 3231 3232 3233 3234 3235 3236 3238 3239 3240 3242 3243 3245 3246 3248 3249 3251 3252 3254 3256 3257 3259 3260 3262 3263 3265 3266 3268 3269 3271 3272 3273 3275 3276 3278 3279 3280 3282 3283 3284 3286 3287 3289 3290 3291 3293 3294 3295 3297 3298 3299 3301 3302 3303 3305 3306 3307 3308 3310 3311 3312 3313 3313 3314 3315 3316 3316 3317 3317 3317 3317 3317 3317 3318 3318 3318 3318 3318 3318 3318 3318 3317 3317 3317 3316 3316 3316 3315 3315 3314 3313 3313 3312 3311 3310 3309 3309 3308 3307 3306 3305 3304 3303 3302 3301 3300 3299 3298 3297 3296 3295 3294 3293 3293 3292 3291 3291 3291 3291 3290 3290 3290 3290 3290 3290 3291 3291 3291 3291 3292 3292 3293 3293 3294 3294 3295 3295 3296 3297 3297 3298 3298 3299 3299 3300 3300 3301 3301 3302 3302 3303 3304 3304 3305 3305 3306 3306 3307 3308 3308 3309 3309 3310 3311 3311 3312 3313 3314 3314 3315 3316 3316 3317 3317 3318 3318 3319 3319 3320 3320 3320 3321 3321 3321 3322 3322 3323 3323 3324 3325 3325 3326 3327 3328 3329 3331 3332 3333 3335 -9 
-9 3176 3176 3175 3175 3174 3173 3173 3172 3172 3172 3171 3171 3171 3171 3172 3172 3173 3173 3173 3174 3175 3176 3178 3179 3180 3182 3184 3186 3188 3190 3193 3195 3197 3199 3201 3203 3205 3207 3209 3211 3213 3216 3217 3219 3221 3223 3225 3227 3228 3230 3231 3233 3234 3235 3236 3238 3239 3239 3240 3243 3243 3244 3244 3244 3244 3244 3244 3243 3243 3242 3242 3241 3240 3239 3238 3237 3236 3235 3234 3234 3234 3233 3232 3231 3231 3230 3229 3229 3229 3228 3228 3228 3228 3228 3229 3229 3230 3230 3231 3232 3232 3233 3234 3235 3237 3238 3239 3240 3241 3243 3244 3246 3247 3249 3250 3252 3253 3255 3256 3258 3259 3261 3262 3264 3266 3267 3268 3270 3271 3273 3274 3276 3277 3278 3280 3281 3282 3284 3285 3286 3288 3289 3290 3292 3293 3294 3296 3297 3298 3300 3301 3302 3304 3305 3306 3308 3309 3310 3311 3312 3313 3314 3315 3316 3317 3317 3318 3319 3318 3318 3318 3319 3319 3319 3319 3319 3319 3319 3319 3319 3319 3319 3319 3318 3318 3318 3317 3317 3316 3315 3315 3314 3313 3313 3312 3311 3310 3309 3308 3307 3306 3305 3304 3303 3302 3301 3300 3299 3298 3297 3296 3296 3295 3294 3293 3293 3293 3292 3292 3292 3291 3291 3291 3291 3291 3292 3292 3292 3292 3293 3293 3294 3294 3295 3295 3296 3296 3297 3297 3298 3298 3299 3299 3300 3300 3301 3301 3302 3302 3303 3303 3304 3305 3305 3306 3306 3307 3307 3308 3309 3309 3310 3310 3311 3312 3313 3313 3314 3315 3315 3316 3317 3317 3318 3318 3319 3319 3320 3320 3321 3321 3321 3322 3322 3323 3323 3323 3324 3325 3325 3326 3327 3328 3329 3330 3331 3333 3334 3336 -9 
-9 3180 3179 3178 3178 3177 3177 3176 3176 3175 3175 3175 3175 3175 3175 3175 3176 3176 3176 3177 3178 3179 3180 3181 3182 3184 3186 3187 3189 3191 3193 3195 3198 3200 3202 3204 3206 3208 3210 3212 3215 3217 3219 3221 3222 3224 3226 3228 3229 3231 3233 3234 3235 3237 3238 3239 3240 3241 3242 3245 3245 3246 3246 3246 3246 3246 3246 3246 3245 3245 3244 3244 3243 3242 3241 3240 3239 3239 3238 3237 3236 3236 3235 3234 3234 3233 3232 3232 3231 3231 3231 3231 3231 3231 3231 3231 3231 3232 3233 3233 3234 3235 3236 3237 3238 3239 3240 3241 3243 3244 3245 3247 3248 3249 3251 3252 3254 3255 3257 3258 3260 3262 3263 3265 3266 3268 3269 3271 3272 3273 3275 3276 3278 3279 3280 3282 3283 3284 3286 3287 3288 3290 3291 3292 3293 3295 3296 3297 3299 3300 3301 3303 3304 3305 3307 3308 3309 3310 3312 3313 3314 3315 3316 3317 3317 3318 3319 3319 3320 3319 3320 3320 3320 3320 3321 3321 3321 3321 3321 3321 3321 3320 3320 3320 3320 3319 3319 3319 3318 3317 3317 3316 3316 3315 3314 3313 3312 3312 3311 3310 3309 3308 3307 3306 3305 3304 3303 3302 3301 3300 3299 3298 3297 3296 3295 3295 3294 3294 3294 3293 3293 3293 3293 3292 3292 3293 3293 3293 3293 3293 3294 3294 3295 3295 3295 3296 3296 3297 3297 3298 3298 3299 3299 3300 3300 3301 3301 3302 3302 3303 3303 3304 3304 3305 3305 3306 3307 3307 3308 3308 3309 3310 3310 3311 3312 3312 3313 3314 3314 3315 3316 3317 3317 3318 3318 3319 3319 3320 3320 3321 3321 3322 3322 3322 3323 3323 3324 3324 3325 3325 3326 3327 3328 3329 3330 3331 3332 3334 3335 3337 -9 
-9 3183 3182 3182 3181 3181 3180 3179 3179 3179 3178 3178 3178 3178 3178 3179 3179 3179 3180 3180 3181 3182 3183 3185 3186 3187 3189 3191 3193 3194 3196 3198 3201 3203 3205 3207 3209 3211 3214 3216 3218 3220 3222 3224 3225 3227 3229 3231 3232 3234 3235 3237 3238 3239 3241 3242 3243 3244 3246 3247 3248 3248 3248 3248 3248 3248 3248 3248 3248 3247 3246 3246 3245 3244 3243 3242 3242 3241 3240 3239 3238 3237 3237 3237 3236 3235 3235 3234 3234 3233 3233 3233 3233 3233 3233 3234 3234 3234 3235 3236 3236 3237 3238 3239 3240 3241 3242 3244 3245 3246 3247 3249 3250 3252 3253 3255 3256 3258 3259 3261 3262 3264 3265 3267 3268 3270 3271 3273 3274 3276 3277 3278 3280 3281 3282 3284 3285 3286 3288 3289 3290 3291 3293 3294 3295 3297 3298 3299 3301 3302 3303 3304 3306 3307 3308 3310 3311 3312 3313 3314 3315 3316 3317 3318 3319 3320 3320 3321 3321 3322 3321 3321 3322 3322 3322 3322 3322 3322 3322 3322 3322 3322 3322 3321 3321 3321 3320 3320 3319 3319 3318 3318 3317 3316 3315 3315 3314 3313 3312 3311 3310 3309 3308 3307 3306 3305 3304 3303 3302 3301 3300 3299 3298 3298 3297 3296 3296 3295 3295 3294 3294 3294 3294 3294 3294 3294 3294 3294 3294 3294 3295 3295 3295 3296 3296 3297 3297 3297 3298 3298 3299 3299 3300 3300 3301 3301 3302 3302 3303 3303 3304 3304 3305 3305 3306 3306 3307 3308 3308 3309 3309 3310 3311 3311 3312 3313 3313 3314 3315 3316 3316 3317 3318 3318 3319 3319 3320 3320 3321 3321 3322 3322 3323 3323 3323 3324 3324 3325 3325 3326 3327 3327 3328 3329 3330 3332 3333 3334 3336 3337 -9 
-9 3186 3186 3185 3184 3184 3183 3183 3183 3182 3182 3182 3182 3182 3182 3182 3182 3183 3183 3184 3185 3186 3187 3188 3190 3191 3193 3194 3196 3198 3200 3202 3204 3206 3208 3211 3213 3215 3217 3219 3221 3223 3225 3227 3229 3230 3232 3234 3235 3237 3238 3240 3241 3242 3243 3244 3245 3248 3249 3249 3250 3250 3251 3251 3251 3251 3250 3250 3250 3249 3249 3248 3247 3246 3245 3245 3244 3243 3242 3241 3240 3239 3238 3239 3238 3238 3237 3237 3236 3236 3236 3235 3235 3236 3236 3236 3236 3237 3237 3238 3239 3240 3241 3242 3243 3244 3245 3246 3247 3249 3250 3251 3253 3254 3255 3257 3258 3260 3261 3263 3264 3266 3268 3269 3271 3272 3273 3275 3276 3278 3279 3280 3282 3283 3284 3286 3287 3288 3289 3291 3292 3293 3294 3296 3297 3298 3300 3301 3302 3303 3305 3306 3307 3309 3310 3311 3312 3314 3315 3316 3317 3318 3319 3320 3320 3321 3322 3322 3323 3323 3322 3323 3323 3323 3323 3323 3324 3324 3324 3323 3323 3323 3323 3323 3322 3322 3322 3321 3321 3320 3320 3319 3318 3318 3317 3316 3315 3314 3313 3312 3311 3310 3309 3308 3307 3306 3305 3304 3303 3302 3301 3301 3300 3299 3298 3298 3297 3297 3296 3296 3295 3295 3295 3295 3295 3295 3295 3295 3295 3295 3296 3296 3296 3297 3297 3297 3298 3298 3299 3299 3299 3300 3300 3301 3301 3302 3302 3303 3303 3304 3304 3305 3305 3306 3306 3307 3307 3308 3308 3309 3310 3310 3311 3312 3312 3313 3314 3315 3315 3316 3317 3317 3318 3319 3319 3320 3320 3321 3321 3322 3322 3323 3323 3324 3324 3324 3325 3326 3326 3327 3327 3328 3329 3330 3331 3332 3334 3335 3336 3338 -9 
-9 3190 3189 3189 3188 3188 3187 3186 3186 3186 3185 3185 3185 3185 3185 3186 3186 3186 3187 3188 3188 3189 3191 3192 3193 3195 3196 3198 3199 3201 3203 3205 3207 3209 3211 3214 3216 3218 3220 3222 3224 3226 3228 3230 3232 3233 3235 3237 3238 3240 3241 3243 3244 3245 3246 3247 3250 3250 3251 3252 3252 3252 3253 3253 3253 3253 3252 3252 3252 3251 3251 3250 3249 3248 3248 3247 3246 3245 3244 3243 3242 3241 3241 3240 3241 3240 3240 3239 3239 3238 3238 3238 3238 3238 3238 3238 3239 3239 3240 3241 3241 3242 3243 3244 3245 3246 3247 3249 3250 3251 3252 3254 3255 3256 3258 3259 3261 3262 3264 3265 3267 3268 3270 3271 3273 3274 3276 3277 3278 3280 3281 3282 3284 3285 3286 3288 3289 3290 3291 3293 3294 3295 3296 3298 3299 3300 3301 3303 3304 3305 3306 3308 3309 3310 3311 3313 3314 3315 3316 3317 3318 3319 3320 3321 3322 3322 3323 3324 3324 3325 3324 3324 3324 3324 3325 3325 3325 3325 3325 3325 3325 3324 3324 3324 3324 3323 3323 3322 3322 3321 3321 3320 3320 3319 3318 3317 3316 3316 3315 3314 3313 3312 3311 3310 3309 3308 3307 3306 3305 3304 3303 3302 3301 3300 3300 3299 3298 3298 3297 3297 3297 3296 3296 3296 3296 3296 3296 3296 3296 3296 3297 3297 3297 3297 3298 3298 3298 3299 3299 3300 3300 3301 3301 3301 3302 3302 3303 3303 3304 3304 3305 3305 3306 3306 3307 3307 3308 3308 3309 3309 3310 3311 3311 3312 3313 3313 3314 3315 3316 3316 3317 3318 3319 3319 3320 3320 3321 3321 3322 3322 3323 3323 3324 3324 3325 3325 3326 3326 3327 3327 3328 3329 3330 3331 3332 3333 3334 3336 3337 3339 -9 
-9 3193 3193 3192 3192 3191 3190 3190 3190 3189 3189 3189 3189 3189 3189 3189 3190 3190 3191 3191 3192 3193 3194 3195 3197 3198 3200 3201 3203 3205 3207 3208 3210 3212 3215 3217 3219 3221 3223 3225 3227 3229 3231 3233 3235 3236 3238 3240 3241 3243 3244 3245 3247 3248 3249 3251 3252 3253 3253 3254 3254 3255 3255 3255 3255 3255 3255 3254 3254 3253 3253 3252 3251 3250 3250 3249 3248 3247 3246 3245 3245 3244 3243 3242 3243 3243 3242 3242 3241 3241 3241 3240 3240 3240 3241 3241 3241 3242 3242 3243 3244 3245 3246 3247 3248 3249 3250 3251 3252 3253 3255 3256 3257 3259 3260 3261 3263 3264 3266 3267 3269 3270 3272 3273 3275 3276 3278 3279 3280 3282 3283 3284 3286 3287 3288 3289 3291 3292 3293 3294 3296 3297 3298 3299 3300 3302 3303 3304 3305 3307 3308 3309 3310 3312 3313 3314 3315 3316 3318 3319 3320 3321 3321 3322 3323 3324 3324 3325 3326 3326 3325 3325 3326 3326 3326 3326 3326 3326 3326 3326 3326 3326 3325 3325 3325 3325 3324 3324 3323 3323 3322 3321 3321 3320 3319 3319 3318 3317 3316 3315 3314 3313 3312 3311 3310 3309 3308 3307 3306 3305 3304 3303 3302 3302 3301 3300 3300 3299 3299 3298 3298 3297 3297 3297 3297 3297 3297 3297 3297 3297 3297 3298 3298 3298 3299 3299 3299 3300 3300 3300 3301 3301 3302 3302 3302 3303 3303 3304 3304 3305 3305 3306 3306 3307 3307 3308 3308 3309 3309 3310 3310 3311 3312 3312 3313 3314 3315 3315 3316 3317 3318 3318 3319 3320 3320 3321 3321 3322 3322 3323 3323 3324 3324 3325 3325 3326 3326 3327 3328 3328 3329 3330 3331 3332 3333 3334 3335 3336 3338 3339 -9 
-9 3197 3196 3196 3195 3195 3194 3194 3193 3193 3193 3192 3192 3193 3193 3193 3193 3194 3194 3195 3196 3197 3198 3199 3200 3202 3203 3205 3206 3208 3210 3212 3214 3216 3218 3220 3222 3224 3226 3228 3230 3232 3234 3236 3238 3239 3241 3243 3244 3245 3247 3248 3249 3250 3253 3254 3254 3255 3256 3256 3257 3257 3257 3257 3257 3257 3257 3256 3256 3255 3255 3254 3253 3253 3252 3251 3250 3249 3248 3248 3247 3246 3245 3244 3244 3245 3245 3244 3244 3243 3243 3243 3243 3243 3243 3243 3244 3244 3245 3246 3246 3247 3248 3249 3250 3251 3252 3253 3255 3256 3257 3258 3260 3261 3262 3264 3265 3267 3268 3270 3271 3273 3274 3276 3277 3278 3280 3281 3283 3284 3285 3286 3288 3289 3290 3291 3293 3294 3295 3296 3297 3299 3300 3301 3302 3303 3305 3306 3307 3308 3310 3311 3312 3313 3314 3316 3317 3318 3319 3320 3321 3322 3323 3324 3324 3325 3326 3326 3327 3327 3326 3327 3327 3327 3327 3327 3327 3327 3327 3327 3327 3327 3327 3326 3326 3326 3325 3325 3324 3324 3323 3323 3322 3321 3321 3320 3319 3318 3317 3316 3315 3314 3313 3312 3311 3310 3309 3308 3307 3306 3305 3305 3304 3303 3302 3302 3301 3300 3300 3299 3299 3299 3298 3298 3298 3298 3298 3298 3298 3298 3298 3299 3299 3299 3299 3300 3300 3300 3301 3301 3301 3302 3302 3302 3303 3303 3304 3304 3305 3305 3306 3306 3307 3307 3308 3308 3309 3309 3310 3310 3311 3311 3312 3313 3313 3314 3315 3316 3316 3317 3318 3319 3319 3320 3321 3321 3322 3323 3323 3324 3324 3325 3325 3326 3326 3327 3327 3328 3328 3329 3330 3330 3331 3332 3333 3335 3336 3337 3339 3340 -9 
-9 3200 3200 3199 3199 3198 3198 3197 3197 3197 3196 3196 3196 3196 3196 3197 3197 3197 3198 3199 3199 3200 3201 3202 3204 3205 3206 3208 3210 3211 3213 3215 3217 3219 3221 3223 3225 3227 3229 3231 3233 3235 3237 3239 3241 3242 3244 3245 3247 3248 3249 3251 3252 3253 3255 3256 3257 3257 3258 3258 3259 3259 3259 3259 3259 3259 3259 3258 3258 3257 3257 3256 3255 3255 3254 3253 3252 3251 3251 3250 3249 3248 3247 3247 3246 3246 3247 3247 3246 3246 3246 3246 3246 3246 3246 3246 3246 3247 3248 3248 3249 3250 3251 3252 3253 3254 3255 3256 3257 3258 3259 3261 3262 3263 3265 3266 3268 3269 3270 3272 3273 3275 3276 3278 3279 3281 3282 3283 3285 3286 3287 3288 3290 3291 3292 3293 3294 3296 3297 3298 3299 3300 3301 3303 3304 3305 3306 3307 3308 3309 3311 3312 3313 3315 3316 3317 3318 3319 3320 3321 3322 3323 3324 3325 3326 3326 3327 3327 3328 3327 3327 3328 3328 3328 3328 3328 3328 3328 3328 3328 3328 3328 3328 3327 3327 3327 3326 3326 3326 3325 3324 3324 3323 3322 3322 3321 3320 3319 3318 3318 3317 3316 3315 3314 3313 3312 3311 3310 3309 3308 3307 3306 3305 3304 3304 3303 3302 3302 3301 3301 3300 3300 3300 3299 3299 3299 3299 3299 3299 3299 3299 3299 3300 3300 3300 3300 3301 3301 3301 3302 3302 3302 3303 3303 3303 3304 3304 3305 3305 3306 3306 3307 3307 3308 3308 3308 3309 3310 3310 3311 3311 3312 3313 3313 3314 3315 3315 3316 3317 3318 3318 3319 3320 3321 3321 3322 3323 3323 3324 3324 3325 3325 3326 3326 3327 3327 3328 3328 3329 3330 3330 3331 3332 3333 3334 3335 3337 3338 3339 3341 -9 
-9 3204 3204 3203 3203 3202 3202 3201 3200 3200 3200 3200 3200 3200 3200 3200 3201 3201 3201 3202 3203 3204 3205 3206 3207 3208 3210 3211 3213 3215 3216 3218 3220 3222 3224 3226 3228 3230 3232 3234 3236 3238 3240 3242 3243 3245 3247 3248 3250 3251 3252 3253 3254 3257 3257 3258 3259 3260 3260 3261 3261 3261 3261 3261 3261 3261 3261 3260 3260 3259 3259 3258 3258 3257 3256 3255 3255 3254 3253 3252 3251 3251 3250 3249 3249 3248 3247 3247 3249 3248 3248 3248 3248 3248 3248 3249 3249 3250 3250 3251 3252 3252 3253 3254 3255 3256 3257 3258 3260 3261 3262 3263 3264 3266 3267 3268 3270 3271 3273 3274 3276 3277 3279 3280 3281 3283 3284 3285 3287 3288 3289 3290 3292 3293 3294 3295 3296 3297 3299 3300 3301 3302 3303 3304 3305 3307 3308 3309 3310 3311 3312 3313 3315 3316 3317 3318 3319 3320 3322 3323 3323 3324 3325 3326 3327 3327 3328 3329 3329 3328 3329 3329 3329 3329 3329 3329 3330 3330 3329 3329 3329 3329 3329 3329 3328 3328 3328 3327 3327 3326 3326 3325 3324 3324 3323 3322 3321 3320 3320 3319 3318 3317 3316 3315 3314 3313 3312 3311 3310 3309 3308 3307 3307 3306 3305 3304 3304 3303 3303 3302 3302 3301 3301 3301 3300 3300 3300 3300 3300 3300 3300 3300 3301 3301 3301 3301 3301 3302 3302 3302 3303 3303 3303 3304 3304 3304 3305 3305 3306 3306 3307 3307 3308 3308 3309 3309 3309 3310 3311 3311 3312 3312 3313 3314 3314 3315 3316 3317 3317 3318 3319 3320 3320 3321 3322 3322 3323 3324 3324 3325 3325 3326 3326 3327 3327 3328 3329 3329 3330 3331 3331 3332 3333 3334 3335 3336 3337 3339 3340 3342 -9 
-9 3208 3207 3207 3206 3206 3205 3204 3204 3204 3203 3203 3203 3203 3204 3204 3204 3204 3205 3206 3206 3207 3208 3209 3210 3212 3213 3214 3216 3218 3219 3221 3223 3225 3227 3229 3231 3233 3235 3237 3239 3241 3243 3244 3246 3248 3249 3251 3252 3253 3255 3256 3257 3259 3260 3261 3261 3262 3262 3263 3263 3263 3263 3263 3263 3263 3263 3262 3262 3261 3261 3260 3260 3259 3258 3257 3257 3256 3255 3254 3254 3253 3252 3252 3251 3250 3250 3250 3249 3251 3251 3251 3251 3251 3251 3251 3252 3252 3253 3253 3254 3255 3256 3257 3258 3259 3260 3261 3262 3263 3264 3266 3267 3268 3269 3271 3272 3274 3275 3277 3278 3279 3281 3282 3284 3285 3286 3287 3289 3290 3291 3292 3294 3295 3296 3297 3298 3299 3300 3301 3303 3304 3305 3306 3307 3308 3309 3310 3311 3312 3313 3315 3316 3317 3318 3320 3321 3322 3323 3324 3325 3326 3326 3327 3328 3329 3329 3330 3330 3329 3330 3330 3330 3330 3330 3331 3331 3331 3331 3330 3330 3330 3330 3330 3329 3329 3329 3328 3328 3327 3327 3326 3325 3325 3324 3323 3322 3322 3321 3320 3319 3318 3317 3316 3315 3314 3313 3312 3311 3310 3310 3309 3308 3307 3306 3306 3305 3304 3304 3303 3303 3302 3302 3302 3302 3301 3301 3301 3301 3301 3301 3301 3302 3302 3302 3302 3302 3302 3303 3303 3303 3304 3304 3304 3305 3305 3306 3306 3306 3307 3307 3308 3308 3309 3309 3310 3310 3311 3311 3312 3312 3313 3313 3314 3315 3316 3316 3317 3318 3319 3319 3320 3321 3322 3322 3323 3324 3324 3325 3325 3326 3327 3327 3328 3328 3329 3329 3330 3331 3331 3332 3333 3334 3335 3336 3337 3338 3339 3341 3342 -9 
-9 3211 3211 3210 3210 3209 3209 3208 3208 3207 3207 3207 3207 3207 3207 3207 3208 3208 3208 3209 3210 3210 3211 3212 3214 3215 3216 3218 3219 3221 3222 3224 3226 3228 3230 3232 3234 3236 3238 3240 3242 3243 3245 3247 3249 3250 3252 3253 3255 3256 3257 3259 3260 3261 3262 3263 3263 3264 3264 3265 3265 3265 3265 3265 3265 3265 3265 3264 3264 3264 3263 3262 3262 3261 3260 3260 3259 3258 3258 3257 3256 3255 3255 3254 3254 3253 3252 3252 3252 3252 3251 3253 3253 3253 3254 3254 3254 3255 3255 3256 3257 3258 3258 3259 3260 3261 3262 3264 3265 3265 3267 3268 3269 3271 3272 3273 3275 3276 3277 3279 3280 3282 3283 3284 3286 3287 3288 3290 3291 3292 3293 3294 3295 3297 3298 3299 3300 3301 3302 3303 3304 3305 3306 3308 3308 3309 3311 3312 3313 3314 3315 3316 3317 3318 3319 3320 3321 3323 3324 3325 3326 3327 3328 3328 3329 3330 3330 3331 3330 3330 3331 3331 3331 3331 3331 3332 3332 3332 3332 3331 3331 3331 3331 3331 3330 3330 3330 3329 3329 3328 3328 3327 3326 3326 3325 3324 3324 3323 3322 3321 3320 3319 3318 3317 3316 3315 3314 3313 3313 3312 3311 3310 3309 3309 3308 3307 3306 3306 3305 3305 3304 3304 3303 3303 3303 3303 3303 3302 3302 3302 3302 3302 3303 3303 3303 3303 3303 3303 3304 3304 3304 3304 3305 3305 3306 3306 3306 3307 3307 3308 3308 3308 3309 3309 3310 3310 3311 3311 3312 3312 3313 3313 3314 3315 3315 3316 3317 3318 3318 3319 3320 3321 3322 3322 3323 3324 3324 3325 3326 3326 3327 3327 3328 3328 3329 3330 3330 3331 3332 3332 3333 3334 3335 3336 3337 3338 3339 3340 3342 3343 -9 
-9 3215 3214 3214 3213 3213 3212 3212 3211 3211 3210 3210 3210 3210 3210 3211 3211 3211 3212 3212 3213 3214 3215 3216 3217 3218 3219 3220 3222 3223 3225 3227 3229 3230 3233 3234 3236 3238 3240 3242 3244 3246 3248 3249 3251 3253 3254 3256 3257 3258 3260 3261 3262 3263 3264 3265 3265 3266 3266 3267 3267 3267 3267 3267 3267 3267 3267 3266 3266 3266 3264 3263 3264 3263 3263 3262 3261 3261 3260 3259 3259 3258 3257 3257 3256 3256 3255 3255 3254 3254 3254 3254 3254 3254 3254 3257 3257 3258 3258 3259 3259 3260 3261 3262 3263 3264 3265 3266 3267 3268 3269 3270 3272 3273 3274 3276 3277 3278 3280 3281 3282 3284 3285 3287 3288 3289 3290 3292 3293 3294 3295 3296 3297 3298 3300 3301 3302 3303 3304 3305 3306 3307 3308 3309 3310 3311 3312 3313 3314 3315 3316 3317 3318 3319 3320 3321 3322 3323 3324 3326 3327 3328 3329 3329 3330 3331 3331 3332 3331 3331 3332 3332 3332 3332 3332 3333 3333 3333 3332 3332 3332 3332 3332 3332 3331 3331 3330 3330 3330 3329 3329 3328 3327 3327 3326 3325 3325 3324 3323 3322 3321 3320 3319 3318 3317 3317 3316 3315 3314 3313 3312 3312 3311 3310 3309 3309 3308 3307 3307 3306 3306 3305 3305 3304 3304 3304 3304 3304 3304 3303 3303 3304 3304 3304 3304 3304 3304 3304 3305 3305 3305 3305 3306 3306 3306 3307 3307 3308 3308 3308 3309 3309 3310 3310 3311 3311 3311 3312 3312 3313 3314 3314 3315 3315 3316 3317 3318 3318 3319 3320 3321 3322 3322 3323 3324 3324 3325 3326 3326 3327 3328 3328 3329 3329 3330 3331 3331 3332 3332 3333 3334 3335 3335 3336 3337 3338 3340 3341 3342 3344 -9 
-9 3218 3218 3217 3217 3216 3216 3215 3215 3214 3214 3214 3214 3214 3214 3214 3214 3214 3215 3215 3216 3217 3218 3219 3220 3221 3222 3223 3225 3226 3228 3229 3231 3233 3235 3237 3239 3241 3243 3245 3247 3248 3250 3252 3254 3255 3257 3258 3259 3261 3262 3263 3264 3265 3266 3267 3268 3268 3268 3269 3269 3269 3269 3269 3269 3269 3269 3269 3268 3267 3266 3265 3265 3266 3265 3264 3264 3263 3262 3262 3261 3260 3260 3259 3259 3258 3258 3257 3257 3257 3257 3257 3257 3257 3257 3258 3258 3260 3261 3261 3262 3263 3264 3265 3266 3267 3268 3268 3269 3271 3272 3273 3274 3275 3277 3278 3279 3281 3282 3283 3285 3286 3287 3289 3290 3291 3292 3294 3295 3296 3297 3298 3299 3300 3301 3302 3303 3304 3305 3307 3308 3309 3310 3310 3311 3312 3313 3314 3315 3316 3317 3319 3320 3321 3322 3322 3323 3324 3325 3326 3327 3329 3330 3330 3331 3332 3332 3333 3332 3332 3333 3333 3333 3333 3333 3333 3333 3333 3333 3333 3333 3333 3333 3332 3332 3332 3331 3331 3331 3330 3330 3329 3328 3328 3327 3326 3326 3325 3324 3323 3322 3321 3320 3320 3319 3318 3317 3316 3315 3315 3314 3313 3312 3311 3311 3310 3309 3309 3308 3308 3307 3307 3306 3306 3306 3305 3305 3305 3305 3305 3305 3305 3305 3305 3305 3305 3305 3305 3306 3306 3306 3306 3307 3307 3307 3308 3308 3308 3309 3309 3310 3310 3311 3311 3311 3312 3312 3313 3313 3314 3314 3315 3316 3316 3317 3318 3318 3319 3320 3321 3322 3322 3323 3324 3325 3325 3326 3327 3327 3328 3329 3329 3330 3330 3331 3331 3332 3333 3333 3334 3335 3336 3336 3337 3338 3339 3340 3342 3343 3344 -9 
-9 3221 3221 3221 3220 3220 3219 3219 3218 3217 3217 3217 3217 3217 3217 3217 3217 3218 3218 3218 3219 3220 3221 3221 3222 3224 3225 3226 3227 3229 3230 3232 3234 3235 3238 3239 3241 3243 3245 3247 3249 3251 3252 3254 3256 3257 3259 3260 3262 3263 3265 3266 3267 3267 3268 3269 3270 3270 3270 3271 3271 3271 3271 3271 3271 3271 3271 3271 3270 3269 3268 3268 3267 3268 3267 3267 3266 3266 3265 3264 3264 3263 3263 3262 3261 3261 3261 3260 3260 3260 3259 3259 3259 3260 3260 3260 3261 3261 3264 3264 3265 3266 3267 3266 3267 3269 3270 3271 3272 3273 3274 3276 3277 3278 3279 3280 3282 3283 3284 3286 3287 3288 3290 3291 3292 3293 3295 3296 3297 3298 3299 3300 3301 3302 3303 3304 3305 3306 3307 3308 3309 3310 3311 3312 3313 3314 3315 3316 3317 3318 3319 3320 3321 3322 3323 3324 3325 3325 3326 3327 3328 3329 3330 3331 3332 3332 3333 3332 3333 3333 3333 3334 3334 3334 3334 3334 3334 3334 3334 3334 3334 3334 3334 3333 3333 3333 3332 3332 3331 3331 3330 3330 3329 3329 3328 3327 3326 3325 3325 3324 3323 3322 3322 3321 3320 3319 3318 3318 3317 3316 3315 3314 3314 3313 3312 3311 3311 3310 3310 3309 3308 3308 3308 3307 3307 3307 3306 3306 3306 3306 3306 3306 3306 3306 3306 3306 3306 3306 3307 3307 3307 3307 3308 3308 3308 3309 3309 3309 3310 3310 3311 3311 3312 3312 3312 3313 3313 3314 3314 3315 3315 3316 3316 3317 3318 3319 3319 3320 3321 3322 3322 3323 3324 3325 3326 3326 3327 3328 3328 3329 3330 3330 3331 3331 3332 3332 3333 3334 3334 3335 3336 3337 3337 3338 3339 3340 3341 3342 3344 3345 -9 
-9 3225 3224 3224 3223 3223 3222 3222 3221 3221 3220 3220 3220 3220 3220 3220 3220 3221 3221 3221 3222 3223 3223 3224 3225 3226 3227 3229 3230 3231 3233 3234 3236 3238 3240 3242 3244 3245 3247 3249 3251 3253 3255 3256 3258 3260 3261 3262 3264 3265 3267 3268 3269 3270 3270 3271 3272 3272 3272 3273 3273 3273 3273 3273 3273 3273 3273 3273 3272 3271 3270 3270 3269 3270 3270 3269 3269 3268 3267 3267 3266 3266 3265 3265 3264 3264 3263 3263 3263 3262 3262 3262 3262 3262 3263 3263 3264 3264 3265 3267 3268 3268 3268 3269 3270 3271 3272 3273 3275 3276 3277 3278 3279 3280 3282 3283 3284 3285 3287 3288 3289 3291 3292 3293 3294 3295 3297 3298 3299 3300 3301 3302 3303 3304 3305 3306 3307 3308 3309 3310 3311 3312 3312 3313 3314 3315 3316 3317 3318 3319 3320 3321 3322 3323 3324 3325 3326 3326 3327 3328 3329 3330 3331 3332 3333 3333 3334 3333 3334 3334 3334 3335 3335 3335 3335 3335 3335 3335 3335 3335 3335 3335 3334 3334 3334 3333 3333 3333 3332 3332 3331 3331 3330 3329 3328 3328 3327 3327 3326 3325 3324 3324 3323 3322 3321 3321 3320 3319 3318 3317 3317 3316 3315 3314 3314 3313 3312 3312 3311 3311 3310 3310 3309 3309 3308 3308 3308 3308 3308 3307 3307 3307 3307 3307 3307 3307 3308 3308 3308 3308 3308 3309 3309 3309 3310 3310 3310 3311 3311 3311 3312 3312 3313 3313 3314 3314 3314 3315 3315 3316 3316 3317 3318 3318 3319 3320 3320 3321 3322 3323 3323 3324 3325 3326 3327 3327 3328 3329 3329 3330 3331 3331 3332 3332 3333 3334 3334 3335 3335 3336 3337 3338 3338 3339 3340 3341 3342 3343 3345 3346 -9 
-9 3228 3227 3227 3226 3226 3225 3225 3224 3224 3223 3223 3223 3223 3223 3223 3223 3223 3224 3224 3225 3225 3226 3227 3228 3229 3230 3231 3232 3234 3235 3237 3238 3240 3242 3244 3246 3248 3250 3251 3253 3255 3257 3258 3260 3262 3263 3264 3266 3267 3268 3270 3271 3272 3272 3273 3274 3274 3274 3275 3275 3275 3275 3275 3275 3275 3275 3275 3275 3274 3273 3272 3272 3273 3272 3272 3271 3271 3270 3270 3269 3269 3268 3268 3267 3267 3266 3266 3265 3265 3265 3265 3265 3265 3266 3266 3266 3267 3268 3268 3269 3270 3271 3272 3273 3274 3275 3276 3277 3278 3279 3281 3282 3283 3284 3285 3287 3288 3289 3290 3292 3293 3294 3295 3296 3298 3299 3300 3301 3302 3303 3304 3305 3306 3307 3308 3309 3309 3310 3311 3312 3313 3314 3315 3316 3317 3318 3318 3319 3320 3321 3322 3323 3324 3325 3326 3327 3327 3328 3329 3330 3331 3331 3333 3333 3334 3335 3334 3334 3335 3335 3335 3335 3336 3336 3336 3336 3336 3336 3336 3335 3335 3335 3335 3335 3334 3334 3333 3333 3333 3332 3332 3331 3330 3329 3329 3328 3328 3327 3326 3326 3325 3324 3323 3323 3322 3321 3320 3320 3319 3318 3317 3317 3316 3315 3314 3314 3313 3313 3312 3312 3311 3311 3310 3310 3310 3309 3309 3309 3309 3309 3309 3309 3309 3309 3309 3309 3309 3309 3309 3310 3310 3310 3311 3311 3311 3312 3312 3312 3313 3313 3314 3314 3314 3315 3315 3316 3316 3317 3317 3318 3318 3319 3319 3320 3321 3322 3322 3323 3324 3325 3326 3326 3327 3328 3329 3329 3330 3331 3331 3332 3332 3333 3334 3334 3335 3335 3336 3337 3337 3338 3339 3339 3340 3341 3342 3343 3344 3345 3347 -9 
-9 3231 3230 3230 3229 3229 3228 3227 3227 3227 3226 3226 3226 3226 3226 3226 3226 3226 3226 3227 3227 3228 3228 3229 3230 3231 3232 3233 3235 3236 3237 3239 3240 3242 3244 3246 3248 3250 3252 3253 3255 3257 3259 3260 3262 3264 3265 3266 3268 3269 3270 3271 3273 3274 3274 3275 3276 3276 3276 3277 3277 3277 3277 3277 3277 3277 3277 3277 3277 3276 3275 3275 3274 3275 3275 3274 3274 3273 3273 3272 3272 3271 3271 3270 3270 3269 3269 3269 3268 3268 3268 3268 3268 3268 3268 3269 3269 3270 3270 3271 3272 3273 3274 3275 3276 3277 3278 3279 3280 3281 3282 3283 3284 3285 3287 3288 3289 3290 3291 3293 3294 3295 3296 3297 3299 3300 3301 3302 3303 3304 3305 3306 3307 3307 3308 3309 3310 3311 3312 3313 3314 3314 3315 3316 3317 3318 3319 3320 3321 3322 3322 3323 3324 3325 3326 3327 3328 3328 3329 3330 3331 3331 3332 3333 3333 3335 3334 3335 3335 3335 3336 3336 3336 3336 3336 3336 3336 3336 3336 3336 3336 3336 3336 3336 3335 3335 3335 3334 3334 3333 3332 3332 3331 3331 3330 3330 3329 3329 3328 3327 3327 3326 3325 3325 3324 3323 3322 3322 3321 3320 3319 3319 3318 3317 3317 3316 3315 3315 3314 3314 3313 3313 3312 3312 3311 3311 3311 3311 3311 3310 3310 3310 3310 3310 3310 3310 3310 3311 3311 3311 3311 3311 3312 3312 3312 3313 3313 3313 3314 3314 3315 3315 3316 3316 3316 3317 3317 3318 3318 3319 3319 3320 3320 3321 3322 3322 3323 3324 3324 3325 3326 3327 3328 3328 3329 3330 3331 3331 3332 3333 3333 3334 3334 3335 3335 3336 3337 3337 3338 3338 3339 3340 3340 3341 3342 3343 3344 3345 3346 3347 -9 
-9 3234 3233 3233 3232 3232 3231 3230 3230 3229 3229 3229 3229 3228 3228 3228 3228 3229 3229 3229 3230 3230 3231 3232 3232 3233 3234 3235 3237 3238 3239 3241 3242 3244 3246 3248 3250 3252 3253 3255 3257 3259 3261 3262 3264 3266 3267 3268 3270 3271 3272 3273 3275 3276 3276 3277 3278 3278 3278 3279 3279 3279 3279 3279 3279 3279 3279 3279 3279 3279 3278 3278 3278 3278 3277 3277 3276 3276 3276 3275 3275 3274 3274 3273 3273 3272 3272 3272 3271 3271 3271 3271 3271 3271 3271 3272 3272 3273 3273 3274 3275 3276 3276 3277 3278 3279 3280 3281 3283 3284 3285 3286 3287 3288 3289 3290 3291 3293 3294 3295 3296 3297 3298 3300 3301 3302 3303 3304 3305 3306 3307 3307 3308 3309 3310 3311 3312 3313 3314 3314 3315 3316 3317 3318 3318 3319 3320 3321 3322 3323 3324 3324 3325 3326 3327 3328 3329 3329 3330 3331 3332 3332 3333 3334 3334 3335 3335 3335 3336 3336 3336 3337 3337 3337 3337 3337 3337 3337 3337 3337 3337 3337 3336 3336 3336 3336 3335 3335 3335 3334 3333 3333 3332 3332 3331 3331 3330 3330 3329 3328 3328 3327 3327 3326 3325 3324 3324 3323 3322 3322 3321 3320 3320 3319 3318 3318 3317 3316 3316 3315 3315 3314 3314 3313 3313 3313 3313 3312 3312 3312 3312 3312 3312 3312 3312 3312 3312 3312 3312 3313 3313 3313 3313 3314 3314 3314 3315 3315 3316 3316 3316 3317 3317 3318 3318 3318 3319 3319 3320 3320 3321 3321 3322 3322 3323 3324 3325 3325 3326 3327 3328 3328 3329 3330 3331 3331 3332 3333 3333 3334 3335 3335 3336 3336 3337 3337 3338 3338 3339 3340 3340 3341 3342 3342 3343 3344 3345 3346 3347 3348 -9 
-9 3236 3236 3235 3235 3234 3233 3233 3232 3232 3232 3231 3231 3231 3231 3231 3231 3231 3231 3232 3232 3232 3233 3234 3235 3235 3236 3238 3239 3240 3241 3243 3244 3246 3248 3250 3252 3254 3255 3257 3259 3261 3263 3264 3266 3267 3269 3270 3272 3273 3274 3275 3277 3277 3278 3279 3280 3280 3280 3281 3281 3281 3281 3282 3282 3282 3282 3281 3281 3281 3281 3281 3280 3280 3280 3279 3279 3279 3278 3278 3278 3277 3277 3276 3276 3275 3275 3275 3274 3274 3274 3274 3274 3274 3274 3275 3275 3276 3276 3277 3278 3278 3279 3280 3281 3282 3283 3284 3285 3286 3287 3288 3289 3291 3292 3293 3294 3295 3296 3297 3298 3299 3301 3302 3303 3304 3305 3306 3307 3308 3308 3309 3310 3311 3312 3313 3313 3314 3315 3316 3317 3317 3318 3319 3320 3321 3321 3322 3323 3324 3325 3325 3326 3327 3328 3329 3329 3330 3331 3332 3332 3333 3334 3334 3335 3335 3336 3336 3336 3337 3337 3337 3337 3338 3338 3338 3338 3338 3338 3338 3337 3337 3337 3337 3337 3336 3336 3336 3335 3334 3334 3334 3333 3333 3332 3332 3331 3331 3330 3330 3329 3328 3328 3327 3326 3326 3325 3324 3324 3323 3322 3322 3321 3320 3320 3319 3319 3318 3317 3317 3316 3316 3316 3315 3315 3314 3314 3314 3314 3314 3314 3314 3313 3313 3314 3314 3314 3314 3314 3314 3314 3315 3315 3315 3316 3316 3316 3317 3317 3318 3318 3319 3319 3319 3320 3320 3321 3321 3322 3322 3323 3323 3324 3324 3325 3326 3326 3327 3328 3329 3329 3330 3331 3332 3332 3333 3334 3334 3335 3336 3336 3337 3337 3338 3338 3339 3339 3340 3340 3341 3341 3342 3343 3343 3344 3345 3346 3347 3348 3349 -9 
-9 3239 3238 3238 3237 3236 3236 3235 3235 3235 3234 3234 3234 3233 3233 3233 3233 3233 3234 3234 3234 3235 3235 3236 3237 3237 3238 3239 3241 3242 3243 3245 3246 3248 3250 3252 3254 3255 3257 3259 3261 3263 3265 3266 3268 3269 3271 3272 3273 3275 3276 3277 3278 3279 3280 3281 3282 3282 3283 3283 3283 3283 3284 3284 3284 3284 3284 3284 3284 3284 3283 3283 3283 3283 3283 3282 3282 3282 3281 3281 3281 3280 3280 3279 3279 3278 3278 3278 3277 3277 3277 3277 3277 3277 3277 3278 3278 3279 3279 3280 3282 3282 3283 3283 3284 3285 3286 3287 3288 3289 3290 3291 3292 3293 3294 3295 3296 3297 3298 3300 3301 3302 3303 3304 3305 3306 3307 3308 3309 3309 3310 3311 3312 3313 3313 3314 3315 3316 3316 3317 3318 3319 3320 3320 3321 3322 3323 3323 3324 3325 3326 3326 3327 3328 3329 3330 3330 3331 3332 3332 3333 3334 3334 3335 3335 3336 3336 3337 3337 3337 3338 3338 3338 3338 3338 3338 3338 3338 3338 3338 3338 3338 3338 3337 3337 3337 3337 3336 3336 3335 3335 3335 3334 3334 3333 3333 3332 3332 3331 3331 3330 3330 3329 3328 3328 3327 3326 3326 3325 3325 3324 3323 3323 3322 3321 3321 3320 3320 3319 3319 3318 3318 3317 3317 3317 3316 3316 3316 3316 3315 3315 3315 3315 3315 3315 3315 3315 3316 3316 3316 3316 3317 3317 3317 3318 3318 3318 3319 3319 3320 3320 3321 3321 3321 3322 3322 3323 3323 3324 3324 3325 3325 3326 3326 3327 3328 3328 3329 3330 3330 3331 3332 3333 3333 3334 3335 3336 3336 3337 3337 3338 3338 3339 3339 3340 3340 3341 3341 3342 3342 3343 3343 3344 3345 3345 3346 3347 3348 3349 3350 -9 
-9 3241 3240 3239 3239 3239 3238 3238 3237 3237 3237 3236 3236 3236 3236 3236 3236 3236 3236 3236 3236 3237 3237 3238 3239 3239 3240 3241 3243 3244 3245 3247 3248 3250 3252 3254 3255 3257 3259 3261 3263 3265 3266 3268 3270 3271 3273 3274 3275 3277 3278 3279 3280 3282 3282 3283 3284 3284 3285 3285 3285 3286 3286 3286 3286 3286 3286 3286 3286 3286 3286 3286 3286 3285 3285 3285 3285 3285 3284 3284 3284 3283 3283 3282 3282 3282 3281 3281 3281 3280 3280 3280 3280 3280 3280 3281 3281 3282 3282 3284 3285 3285 3286 3287 3287 3288 3289 3290 3291 3292 3293 3294 3295 3296 3297 3298 3299 3300 3301 3302 3303 3304 3305 3306 3307 3308 3309 3310 3310 3311 3312 3313 3314 3314 3315 3316 3317 3317 3318 3319 3319 3320 3321 3322 3322 3323 3324 3325 3325 3326 3327 3327 3328 3329 3330 3330 3331 3332 3332 3333 3334 3334 3335 3335 3336 3336 3337 3337 3338 3338 3338 3338 3338 3339 3339 3339 3339 3339 3339 3339 3338 3338 3338 3338 3338 3337 3337 3337 3336 3336 3336 3335 3335 3335 3334 3334 3333 3333 3332 3332 3331 3331 3330 3330 3329 3328 3328 3327 3327 3326 3325 3325 3324 3324 3323 3322 3322 3321 3321 3320 3320 3319 3319 3319 3318 3318 3318 3318 3317 3317 3317 3317 3317 3317 3317 3317 3317 3318 3318 3318 3318 3319 3319 3319 3320 3320 3320 3321 3321 3322 3322 3323 3323 3324 3324 3324 3325 3325 3326 3326 3327 3327 3328 3328 3329 3330 3330 3331 3332 3333 3333 3334 3335 3335 3336 3337 3337 3338 3339 3339 3340 3340 3341 3341 3342 3342 3342 3343 3343 3344 3344 3345 3345 3346 3346 3347 3348 3349 3349 3350 -9 
-9 3242 3242 3242 3241 3241 3240 3240 3240 3239 3239 3239 3238 3238 3238 3238 3238 3238 3238 3238 3238 3239 3239 3240 3240 3241 3242 3243 3244 3246 3247 3248 3250 3252 3254 3255 3257 3259 3261 3263 3265 3267 3268 3270 3272 3273 3275 3276 3277 3279 3280 3281 3282 3283 3284 3285 3286 3286 3287 3287 3288 3288 3288 3288 3288 3289 3289 3289 3289 3289 3289 3288 3288 3288 3288 3288 3288 3288 3287 3287 3287 3286 3286 3286 3285 3285 3284 3284 3284 3283 3283 3283 3283 3283 3283 3284 3284 3285 3286 3287 3287 3288 3289 3289 3290 3291 3292 3293 3294 3294 3295 3296 3297 3298 3299 3300 3301 3302 3303 3304 3305 3306 3307 3308 3309 3310 3311 3312 3312 3313 3314 3315 3315 3316 3317 3317 3318 3319 3319 3320 3321 3321 3322 3323 3324 3324 3325 3326 3326 3327 3328 3328 3329 3330 3331 3331 3332 3333 3333 3334 3334 3335 3336 3336 3337 3337 3337 3338 3338 3338 3339 3339 3339 3339 3339 3339 3339 3339 3339 3339 3339 3339 3339 3338 3338 3338 3338 3337 3337 3337 3337 3336 3336 3336 3335 3335 3334 3334 3333 3333 3332 3332 3331 3331 3330 3330 3329 3329 3328 3327 3327 3326 3326 3325 3325 3324 3324 3323 3323 3322 3322 3321 3321 3320 3320 3320 3320 3319 3319 3319 3319 3319 3319 3319 3319 3319 3319 3320 3320 3320 3320 3321 3321 3321 3322 3322 3323 3323 3324 3324 3324 3325 3325 3326 3326 3327 3327 3328 3328 3329 3329 3330 3330 3331 3331 3332 3333 3333 3334 3335 3336 3336 3337 3338 3338 3339 3340 3340 3341 3341 3342 3342 3343 3343 3343 3344 3344 3344 3345 3345 3346 3346 3346 3347 3348 3348 3349 3350 3350 3351 -9 
-9 3244 3244 3244 3243 3243 3243 3242 3242 3241 3241 3241 3240 3240 3240 3240 3240 3240 3240 3240 3240 3241 3241 3242 3242 3243 3244 3245 3246 3247 3249 3250 3252 3254 3255 3257 3259 3261 3263 3265 3267 3269 3270 3272 3274 3275 3277 3278 3279 3281 3282 3283 3284 3285 3286 3287 3288 3289 3289 3290 3290 3290 3290 3291 3291 3291 3291 3291 3291 3291 3291 3291 3291 3291 3291 3291 3291 3291 3290 3290 3290 3289 3289 3289 3288 3288 3288 3287 3287 3287 3287 3286 3286 3286 3287 3287 3287 3288 3289 3290 3290 3291 3291 3292 3293 3294 3295 3295 3296 3297 3298 3299 3300 3301 3302 3303 3303 3304 3305 3306 3307 3308 3309 3310 3311 3312 3313 3313 3314 3315 3316 3316 3317 3318 3318 3319 3320 3320 3321 3322 3322 3323 3323 3324 3325 3325 3326 3327 3327 3328 3329 3329 3330 3331 3331 3332 3333 3333 3334 3334 3335 3336 3336 3337 3337 3337 3338 3338 3338 3339 3339 3339 3339 3339 3339 3340 3340 3340 3340 3340 3339 3339 3339 3339 3339 3338 3338 3338 3338 3338 3337 3337 3337 3336 3336 3336 3335 3335 3334 3334 3333 3333 3333 3332 3332 3331 3330 3330 3329 3329 3328 3328 3327 3327 3326 3326 3325 3325 3324 3324 3323 3323 3323 3322 3322 3322 3322 3321 3321 3321 3321 3321 3321 3321 3321 3321 3322 3322 3322 3322 3323 3323 3323 3324 3324 3325 3325 3325 3326 3326 3327 3327 3328 3328 3329 3329 3330 3330 3331 3331 3332 3332 3333 3333 3334 3335 3335 3336 3337 3337 3338 3339 3339 3340 3341 3341 3342 3342 3343 3343 3344 3344 3344 3345 3345 3345 3346 3346 3346 3347 3347 3347 3348 3348 3349 3349 3350 3350 3351 3352 -9 
-9 3247 3246 3246 3246 3245 3245 3244 3244 3243 3243 3243 3242 3242 3242 3242 3242 3242 3242 3242 3242 3242 3243 3243 3244 3245 3246 3247 3248 3249 3250 3252 3254 3256 3257 3259 3261 3263 3265 3267 3269 3270 3272 3274 3276 3277 3279 3280 3281 3283 3284 3285 3286 3287 3288 3288 3290 3291 3291 3292 3292 3293 3293 3293 3293 3294 3294 3294 3294 3294 3294 3294 3294 3294 3294 3294 3294 3294 3293 3293 3293 3293 3292 3292 3292 3291 3291 3290 3290 3290 3290 3290 3290 3290 3290 3290 3290 3291 3292 3293 3293 3294 3294 3295 3296 3296 3297 3298 3299 3300 3301 3301 3302 3303 3304 3305 3306 3307 3308 3309 3310 3310 3311 3312 3313 3314 3315 3315 3316 3317 3317 3318 3319 3319 3320 3321 3321 3322 3322 3323 3324 3324 3325 3325 3326 3327 3327 3328 3328 3329 3330 3330 3331 3332 3332 3333 3333 3334 3335 3335 3336 3336 3337 3337 3338 3338 3338 3339 3339 3339 3339 3340 3340 3340 3340 3340 3340 3340 3340 3340 3340 3340 3340 3340 3339 3339 3339 3339 3339 3338 3338 3338 3338 3337 3337 3337 3336 3336 3335 3335 3335 3334 3334 3333 3333 3332 3332 3331 3331 3330 3330 3329 3329 3328 3328 3328 3327 3327 3326 3326 3325 3325 3325 3324 3324 3324 3324 3323 3323 3323 3323 3323 3323 3323 3323 3324 3324 3324 3324 3325 3325 3325 3326 3326 3326 3327 3327 3328 3328 3329 3329 3330 3330 3331 3331 3332 3332 3333 3333 3334 3334 3335 3336 3336 3337 3337 3338 3338 3339 3340 3340 3341 3342 3342 3343 3343 3344 3345 3345 3345 3346 3346 3346 3347 3347 3347 3348 3348 3348 3348 3349 3349 3349 3349 3350 3350 3351 3351 3352 3353 -9 
-9 3249 3248 3248 3247 3247 3247 3246 3246 3245 3245 3245 3244 3244 3244 3244 3244 3243 3243 3244 3244 3244 3245 3245 3246 3247 3247 3248 3250 3251 3252 3254 3256 3257 3259 3261 3263 3265 3267 3269 3271 3272 3274 3276 3278 3279 3281 3282 3284 3285 3286 3287 3288 3289 3290 3291 3291 3293 3294 3294 3295 3295 3295 3296 3296 3296 3296 3297 3297 3297 3297 3297 3297 3297 3297 3297 3297 3297 3297 3296 3296 3296 3295 3295 3295 3294 3294 3294 3293 3293 3293 3293 3293 3293 3293 3293 3293 3294 3295 3295 3296 3296 3297 3298 3298 3299 3300 3301 3302 3302 3303 3304 3305 3306 3307 3307 3308 3309 3310 3311 3312 3313 3313 3314 3315 3316 3317 3317 3318 3319 3319 3320 3320 3321 3322 3322 3323 3323 3324 3324 3325 3325 3326 3327 3327 3328 3328 3329 3329 3330 3331 3331 3332 3332 3333 3333 3334 3335 3335 3336 3336 3337 3337 3338 3338 3338 3339 3339 3339 3340 3340 3340 3340 3340 3340 3340 3340 3340 3340 3340 3340 3340 3340 3340 3340 3340 3340 3340 3339 3339 3339 3339 3338 3338 3338 3338 3337 3337 3337 3336 3336 3335 3335 3335 3334 3334 3333 3333 3332 3332 3332 3331 3331 3330 3330 3329 3329 3328 3328 3328 3327 3327 3327 3326 3326 3326 3326 3326 3325 3325 3325 3325 3325 3326 3326 3326 3326 3326 3327 3327 3327 3328 3328 3329 3329 3329 3330 3331 3331 3332 3332 3333 3333 3334 3334 3335 3335 3336 3336 3337 3337 3338 3338 3339 3339 3340 3341 3341 3342 3342 3343 3344 3344 3345 3345 3346 3346 3347 3347 3348 3348 3348 3349 3349 3349 3349 3349 3350 3350 3350 3350 3350 3350 3351 3351 3351 3352 3352 3353 3354 -9 
-9 3250 3250 3250 3249 3249 3249 3248 3248 3247 3247 3247 3246 3246 3246 3246 3246 3246 3245 3245 3246 3246 3246 3247 3247 3248 3249 3250 3251 3253 3254 3255 3258 3259 3261 3263 3265 3267 3269 3271 3273 3274 3276 3278 3280 3281 3283 3284 3286 3287 3288 3289 3290 3291 3292 3293 3294 3294 3296 3297 3297 3298 3298 3298 3299 3299 3299 3299 3300 3300 3300 3300 3300 3300 3300 3300 3300 3300 3300 3300 3299 3299 3299 3298 3298 3298 3297 3297 3297 3296 3296 3296 3296 3296 3296 3296 3297 3297 3298 3298 3299 3299 3300 3301 3301 3302 3303 3303 3304 3305 3306 3307 3307 3308 3309 3310 3311 3311 3312 3313 3314 3315 3316 3316 3317 3318 3319 3319 3320 3320 3321 3322 3322 3323 3323 3324 3324 3325 3325 3326 3326 3327 3327 3328 3328 3329 3329 3330 3330 3331 3331 3332 3333 3333 3334 3334 3335 3335 3336 3336 3337 3337 3338 3338 3338 3339 3339 3339 3340 3340 3340 3340 3340 3341 3341 3341 3341 3341 3341 3341 3341 3341 3341 3341 3341 3341 3340 3340 3340 3340 3340 3340 3339 3339 3339 3339 3338 3338 3338 3337 3337 3337 3336 3336 3335 3335 3335 3334 3334 3333 3333 3333 3332 3332 3331 3331 3331 3330 3330 3330 3329 3329 3329 3328 3328 3328 3328 3328 3328 3328 3328 3328 3328 3328 3328 3328 3328 3329 3329 3329 3330 3330 3331 3331 3332 3332 3333 3333 3334 3334 3335 3335 3336 3337 3337 3338 3338 3339 3339 3340 3340 3341 3341 3342 3342 3343 3344 3344 3345 3345 3346 3346 3347 3347 3348 3348 3349 3349 3350 3350 3350 3350 3351 3351 3351 3351 3351 3351 3351 3351 3352 3352 3352 3352 3352 3352 3353 3353 3354 3354 -9 
-9 3252 3252 3252 3251 3251 3250 3250 3250 3249 3249 3248 3248 3248 3248 3248 3247 3247 3247 3247 3247 3248 3248 3248 3249 3250 3251 3252 3253 3254 3256 3258 3260 3261 3263 3265 3267 3269 3271 3273 3275 3277 3278 3280 3282 3283 3285 3286 3288 3289 3290 3292 3293 3294 3294 3295 3296 3297 3297 3299 3300 3300 3301 3301 3301 3302 3302 3302 3302 3303 3303 3303 3303 3303 3303 3303 3303 3303 3303 3303 3303 3302 3302 3302 3301 3301 3301 3300 3301 3301 3300 3300 3299 3299 3299 3299 3300 3300 3301 3301 3302 3302 3303 3303 3304 3305 3305 3306 3307 3308 3308 3309 3310 3311 3311 3312 3313 3314 3315 3315 3316 3317 3318 3318 3319 3320 3320 3321 3322 3322 3323 3323 3324 3324 3325 3325 3326 3326 3327 3327 3327 3328 3328 3329 3329 3330 3330 3331 3331 3332 3332 3333 3333 3334 3334 3335 3335 3336 3336 3337 3337 3338 3338 3339 3339 3339 3340 3340 3340 3340 3341 3341 3341 3341 3341 3341 3341 3341 3341 3341 3341 3341 3341 3341 3341 3341 3341 3341 3341 3341 3341 3340 3340 3340 3340 3340 3339 3339 3339 3338 3338 3338 3338 3337 3337 3337 3336 3336 3335 3335 3335 3334 3334 3334 3333 3333 3332 3332 3332 3331 3331 3331 3331 3330 3330 3330 3330 3330 3330 3330 3330 3330 3330 3330 3330 3331 3331 3331 3332 3332 3332 3333 3333 3334 3334 3335 3335 3336 3337 3337 3338 3338 3339 3340 3340 3341 3341 3342 3342 3343 3343 3344 3344 3345 3345 3346 3346 3347 3348 3348 3349 3349 3350 3350 3351 3351 3351 3352 3352 3352 3352 3353 3353 3353 3353 3353 3353 3353 3353 3353 3353 3353 3353 3353 3353 3353 3354 3354 3354 3355 -9 
-9 3254 3254 3254 3253 3253 3252 3252 3251 3251 3251 3250 3250 3250 3249 3249 3249 3248 3248 3249 3249 3249 3250 3250 3251 3252 3253 3254 3255 3256 3258 3260 3261 3263 3265 3267 3269 3271 3273 3275 3277 3279 3280 3282 3284 3286 3287 3289 3290 3291 3293 3294 3295 3296 3297 3298 3298 3299 3300 3301 3302 3303 3303 3304 3304 3304 3305 3305 3305 3306 3306 3306 3306 3306 3306 3306 3306 3306 3306 3306 3306 3306 3306 3305 3305 3304 3305 3304 3304 3304 3303 3303 3303 3302 3302 3303 3303 3304 3304 3304 3305 3305 3306 3306 3307 3307 3308 3309 3309 3310 3311 3312 3312 3313 3314 3315 3315 3316 3317 3318 3318 3319 3320 3321 3321 3322 3322 3323 3324 3324 3325 3325 3325 3326 3326 3327 3327 3327 3328 3328 3329 3329 3330 3330 3331 3331 3331 3332 3332 3333 3333 3334 3334 3335 3335 3336 3336 3337 3337 3337 3338 3338 3339 3339 3339 3340 3340 3340 3341 3341 3341 3341 3341 3341 3342 3342 3342 3342 3342 3342 3342 3342 3342 3342 3342 3342 3342 3342 3342 3342 3341 3341 3341 3341 3341 3341 3340 3340 3340 3340 3339 3339 3339 3339 3338 3338 3338 3337 3337 3337 3336 3336 3336 3335 3335 3335 3334 3334 3334 3333 3333 3333 3333 3333 3332 3332 3332 3332 3332 3332 3332 3332 3333 3333 3333 3333 3334 3334 3334 3335 3335 3336 3336 3337 3337 3338 3338 3339 3340 3340 3341 3341 3342 3343 3343 3344 3344 3345 3345 3346 3346 3347 3347 3348 3348 3349 3349 3350 3350 3351 3351 3352 3352 3353 3353 3353 3354 3354 3354 3354 3355 3355 3355 3355 3355 3355 3355 3355 3355 3354 3354 3354 3354 3354 3354 3354 3355 3355 3355 3355 -9 
-9 3256 3256 3255 3255 3255 3254 3254 3253 3253 3252 3252 3252 3252 3251 3251 3251 3250 3250 3250 3251 3251 3251 3252 3253 3253 3254 3255 3257 3258 3260 3262 3263 3265 3267 3269 3271 3273 3275 3277 3279 3281 3283 3284 3286 3288 3289 3291 3292 3294 3295 3296 3297 3298 3299 3300 3301 3302 3302 3303 3304 3304 3305 3307 3307 3307 3308 3308 3308 3309 3309 3309 3309 3309 3309 3309 3309 3309 3309 3309 3309 3309 3309 3309 3308 3308 3308 3307 3307 3307 3307 3306 3306 3306 3306 3306 3306 3307 3307 3307 3307 3308 3308 3309 3309 3310 3311 3311 3312 3313 3314 3314 3315 3316 3316 3317 3318 3318 3319 3320 3321 3321 3322 3323 3323 3324 3324 3325 3325 3326 3326 3327 3327 3328 3328 3328 3328 3329 3329 3330 3330 3330 3331 3331 3332 3332 3332 3333 3333 3334 3334 3335 3335 3335 3336 3336 3337 3337 3338 3338 3338 3339 3339 3339 3340 3340 3340 3341 3341 3341 3341 3342 3342 3342 3342 3342 3342 3343 3343 3343 3343 3343 3343 3343 3343 3343 3343 3343 3343 3342 3342 3342 3342 3342 3342 3342 3342 3341 3341 3341 3341 3340 3340 3340 3340 3339 3339 3339 3339 3338 3338 3338 3337 3337 3337 3337 3336 3336 3336 3336 3335 3335 3335 3335 3335 3335 3335 3335 3335 3335 3335 3335 3335 3335 3336 3336 3336 3337 3337 3337 3338 3338 3339 3339 3340 3341 3341 3342 3343 3343 3344 3344 3345 3346 3346 3347 3347 3348 3348 3349 3350 3350 3351 3351 3351 3352 3352 3353 3353 3354 3354 3355 3355 3355 3356 3356 3356 3356 3357 3357 3357 3357 3357 3357 3357 3357 3356 3356 3356 3356 3356 3356 3355 3355 3355 3355 3355 3355 3356 3356 -9 
-9 3258 3258 3257 3257 3256 3256 3256 3255 3255 3254 3254 3254 3253 3253 3253 3253 3253 3252 3252 3252 3253 3253 3254 3254 3255 3256 3257 3259 3261 3262 3264 3265 3267 3269 3271 3273 3275 3277 3279 3281 3283 3285 3287 3289 3290 3292 3293 3295 3296 3297 3299 3300 3301 3302 3303 3304 3304 3305 3306 3306 3307 3308 3308 3309 3309 3309 3310 3310 3310 3311 3311 3311 3312 3312 3312 3312 3312 3312 3312 3312 3312 3312 3312 3311 3311 3311 3311 3310 3310 3310 3310 3309 3309 3309 3309 3309 3309 3310 3310 3310 3311 3311 3312 3312 3313 3313 3314 3315 3315 3316 3317 3317 3318 3319 3319 3320 3321 3321 3322 3323 3323 3324 3325 3325 3326 3326 3327 3327 3328 3328 3328 3329 3329 3329 3330 3330 3330 3331 3331 3331 3332 3332 3332 3333 3333 3334 3334 3334 3335 3335 3335 3336 3336 3337 3337 3337 3338 3338 3339 3339 3339 3340 3340 3340 3341 3341 3341 3341 3342 3342 3342 3342 3342 3342 3343 3343 3343 3343 3343 3343 3343 3343 3343 3343 3343 3343 3343 3343 3343 3343 3343 3343 3343 3343 3343 3343 3342 3342 3342 3342 3342 3342 3341 3341 3341 3341 3340 3340 3340 3340 3339 3339 3339 3339 3339 3338 3338 3338 3338 3337 3337 3337 3337 3337 3337 3337 3337 3337 3337 3337 3337 3338 3338 3338 3338 3339 3339 3340 3340 3341 3341 3342 3342 3343 3344 3344 3345 3346 3346 3347 3348 3348 3349 3349 3350 3351 3351 3352 3352 3353 3353 3354 3354 3355 3355 3355 3356 3356 3357 3357 3357 3358 3358 3358 3359 3359 3359 3359 3359 3359 3359 3359 3359 3358 3358 3358 3358 3358 3357 3357 3357 3356 3356 3356 3356 3356 3356 3356 3356 -9 
-9 3260 3260 3259 3259 3258 3258 3258 3257 3257 3256 3256 3256 3255 3255 3255 3255 3255 3255 3255 3256 3255 3256 3257 3257 3258 3259 3260 3261 3263 3264 3266 3268 3269 3271 3273 3275 3277 3279 3281 3283 3285 3287 3289 3291 3293 3294 3296 3297 3299 3300 3301 3302 3303 3304 3305 3306 3307 3308 3309 3309 3310 3310 3311 3311 3312 3312 3313 3313 3313 3314 3314 3314 3315 3315 3315 3315 3315 3315 3315 3315 3315 3315 3315 3315 3314 3314 3314 3313 3313 3313 3313 3312 3312 3312 3312 3312 3312 3313 3313 3313 3314 3314 3315 3315 3316 3316 3317 3317 3318 3319 3319 3320 3321 3321 3322 3322 3323 3324 3324 3325 3326 3326 3327 3327 3328 3328 3329 3329 3329 3330 3330 3330 3331 3331 3331 3331 3332 3332 3332 3333 3333 3333 3334 3334 3334 3335 3335 3335 3336 3336 3336 3337 3337 3337 3338 3338 3338 3339 3339 3340 3340 3340 3340 3341 3341 3341 3342 3342 3342 3342 3342 3343 3343 3343 3343 3344 3344 3344 3344 3344 3344 3344 3344 3344 3344 3344 3344 3344 3344 3344 3344 3344 3344 3344 3344 3344 3344 3344 3343 3343 3343 3343 3343 3343 3342 3342 3342 3342 3342 3341 3341 3341 3341 3341 3340 3340 3340 3340 3340 3340 3340 3339 3339 3339 3339 3339 3339 3340 3340 3340 3340 3340 3341 3341 3341 3342 3342 3343 3343 3344 3344 3345 3345 3346 3347 3347 3348 3349 3349 3350 3351 3351 3352 3353 3353 3354 3354 3355 3355 3356 3356 3357 3357 3358 3358 3358 3359 3359 3360 3360 3360 3360 3361 3361 3361 3361 3361 3361 3361 3361 3361 3361 3360 3360 3360 3360 3359 3359 3359 3358 3358 3358 3357 3357 3357 3357 3357 3357 3357 -9 
-9 3262 3262 3261 3261 3260 3260 3260 3259 3259 3258 3258 3258 3257 3257 3257 3257 3257 3257 3257 3258 3258 3258 3259 3260 3260 3261 3262 3264 3265 3266 3268 3270 3272 3274 3276 3278 3280 3282 3284 3286 3288 3290 3291 3293 3295 3297 3298 3300 3301 3302 3304 3305 3306 3307 3308 3309 3310 3311 3311 3312 3313 3313 3314 3314 3315 3315 3316 3316 3316 3317 3317 3317 3318 3318 3318 3318 3318 3319 3319 3318 3318 3318 3318 3318 3317 3317 3317 3317 3316 3316 3316 3316 3315 3315 3315 3315 3315 3316 3316 3316 3317 3317 3317 3318 3318 3319 3319 3320 3320 3321 3322 3322 3323 3324 3324 3325 3325 3326 3327 3327 3328 3328 3329 3329 3330 3330 3331 3331 3331 3332 3332 3332 3332 3333 3333 3333 3333 3333 3334 3334 3334 3335 3335 3335 3335 3336 3336 3336 3337 3337 3337 3337 3338 3338 3338 3339 3339 3339 3340 3340 3340 3341 3341 3341 3342 3342 3342 3342 3343 3343 3343 3343 3344 3344 3344 3344 3344 3345 3345 3345 3345 3345 3345 3345 3345 3345 3345 3345 3345 3345 3345 3345 3345 3345 3345 3345 3345 3345 3345 3345 3345 3344 3344 3344 3344 3344 3344 3344 3343 3343 3343 3343 3343 3343 3343 3342 3342 3342 3342 3342 3342 3342 3342 3342 3342 3342 3342 3342 3342 3342 3343 3343 3343 3344 3344 3344 3345 3345 3346 3346 3347 3348 3348 3349 3350 3350 3351 3352 3352 3353 3354 3354 3355 3356 3356 3357 3357 3358 3358 3359 3359 3360 3360 3361 3361 3361 3362 3362 3362 3363 3363 3363 3363 3363 3363 3363 3363 3363 3363 3363 3363 3363 3362 3362 3362 3361 3361 3360 3360 3359 3359 3358 3358 3358 3357 3357 3357 3357 3357 -9 
-9 3264 3264 3263 3263 3262 3262 3262 3261 3261 3260 3260 3260 3259 3259 3259 3259 3259 3259 3259 3260 3260 3261 3261 3262 3263 3263 3265 3266 3267 3269 3270 3272 3274 3276 3278 3280 3282 3284 3286 3288 3290 3292 3294 3296 3298 3299 3301 3302 3304 3305 3306 3308 3309 3310 3311 3312 3313 3313 3314 3315 3316 3316 3317 3317 3318 3318 3319 3319 3320 3320 3320 3321 3321 3321 3321 3321 3322 3322 3322 3322 3322 3321 3321 3321 3321 3320 3320 3320 3319 3319 3319 3319 3318 3318 3318 3318 3318 3319 3319 3319 3319 3320 3320 3321 3321 3321 3322 3322 3323 3324 3324 3325 3325 3326 3327 3327 3328 3328 3329 3329 3330 3330 3331 3331 3332 3332 3332 3333 3333 3333 3333 3334 3334 3334 3334 3335 3335 3335 3335 3335 3336 3336 3336 3336 3336 3337 3337 3337 3337 3338 3338 3338 3339 3339 3339 3340 3340 3340 3340 3341 3341 3341 3342 3342 3342 3342 3343 3343 3343 3343 3343 3344 3344 3345 3345 3345 3345 3345 3345 3345 3346 3346 3346 3346 3346 3346 3346 3346 3346 3346 3346 3346 3346 3346 3346 3346 3346 3346 3346 3346 3346 3346 3346 3346 3346 3346 3345 3345 3345 3345 3345 3345 3345 3345 3345 3344 3344 3344 3344 3344 3344 3344 3344 3344 3344 3344 3345 3345 3345 3345 3345 3346 3346 3346 3347 3347 3348 3348 3349 3349 3350 3351 3351 3352 3353 3353 3354 3355 3356 3356 3357 3358 3358 3359 3359 3360 3361 3361 3362 3362 3363 3363 3363 3364 3364 3364 3365 3365 3365 3365 3366 3366 3366 3366 3366 3366 3366 3366 3365 3365 3365 3364 3364 3364 3363 3363 3362 3362 3361 3360 3360 3359 3359 3358 3358 3358 3357 3357 3357 -9 
-9 3266 3266 3265 3265 3265 3264 3264 3263 3263 3262 3262 3262 3262 3261 3261 3261 3261 3261 3262 3262 3262 3263 3263 3264 3265 3266 3267 3268 3270 3271 3273 3275 3276 3278 3280 3282 3285 3287 3289 3291 3293 3295 3297 3298 3300 3302 3303 3305 3306 3308 3309 3310 3311 3313 3314 3315 3315 3316 3317 3318 3319 3319 3320 3320 3321 3321 3322 3322 3323 3323 3323 3324 3324 3324 3324 3325 3325 3325 3325 3325 3325 3324 3324 3324 3324 3323 3323 3323 3322 3322 3322 3322 3321 3321 3321 3321 3321 3322 3322 3322 3322 3323 3323 3323 3324 3324 3325 3325 3325 3326 3327 3327 3328 3328 3329 3329 3330 3330 3331 3331 3332 3332 3333 3333 3334 3334 3334 3335 3335 3335 3335 3335 3336 3336 3336 3336 3336 3336 3336 3337 3337 3337 3337 3337 3338 3338 3338 3338 3338 3339 3339 3339 3339 3340 3340 3340 3341 3341 3341 3341 3342 3342 3342 3342 3343 3343 3343 3343 3344 3344 3345 3345 3345 3345 3345 3346 3346 3346 3346 3346 3346 3347 3347 3347 3347 3347 3347 3347 3347 3347 3347 3347 3348 3348 3348 3348 3348 3348 3348 3348 3347 3347 3347 3347 3347 3347 3347 3347 3347 3347 3347 3347 3347 3347 3347 3347 3347 3347 3347 3347 3347 3347 3347 3347 3347 3347 3347 3347 3348 3348 3348 3348 3349 3349 3350 3350 3351 3351 3352 3352 3353 3354 3354 3355 3356 3357 3357 3358 3359 3359 3360 3361 3361 3362 3363 3363 3364 3364 3365 3365 3366 3366 3366 3367 3367 3367 3368 3368 3368 3368 3368 3368 3368 3368 3368 3368 3368 3368 3367 3367 3367 3366 3366 3365 3365 3364 3363 3363 3362 3362 3361 3360 3360 3359 3359 3358 3358 3357 3357 -9 
-9 3268 3268 3268 3267 3267 3266 3266 3265 3265 3265 3264 3264 3264 3264 3264 3264 3264 3264 3264 3264 3265 3265 3266 3266 3267 3268 3269 3271 3272 3274 3275 3277 3279 3281 3283 3285 3287 3289 3291 3293 3295 3297 3299 3301 3303 3305 3306 3308 3309 3311 3312 3313 3314 3315 3316 3317 3318 3319 3320 3321 3322 3322 3323 3323 3324 3324 3325 3325 3326 3326 3326 3327 3327 3327 3328 3328 3328 3328 3328 3328 3328 3328 3327 3327 3327 3326 3326 3326 3325 3325 3325 3325 3324 3324 3324 3324 3324 3324 3325 3325 3325 3325 3326 3326 3326 3327 3327 3328 3328 3328 3329 3330 3330 3331 3331 3332 3332 3333 3333 3334 3334 3334 3335 3335 3336 3336 3336 3336 3337 3337 3337 3337 3337 3337 3337 3338 3338 3338 3338 3338 3338 3338 3338 3339 3339 3339 3339 3339 3339 3340 3340 3340 3340 3341 3341 3341 3341 3342 3342 3342 3342 3343 3343 3343 3343 3344 3344 3344 3344 3345 3345 3346 3346 3346 3346 3346 3347 3347 3347 3347 3347 3347 3348 3348 3348 3348 3348 3348 3348 3348 3349 3349 3349 3349 3349 3349 3349 3349 3349 3349 3349 3349 3349 3349 3349 3349 3349 3349 3349 3349 3349 3349 3349 3349 3349 3349 3349 3349 3349 3349 3349 3349 3349 3349 3349 3350 3350 3350 3350 3351 3351 3351 3352 3352 3353 3353 3354 3354 3355 3355 3356 3357 3358 3358 3359 3360 3360 3361 3362 3363 3363 3364 3365 3365 3366 3366 3367 3367 3368 3368 3369 3369 3369 3370 3370 3370 3370 3371 3371 3371 3371 3371 3371 3371 3370 3370 3370 3370 3369 3369 3368 3368 3367 3367 3366 3365 3365 3364 3363 3363 3362 3361 3360 3360 3359 3359 3358 3358 3357 -9 
-9 3271 3270 3270 3269 3269 3269 3268 3268 3267 3267 3267 3266 3266 3266 3266 3266 3266 3266 3266 3267 3267 3267 3268 3269 3270 3271 3272 3273 3274 3276 3278 3280 3282 3284 3286 3288 3290 3292 3294 3296 3298 3300 3302 3304 3306 3307 3309 3310 3312 3313 3315 3316 3317 3318 3319 3320 3321 3322 3323 3324 3325 3325 3326 3326 3327 3327 3328 3328 3329 3329 3329 3330 3330 3330 3331 3331 3331 3331 3331 3331 3331 3331 3330 3330 3330 3330 3329 3329 3328 3328 3328 3328 3327 3327 3327 3327 3327 3327 3327 3328 3328 3328 3328 3329 3329 3329 3330 3330 3331 3331 3331 3332 3333 3333 3334 3334 3334 3335 3335 3336 3336 3336 3337 3337 3337 3338 3338 3338 3338 3338 3339 3339 3339 3339 3339 3339 3339 3339 3339 3339 3339 3340 3340 3340 3340 3340 3340 3340 3341 3341 3341 3341 3341 3341 3342 3342 3342 3342 3343 3343 3343 3343 3343 3344 3344 3344 3344 3345 3346 3346 3346 3346 3346 3347 3347 3347 3347 3348 3348 3348 3348 3348 3349 3349 3349 3349 3349 3349 3350 3350 3350 3350 3350 3350 3350 3350 3350 3350 3350 3351 3351 3351 3351 3351 3351 3351 3351 3351 3351 3351 3351 3351 3351 3351 3351 3351 3351 3351 3351 3351 3351 3352 3352 3352 3352 3352 3353 3353 3353 3353 3354 3354 3355 3355 3356 3356 3357 3357 3358 3359 3359 3360 3361 3361 3362 3363 3364 3364 3365 3366 3366 3367 3368 3368 3369 3369 3370 3370 3371 3371 3372 3372 3372 3373 3373 3373 3373 3373 3373 3373 3373 3373 3373 3373 3373 3372 3372 3372 3371 3371 3370 3370 3369 3368 3368 3367 3366 3365 3364 3363 3363 3362 3361 3360 3360 3359 3358 3358 3358 -9 
-9 3273 3273 3272 3272 3271 3271 3270 3270 3270 3269 3269 3269 3269 3268 3268 3268 3268 3269 3269 3269 3270 3270 3271 3271 3272 3273 3274 3276 3277 3279 3280 3282 3284 3286 3288 3290 3293 3295 3297 3299 3301 3303 3305 3307 3308 3310 3312 3313 3315 3316 3318 3319 3320 3321 3322 3323 3324 3325 3326 3327 3328 3328 3329 3329 3330 3330 3331 3331 3332 3332 3332 3333 3333 3333 3334 3334 3334 3334 3334 3334 3334 3334 3333 3333 3333 3333 3332 3332 3331 3331 3331 3331 3330 3330 3330 3330 3330 3330 3330 3330 3331 3331 3331 3331 3332 3332 3332 3333 3333 3333 3334 3335 3335 3336 3336 3336 3337 3337 3338 3338 3338 3339 3339 3339 3339 3340 3340 3340 3340 3340 3340 3340 3340 3340 3340 3341 3341 3341 3341 3341 3341 3341 3341 3341 3341 3341 3341 3341 3342 3342 3342 3342 3342 3342 3343 3343 3343 3343 3343 3344 3344 3344 3344 3344 3345 3345 3345 3346 3346 3347 3347 3347 3347 3348 3348 3348 3348 3349 3349 3349 3349 3349 3350 3350 3350 3350 3350 3351 3351 3351 3351 3351 3351 3351 3352 3352 3352 3352 3352 3352 3352 3352 3352 3352 3353 3353 3353 3353 3353 3353 3353 3353 3353 3353 3353 3353 3353 3354 3354 3354 3354 3354 3354 3355 3355 3355 3355 3356 3356 3356 3357 3357 3358 3358 3359 3359 3360 3360 3361 3362 3362 3363 3364 3364 3365 3366 3367 3367 3368 3369 3370 3370 3371 3371 3372 3372 3373 3373 3374 3374 3375 3375 3375 3375 3376 3376 3376 3376 3376 3376 3376 3376 3375 3375 3375 3375 3374 3374 3373 3373 3372 3371 3370 3370 3369 3368 3367 3366 3365 3364 3363 3363 3362 3361 3360 3359 3359 3358 3358 -9 
-9 3275 3275 3274 3274 3274 3273 3273 3273 3272 3272 3272 3271 3271 3271 3271 3271 3271 3271 3271 3272 3272 3273 3273 3274 3275 3276 3277 3278 3280 3281 3283 3285 3287 3289 3291 3293 3295 3298 3300 3302 3304 3306 3308 3310 3311 3313 3315 3316 3318 3319 3321 3322 3323 3324 3325 3326 3327 3328 3329 3330 3331 3331 3332 3332 3333 3333 3334 3334 3335 3335 3336 3336 3336 3336 3337 3337 3337 3337 3337 3337 3337 3337 3336 3336 3336 3335 3335 3335 3334 3334 3334 3333 3333 3333 3333 3333 3333 3333 3333 3333 3333 3334 3334 3334 3334 3335 3335 3335 3336 3336 3336 3337 3338 3338 3338 3339 3339 3339 3340 3340 3340 3341 3341 3341 3341 3341 3342 3342 3342 3342 3342 3342 3342 3342 3342 3342 3342 3342 3342 3342 3342 3342 3342 3342 3342 3342 3343 3343 3343 3343 3343 3343 3343 3343 3343 3344 3344 3344 3344 3344 3345 3345 3345 3345 3345 3346 3347 3347 3347 3347 3348 3348 3348 3348 3349 3349 3349 3349 3350 3350 3350 3350 3351 3351 3351 3351 3352 3352 3352 3352 3352 3353 3353 3353 3353 3353 3353 3353 3354 3354 3354 3354 3354 3354 3354 3354 3355 3355 3355 3355 3355 3355 3355 3355 3356 3356 3356 3356 3356 3356 3356 3357 3357 3357 3357 3358 3358 3358 3359 3359 3360 3360 3360 3361 3362 3362 3363 3363 3364 3365 3365 3366 3367 3367 3368 3369 3370 3370 3371 3372 3373 3373 3374 3374 3375 3376 3376 3376 3377 3377 3377 3378 3378 3378 3378 3378 3378 3378 3378 3378 3378 3378 3378 3377 3377 3377 3376 3375 3375 3374 3374 3373 3372 3371 3370 3369 3368 3367 3366 3365 3364 3363 3362 3361 3361 3360 3359 3358 3358 -9 
-9 3277 3277 3277 3277 3276 3276 3275 3275 3275 3274 3274 3274 3274 3274 3274 3274 3274 3274 3274 3274 3275 3275 3276 3277 3278 3279 3280 3281 3283 3284 3286 3288 3290 3292 3294 3296 3298 3300 3303 3305 3307 3309 3311 3313 3314 3316 3318 3319 3321 3322 3324 3325 3326 3327 3329 3330 3331 3331 3332 3333 3334 3334 3335 3336 3336 3336 3337 3337 3338 3338 3338 3339 3339 3339 3340 3340 3340 3340 3340 3340 3340 3340 3339 3339 3339 3338 3338 3338 3337 3337 3337 3336 3336 3336 3336 3336 3336 3336 3336 3336 3336 3336 3336 3337 3337 3337 3337 3338 3338 3338 3339 3339 3340 3340 3341 3341 3341 3342 3342 3342 3342 3343 3343 3343 3343 3343 3343 3344 3344 3344 3344 3344 3344 3344 3344 3344 3344 3343 3344 3344 3344 3344 3344 3344 3344 3344 3344 3344 3344 3344 3344 3344 3344 3344 3344 3345 3345 3345 3345 3345 3345 3346 3346 3347 3347 3347 3347 3348 3348 3348 3348 3349 3349 3349 3350 3350 3350 3350 3351 3351 3351 3352 3352 3352 3352 3353 3353 3353 3353 3353 3354 3354 3354 3354 3355 3355 3355 3355 3355 3355 3356 3356 3356 3356 3356 3356 3357 3357 3357 3357 3357 3357 3357 3358 3358 3358 3358 3358 3359 3359 3359 3359 3360 3360 3360 3360 3361 3361 3362 3362 3362 3363 3363 3364 3364 3365 3366 3366 3367 3368 3368 3369 3370 3371 3371 3372 3373 3374 3374 3375 3376 3376 3377 3377 3378 3378 3379 3379 3380 3380 3380 3381 3381 3381 3381 3381 3381 3381 3381 3381 3380 3380 3380 3379 3379 3378 3378 3377 3377 3376 3375 3374 3373 3372 3371 3370 3369 3368 3367 3366 3365 3364 3363 3362 3361 3360 3359 3359 3358 -9 
-9 3280 3279 3279 3279 3279 3278 3278 3278 3277 3277 3277 3277 3276 3276 3276 3276 3277 3277 3277 3277 3278 3278 3279 3280 3281 3282 3283 3284 3286 3287 3289 3291 3293 3295 3297 3299 3301 3304 3306 3308 3310 3312 3314 3316 3318 3319 3321 3323 3324 3326 3327 3328 3329 3331 3332 3333 3334 3335 3335 3336 3337 3337 3338 3339 3339 3339 3340 3340 3341 3341 3341 3342 3342 3342 3343 3343 3343 3343 3343 3343 3343 3342 3342 3342 3342 3341 3341 3340 3340 3340 3339 3339 3339 3339 3338 3338 3338 3338 3338 3339 3339 3339 3339 3339 3340 3340 3340 3340 3341 3341 3341 3341 3342 3343 3343 3343 3344 3344 3344 3344 3345 3345 3345 3345 3345 3345 3345 3345 3345 3345 3345 3345 3345 3345 3345 3345 3345 3345 3345 3345 3345 3345 3345 3345 3345 3345 3345 3345 3345 3345 3345 3345 3345 3345 3345 3346 3346 3346 3346 3347 3347 3347 3347 3348 3348 3348 3348 3349 3349 3349 3349 3350 3350 3350 3351 3351 3351 3351 3352 3352 3352 3353 3353 3353 3354 3354 3354 3354 3355 3355 3355 3355 3356 3356 3356 3356 3356 3357 3357 3357 3357 3358 3358 3358 3358 3358 3359 3359 3359 3359 3359 3360 3360 3360 3360 3360 3361 3361 3361 3361 3362 3362 3362 3363 3363 3363 3364 3364 3364 3365 3365 3366 3366 3367 3367 3368 3369 3369 3370 3371 3371 3372 3373 3374 3374 3375 3376 3377 3377 3378 3379 3379 3380 3380 3381 3381 3382 3382 3382 3383 3383 3383 3383 3383 3384 3384 3383 3383 3383 3383 3383 3382 3382 3381 3381 3380 3380 3379 3378 3377 3377 3376 3375 3374 3373 3372 3371 3369 3368 3367 3366 3365 3364 3363 3362 3361 3360 3359 3358 -9 
-9 3282 3282 3281 3281 3280 3281 3281 3280 3280 3280 3279 3279 3279 3279 3279 3279 3279 3280 3280 3280 3281 3281 3282 3283 3284 3285 3286 3287 3289 3290 3292 3294 3296 3298 3300 3302 3305 3307 3309 3311 3313 3315 3317 3319 3321 3322 3324 3326 3327 3329 3330 3331 3333 3334 3335 3336 3337 3338 3338 3339 3340 3340 3341 3342 3342 3342 3343 3343 3344 3344 3344 3345 3345 3345 3345 3345 3346 3346 3346 3345 3345 3345 3345 3345 3344 3344 3344 3343 3343 3342 3342 3342 3342 3341 3341 3341 3341 3341 3341 3341 3341 3341 3342 3342 3342 3342 3343 3343 3343 3343 3344 3344 3344 3345 3345 3346 3346 3346 3346 3346 3347 3347 3347 3347 3347 3347 3347 3347 3347 3347 3347 3347 3347 3347 3347 3347 3347 3347 3346 3346 3346 3346 3346 3346 3346 3346 3346 3346 3346 3346 3346 3346 3346 3346 3346 3347 3347 3347 3348 3348 3348 3348 3348 3349 3349 3349 3349 3349 3350 3350 3350 3351 3351 3351 3352 3352 3352 3353 3353 3353 3354 3354 3354 3354 3355 3355 3355 3356 3356 3356 3357 3357 3357 3357 3358 3358 3358 3358 3359 3359 3359 3359 3360 3360 3360 3360 3361 3361 3361 3361 3362 3362 3362 3362 3363 3363 3363 3363 3364 3364 3364 3365 3365 3365 3366 3366 3366 3367 3367 3368 3368 3369 3369 3370 3370 3371 3372 3372 3373 3374 3374 3375 3376 3377 3377 3378 3379 3379 3380 3381 3381 3382 3383 3383 3384 3384 3385 3385 3385 3385 3386 3386 3386 3386 3386 3386 3386 3386 3385 3385 3385 3384 3384 3383 3383 3382 3382 3381 3380 3379 3378 3377 3376 3375 3374 3373 3372 3370 3369 3368 3367 3365 3364 3363 3362 3361 3360 3359 3358 -9 
-9 3284 3284 3284 3283 3283 3282 3282 3283 3283 3282 3282 3282 3282 3282 3282 3282 3282 3280 3281 3281 3282 3284 3285 3286 3287 3288 3289 3290 3292 3294 3295 3297 3299 3301 3304 3306 3308 3310 3312 3314 3316 3318 3320 3322 3324 3326 3327 3329 3331 3332 3333 3335 3336 3337 3338 3339 3340 3341 3342 3342 3343 3343 3344 3344 3345 3345 3346 3346 3346 3347 3347 3347 3348 3348 3348 3348 3348 3348 3348 3348 3348 3348 3348 3347 3347 3347 3346 3346 3345 3345 3345 3344 3344 3344 3344 3344 3344 3344 3344 3344 3344 3344 3344 3344 3345 3345 3345 3345 3346 3346 3346 3346 3347 3347 3348 3348 3348 3348 3348 3349 3349 3349 3349 3349 3349 3349 3349 3349 3349 3349 3349 3349 3349 3348 3348 3348 3348 3348 3348 3348 3348 3348 3348 3348 3348 3348 3348 3347 3347 3347 3347 3347 3347 3348 3348 3348 3348 3348 3349 3349 3349 3349 3349 3350 3350 3350 3350 3351 3351 3351 3351 3352 3352 3352 3353 3353 3353 3354 3354 3354 3355 3355 3355 3356 3356 3356 3357 3357 3357 3358 3358 3358 3359 3359 3359 3360 3360 3360 3360 3361 3361 3361 3362 3362 3362 3362 3363 3363 3363 3363 3364 3364 3364 3365 3365 3365 3366 3366 3366 3366 3367 3367 3368 3368 3368 3369 3369 3370 3370 3371 3371 3372 3372 3373 3373 3374 3375 3375 3376 3377 3377 3378 3379 3379 3380 3381 3382 3382 3383 3384 3384 3385 3385 3386 3386 3387 3387 3388 3388 3388 3388 3388 3388 3388 3388 3388 3388 3388 3388 3387 3387 3386 3386 3385 3385 3384 3383 3382 3381 3381 3380 3378 3377 3376 3375 3374 3373 3371 3370 3369 3367 3366 3365 3364 3363 3361 3360 3359 3359 -9 
-9 3287 3287 3286 3286 3285 3285 3284 3284 3284 3283 3283 3283 3283 3283 3283 3283 3283 3284 3284 3284 3285 3285 3286 3289 3290 3291 3292 3294 3295 3297 3299 3301 3303 3305 3307 3309 3311 3313 3315 3318 3320 3322 3324 3325 3327 3329 3331 3332 3334 3335 3337 3338 3339 3340 3341 3342 3343 3344 3345 3345 3346 3346 3347 3347 3348 3348 3349 3349 3349 3350 3350 3350 3350 3351 3351 3351 3351 3351 3351 3351 3351 3351 3350 3350 3350 3349 3349 3348 3348 3348 3347 3347 3347 3347 3346 3346 3346 3346 3346 3346 3346 3347 3347 3347 3347 3347 3348 3348 3348 3348 3348 3349 3349 3349 3350 3350 3350 3351 3351 3351 3351 3351 3351 3351 3351 3351 3351 3351 3351 3351 3350 3350 3350 3350 3350 3350 3350 3350 3350 3349 3349 3349 3349 3349 3349 3349 3349 3349 3349 3349 3349 3349 3349 3349 3349 3349 3349 3350 3350 3350 3350 3350 3350 3351 3351 3351 3351 3352 3352 3352 3352 3353 3353 3353 3354 3354 3355 3355 3355 3356 3356 3356 3357 3357 3357 3358 3358 3359 3359 3359 3360 3360 3360 3361 3361 3361 3362 3362 3362 3363 3363 3363 3363 3364 3364 3364 3365 3365 3365 3366 3366 3366 3367 3367 3367 3368 3368 3368 3369 3369 3369 3370 3370 3371 3371 3372 3372 3373 3373 3374 3374 3375 3375 3376 3376 3377 3378 3378 3379 3380 3380 3381 3382 3382 3383 3384 3384 3385 3386 3386 3387 3388 3388 3389 3389 3389 3390 3390 3390 3391 3391 3391 3391 3391 3391 3391 3390 3390 3390 3389 3389 3388 3388 3387 3386 3386 3385 3384 3383 3382 3381 3380 3379 3377 3376 3375 3374 3372 3371 3370 3368 3367 3366 3364 3363 3362 3361 3360 3359 -9 
-9 3290 3289 3289 3288 3288 3288 3287 3287 3287 3286 3286 3286 3286 3286 3286 3286 3286 3287 3287 3288 3288 3289 3290 3290 3293 3295 3296 3297 3299 3300 3302 3304 3306 3308 3310 3312 3315 3317 3319 3321 3323 3325 3327 3329 3331 3332 3334 3336 3337 3339 3340 3341 3342 3343 3344 3345 3346 3347 3348 3348 3349 3349 3350 3350 3351 3351 3351 3352 3352 3352 3353 3353 3353 3353 3354 3354 3354 3354 3354 3354 3353 3353 3353 3353 3352 3352 3351 3351 3351 3350 3350 3350 3349 3349 3349 3349 3349 3349 3349 3349 3349 3349 3349 3349 3350 3350 3350 3350 3350 3351 3351 3351 3351 3352 3352 3353 3353 3353 3353 3353 3353 3353 3353 3353 3353 3353 3353 3353 3353 3352 3352 3352 3352 3352 3352 3351 3351 3351 3351 3351 3351 3351 3351 3351 3351 3350 3350 3350 3350 3350 3350 3350 3350 3350 3350 3350 3351 3351 3351 3351 3351 3351 3352 3352 3352 3352 3352 3353 3353 3353 3354 3354 3354 3355 3355 3355 3356 3356 3357 3357 3357 3358 3358 3358 3359 3359 3360 3360 3360 3361 3361 3362 3362 3362 3363 3363 3363 3364 3364 3364 3365 3365 3365 3366 3366 3367 3367 3367 3368 3368 3368 3369 3369 3369 3370 3370 3370 3371 3371 3372 3372 3373 3373 3373 3374 3374 3375 3375 3376 3376 3377 3378 3378 3379 3379 3380 3380 3381 3382 3382 3383 3384 3384 3385 3386 3386 3387 3388 3389 3389 3390 3390 3391 3391 3392 3392 3392 3393 3393 3393 3393 3393 3393 3393 3393 3393 3392 3392 3392 3391 3391 3390 3390 3389 3388 3387 3386 3385 3384 3383 3382 3381 3380 3379 3377 3376 3375 3373 3372 3370 3369 3368 3366 3365 3364 3362 3361 3360 3359 -9 
-9 3292 3292 3291 3291 3291 3290 3290 3290 3289 3289 3289 3289 3289 3289 3289 3289 3290 3290 3290 3291 3291 3292 3293 3294 3295 3298 3299 3301 3302 3304 3306 3308 3310 3312 3314 3316 3318 3320 3322 3324 3326 3328 3330 3332 3334 3336 3337 3339 3340 3342 3343 3344 3346 3347 3348 3349 3349 3350 3351 3351 3352 3352 3353 3353 3354 3354 3354 3354 3355 3355 3355 3356 3356 3356 3356 3356 3356 3356 3356 3356 3356 3356 3355 3355 3355 3354 3354 3354 3353 3353 3352 3352 3352 3352 3352 3351 3351 3351 3351 3351 3351 3352 3352 3352 3352 3352 3352 3353 3353 3353 3353 3354 3354 3354 3354 3355 3355 3355 3355 3355 3355 3355 3355 3355 3355 3355 3355 3355 3354 3354 3354 3354 3354 3353 3353 3353 3353 3353 3353 3353 3353 3352 3352 3352 3352 3352 3352 3352 3352 3352 3351 3351 3351 3351 3351 3351 3352 3352 3352 3352 3353 3353 3353 3353 3353 3353 3354 3354 3354 3355 3355 3355 3356 3356 3356 3357 3357 3358 3358 3358 3359 3359 3359 3360 3360 3361 3361 3362 3362 3362 3363 3363 3364 3364 3364 3365 3365 3366 3366 3366 3367 3367 3368 3368 3368 3369 3369 3369 3370 3370 3371 3371 3371 3372 3372 3373 3373 3373 3374 3374 3375 3375 3376 3376 3377 3377 3378 3378 3379 3379 3380 3380 3381 3382 3382 3383 3383 3384 3385 3385 3386 3386 3387 3388 3389 3389 3390 3391 3391 3392 3392 3393 3393 3394 3394 3394 3395 3395 3395 3395 3395 3395 3395 3395 3395 3395 3394 3394 3394 3393 3393 3392 3391 3391 3390 3389 3388 3387 3386 3385 3383 3382 3381 3380 3378 3377 3376 3374 3373 3371 3370 3368 3367 3365 3364 3363 3362 3360 3359 -9 
-9 3295 3295 3294 3294 3293 3293 3293 3293 3292 3292 3292 3292 3292 3292 3292 3293 3293 3293 3294 3294 3295 3296 3296 3297 3298 3300 3301 3304 3306 3308 3309 3311 3313 3315 3317 3319 3322 3324 3326 3328 3330 3332 3334 3336 3337 3339 3341 3342 3344 3345 3346 3348 3349 3350 3351 3352 3352 3353 3354 3354 3355 3355 3356 3356 3356 3357 3357 3357 3357 3358 3358 3358 3358 3359 3359 3359 3359 3359 3359 3359 3358 3358 3358 3358 3357 3357 3357 3356 3356 3355 3355 3355 3354 3354 3354 3354 3354 3354 3354 3354 3354 3354 3354 3354 3355 3355 3355 3355 3355 3356 3356 3356 3356 3356 3357 3357 3357 3357 3357 3357 3357 3357 3357 3357 3357 3357 3357 3357 3356 3356 3356 3356 3355 3355 3355 3355 3355 3355 3355 3354 3354 3354 3354 3354 3354 3354 3353 3353 3353 3353 3353 3353 3353 3353 3353 3354 3354 3354 3354 3354 3354 3354 3354 3354 3355 3355 3355 3355 3356 3356 3356 3357 3357 3357 3358 3358 3358 3359 3359 3360 3360 3361 3361 3361 3362 3362 3363 3363 3364 3364 3364 3365 3365 3366 3366 3367 3367 3367 3368 3368 3369 3369 3370 3370 3370 3371 3371 3372 3372 3372 3373 3373 3374 3374 3375 3375 3376 3376 3376 3377 3377 3378 3378 3379 3379 3380 3380 3381 3382 3382 3383 3383 3384 3384 3385 3385 3386 3387 3387 3388 3389 3389 3390 3391 3391 3392 3392 3393 3394 3394 3395 3395 3396 3396 3397 3397 3397 3397 3397 3398 3398 3398 3397 3397 3397 3397 3396 3396 3396 3395 3394 3394 3393 3392 3391 3390 3389 3388 3387 3386 3385 3383 3382 3381 3379 3378 3377 3375 3374 3372 3370 3369 3367 3366 3365 3363 3362 3361 3360 -9 
-9 3298 3297 3297 3297 3296 3296 3296 3296 3296 3295 3295 3295 3295 3296 3296 3296 3296 3297 3297 3298 3299 3299 3300 3301 3302 3303 3305 3306 3308 3311 3313 3315 3317 3319 3321 3323 3325 3327 3329 3331 3333 3335 3337 3339 3341 3343 3344 3346 3347 3348 3350 3351 3352 3353 3354 3355 3355 3356 3357 3357 3358 3358 3358 3359 3359 3359 3360 3360 3360 3360 3361 3361 3361 3361 3361 3361 3361 3361 3361 3361 3361 3361 3360 3360 3360 3359 3359 3359 3358 3358 3357 3357 3357 3357 3356 3356 3356 3356 3356 3356 3356 3357 3357 3357 3357 3357 3357 3358 3358 3358 3358 3358 3359 3359 3359 3359 3359 3360 3360 3360 3360 3359 3359 3359 3359 3359 3359 3358 3358 3358 3358 3358 3357 3357 3357 3357 3357 3357 3356 3356 3356 3356 3356 3356 3355 3355 3355 3355 3355 3355 3355 3354 3354 3354 3354 3355 3355 3355 3355 3355 3355 3355 3356 3356 3356 3356 3356 3357 3357 3357 3358 3358 3358 3359 3359 3359 3360 3360 3361 3361 3362 3362 3362 3363 3363 3364 3364 3365 3365 3366 3366 3367 3367 3368 3368 3368 3369 3369 3370 3370 3371 3371 3372 3372 3373 3373 3373 3374 3374 3375 3375 3376 3376 3377 3377 3378 3378 3379 3379 3379 3380 3381 3381 3382 3382 3383 3383 3384 3384 3385 3385 3386 3387 3387 3388 3388 3389 3389 3390 3391 3391 3392 3393 3393 3394 3394 3395 3396 3396 3397 3397 3398 3398 3398 3399 3399 3399 3399 3400 3400 3400 3400 3399 3399 3399 3399 3398 3398 3397 3397 3396 3395 3395 3394 3393 3392 3391 3390 3388 3387 3386 3385 3383 3382 3380 3379 3377 3376 3374 3373 3371 3370 3368 3367 3365 3364 3362 3361 3360 -9 
-9 3301 3300 3300 3300 3299 3299 3299 3299 3299 3299 3299 3299 3299 3299 3299 3300 3300 3300 3301 3302 3302 3303 3304 3305 3306 3307 3308 3310 3312 3313 3317 3319 3321 3323 3325 3327 3329 3331 3333 3335 3337 3339 3341 3342 3344 3346 3347 3349 3350 3352 3353 3354 3355 3356 3357 3358 3358 3359 3360 3360 3361 3361 3361 3362 3362 3362 3362 3362 3363 3363 3363 3363 3363 3364 3364 3364 3364 3364 3364 3364 3363 3363 3363 3363 3362 3362 3361 3361 3361 3360 3360 3360 3359 3359 3359 3359 3359 3359 3359 3359 3359 3359 3359 3359 3359 3360 3360 3360 3360 3360 3361 3361 3361 3361 3361 3361 3361 3362 3362 3362 3362 3362 3361 3361 3361 3361 3361 3361 3360 3360 3360 3360 3359 3359 3359 3359 3359 3359 3358 3358 3358 3358 3358 3357 3357 3357 3357 3357 3357 3356 3356 3356 3356 3356 3357 3357 3357 3357 3357 3357 3357 3357 3357 3357 3357 3358 3358 3358 3358 3359 3359 3359 3360 3360 3361 3361 3361 3362 3362 3363 3363 3364 3364 3364 3365 3365 3366 3366 3367 3367 3368 3368 3369 3369 3370 3370 3371 3371 3372 3372 3373 3373 3374 3374 3375 3375 3376 3376 3377 3377 3378 3378 3379 3379 3380 3380 3381 3381 3382 3382 3383 3383 3384 3384 3385 3385 3386 3386 3387 3388 3388 3389 3389 3390 3390 3391 3392 3392 3393 3393 3394 3395 3395 3396 3396 3397 3397 3398 3399 3399 3400 3400 3400 3401 3401 3401 3401 3402 3402 3402 3402 3402 3401 3401 3401 3400 3400 3400 3399 3398 3398 3397 3396 3395 3394 3393 3392 3391 3390 3388 3387 3386 3384 3383 3381 3380 3378 3377 3375 3374 3372 3370 3369 3367 3366 3364 3363 3362 3360 -9 
-9 3303 3303 3303 3303 3302 3302 3302 3302 3302 3302 3302 3302 3302 3303 3303 3303 3304 3304 3305 3305 3306 3307 3308 3309 3310 3311 3312 3314 3315 3317 3319 3322 3324 3326 3328 3330 3332 3334 3336 3338 3340 3342 3344 3346 3348 3349 3351 3352 3354 3355 3356 3357 3358 3359 3360 3361 3361 3362 3363 3363 3363 3364 3364 3364 3364 3365 3365 3365 3365 3365 3366 3366 3366 3366 3366 3366 3366 3366 3366 3366 3366 3366 3365 3365 3365 3364 3364 3363 3363 3363 3362 3362 3362 3362 3361 3361 3361 3361 3361 3361 3361 3361 3362 3362 3362 3362 3362 3362 3363 3363 3363 3363 3363 3364 3364 3364 3364 3364 3364 3364 3364 3364 3364 3363 3363 3363 3363 3363 3362 3362 3362 3362 3361 3361 3361 3361 3361 3361 3360 3360 3360 3360 3359 3359 3359 3359 3359 3359 3358 3358 3358 3358 3358 3358 3359 3359 3359 3359 3359 3359 3359 3359 3359 3359 3359 3359 3359 3360 3360 3360 3361 3361 3361 3362 3362 3362 3363 3363 3364 3364 3365 3365 3366 3366 3366 3367 3368 3368 3369 3369 3370 3370 3371 3371 3372 3372 3373 3373 3374 3374 3375 3375 3376 3376 3377 3377 3378 3378 3379 3379 3380 3380 3381 3382 3382 3383 3383 3384 3384 3385 3385 3386 3386 3387 3387 3388 3389 3389 3390 3390 3391 3391 3392 3393 3393 3394 3394 3395 3395 3396 3396 3397 3398 3398 3399 3399 3400 3400 3401 3401 3402 3402 3403 3403 3403 3403 3404 3404 3404 3404 3404 3403 3403 3403 3403 3402 3402 3401 3401 3400 3399 3398 3397 3397 3395 3394 3393 3392 3391 3390 3388 3387 3385 3384 3382 3381 3379 3378 3376 3374 3373 3371 3369 3368 3366 3365 3363 3362 3361 -9 
-9 3307 3306 3306 3306 3306 3305 3305 3305 3305 3305 3305 3306 3306 3306 3306 3307 3307 3308 3308 3309 3310 3310 3311 3312 3313 3315 3316 3318 3319 3321 3323 3325 3328 3330 3332 3334 3336 3338 3340 3342 3344 3346 3347 3349 3351 3352 3354 3355 3357 3358 3359 3360 3361 3362 3363 3364 3364 3365 3365 3366 3366 3366 3367 3367 3367 3367 3367 3367 3368 3368 3368 3368 3368 3368 3369 3369 3369 3369 3368 3368 3368 3368 3368 3367 3367 3367 3366 3366 3365 3365 3365 3364 3364 3364 3364 3364 3364 3364 3364 3364 3364 3364 3364 3364 3364 3365 3365 3365 3365 3365 3365 3366 3366 3366 3366 3366 3366 3366 3366 3366 3366 3366 3366 3366 3365 3365 3365 3365 3364 3364 3364 3364 3363 3363 3363 3363 3363 3363 3362 3362 3362 3362 3361 3361 3361 3361 3361 3360 3360 3360 3360 3360 3360 3361 3361 3360 3360 3360 3360 3360 3360 3360 3360 3361 3361 3361 3361 3361 3362 3362 3362 3363 3363 3363 3364 3364 3364 3365 3365 3366 3366 3367 3367 3368 3368 3369 3369 3370 3370 3371 3371 3372 3373 3373 3374 3374 3375 3375 3376 3376 3377 3378 3378 3379 3379 3380 3380 3381 3381 3382 3382 3383 3383 3384 3384 3385 3386 3386 3387 3387 3388 3388 3389 3390 3390 3391 3391 3392 3392 3393 3394 3394 3395 3395 3396 3396 3397 3397 3398 3398 3399 3400 3400 3401 3401 3402 3402 3403 3403 3404 3404 3404 3405 3405 3405 3405 3405 3406 3406 3405 3405 3405 3405 3405 3404 3404 3403 3403 3402 3401 3401 3400 3399 3398 3397 3396 3395 3393 3392 3391 3389 3388 3386 3385 3383 3382 3380 3379 3377 3375 3373 3372 3370 3368 3367 3365 3364 3362 3361 -9 
-9 3310 3309 3309 3309 3309 3309 3309 3309 3309 3309 3309 3309 3309 3310 3310 3310 3311 3312 3312 3313 3314 3314 3315 3316 3317 3319 3320 3321 3323 3325 3327 3328 3330 3334 3336 3338 3340 3342 3344 3345 3347 3349 3351 3352 3354 3356 3357 3358 3360 3361 3362 3363 3364 3365 3366 3366 3367 3368 3368 3368 3369 3369 3369 3369 3370 3370 3370 3370 3370 3370 3370 3371 3371 3371 3371 3371 3371 3371 3371 3371 3370 3370 3370 3370 3369 3369 3368 3368 3368 3367 3367 3367 3367 3366 3366 3366 3366 3366 3366 3366 3366 3366 3366 3367 3367 3367 3367 3367 3368 3368 3368 3368 3368 3368 3368 3368 3369 3369 3369 3369 3368 3368 3368 3368 3368 3367 3367 3367 3367 3366 3366 3366 3365 3365 3366 3365 3365 3365 3365 3364 3364 3364 3364 3363 3363 3363 3363 3362 3362 3362 3362 3362 3362 3363 3362 3362 3362 3362 3362 3362 3362 3362 3362 3362 3362 3363 3363 3363 3363 3364 3364 3364 3365 3365 3365 3366 3366 3367 3367 3367 3368 3368 3369 3369 3370 3370 3371 3371 3372 3373 3373 3374 3374 3375 3376 3376 3377 3377 3378 3379 3379 3380 3380 3381 3381 3382 3382 3383 3384 3384 3385 3385 3386 3386 3387 3387 3388 3389 3389 3390 3390 3391 3391 3392 3393 3393 3394 3394 3395 3396 3396 3397 3397 3398 3398 3399 3399 3400 3400 3401 3401 3402 3402 3403 3403 3404 3404 3405 3405 3406 3406 3406 3407 3407 3407 3407 3407 3407 3407 3407 3407 3407 3407 3406 3406 3405 3405 3404 3403 3403 3402 3401 3400 3399 3398 3397 3396 3394 3393 3392 3390 3389 3387 3386 3384 3383 3381 3379 3378 3376 3374 3372 3371 3369 3367 3366 3364 3363 3362 -9 
-9 3311 3311 3311 3311 3310 3310 3310 3310 3310 3310 3310 3313 3313 3313 3314 3314 3315 3315 3316 3317 3317 3318 3319 3320 3321 3322 3324 3325 3327 3329 3330 3332 3334 3337 3339 3341 3343 3345 3347 3349 3351 3352 3354 3356 3357 3359 3360 3362 3363 3364 3365 3366 3367 3368 3369 3369 3370 3370 3371 3371 3371 3372 3372 3372 3372 3372 3372 3372 3372 3373 3373 3373 3373 3373 3373 3373 3373 3373 3373 3373 3373 3372 3372 3372 3371 3371 3371 3370 3370 3370 3369 3369 3369 3369 3369 3368 3368 3368 3368 3368 3369 3369 3369 3369 3369 3369 3370 3370 3370 3370 3370 3370 3371 3371 3371 3371 3371 3371 3371 3371 3371 3371 3370 3370 3370 3370 3369 3369 3369 3368 3368 3368 3368 3367 3368 3368 3367 3367 3367 3367 3366 3366 3366 3366 3365 3365 3365 3365 3364 3364 3364 3364 3364 3365 3365 3364 3364 3364 3364 3364 3364 3364 3364 3364 3364 3364 3365 3365 3365 3365 3366 3366 3366 3367 3367 3367 3368 3368 3369 3369 3370 3370 3371 3371 3372 3372 3373 3373 3374 3374 3375 3376 3376 3377 3378 3378 3379 3379 3380 3381 3381 3382 3382 3383 3384 3384 3385 3385 3386 3386 3387 3388 3388 3389 3389 3390 3390 3391 3392 3392 3393 3393 3394 3395 3395 3396 3396 3397 3398 3398 3399 3399 3400 3400 3401 3401 3402 3402 3403 3403 3404 3404 3405 3405 3406 3406 3407 3407 3407 3408 3408 3408 3409 3409 3409 3409 3409 3409 3409 3409 3409 3408 3408 3408 3407 3407 3406 3406 3405 3404 3403 3402 3401 3400 3399 3398 3397 3395 3394 3393 3391 3390 3388 3387 3385 3384 3382 3380 3378 3377 3375 3373 3371 3370 3368 3366 3365 3363 3362 -9 
-9 3315 3314 3314 3314 3314 3314 3313 3313 3313 3314 3314 3314 3314 3315 3315 3316 3316 3319 3320 3321 3321 3322 3323 3324 3325 3326 3328 3329 3331 3333 3334 3336 3338 3340 3343 3345 3347 3349 3351 3352 3354 3356 3357 3359 3360 3362 3363 3365 3366 3367 3368 3369 3370 3371 3371 3372 3373 3373 3373 3374 3374 3374 3374 3374 3374 3375 3375 3375 3375 3375 3375 3375 3375 3375 3375 3375 3375 3375 3375 3375 3375 3375 3374 3374 3374 3373 3373 3373 3372 3372 3372 3371 3371 3371 3371 3371 3371 3371 3371 3371 3371 3371 3371 3371 3372 3372 3372 3372 3372 3373 3373 3373 3373 3373 3373 3373 3373 3373 3373 3373 3373 3373 3373 3372 3372 3372 3372 3371 3371 3371 3370 3370 3370 3370 3370 3370 3370 3369 3369 3369 3369 3368 3368 3368 3368 3367 3367 3367 3367 3366 3366 3366 3367 3367 3367 3367 3366 3366 3366 3366 3366 3366 3366 3366 3366 3366 3367 3367 3367 3367 3367 3368 3368 3368 3369 3369 3370 3370 3370 3371 3371 3372 3372 3373 3373 3374 3374 3375 3376 3376 3377 3378 3378 3379 3379 3380 3381 3381 3382 3383 3383 3384 3384 3385 3386 3386 3387 3388 3388 3389 3389 3390 3390 3391 3392 3392 3393 3393 3394 3395 3395 3396 3396 3397 3398 3398 3399 3399 3400 3401 3401 3402 3402 3403 3403 3404 3404 3405 3405 3406 3406 3407 3407 3407 3408 3408 3409 3409 3409 3410 3410 3410 3411 3411 3411 3411 3411 3411 3411 3410 3410 3410 3410 3409 3409 3408 3408 3407 3406 3405 3404 3403 3402 3401 3400 3399 3398 3396 3395 3394 3392 3391 3389 3388 3386 3384 3383 3381 3379 3377 3376 3374 3372 3370 3369 3367 3365 3364 3363 -9 
-9 3318 3318 3317 3317 3317 3317 3317 3317 3317 3317 3317 3318 3318 3318 3319 3320 3320 3321 3324 3325 3325 3326 3327 3328 3329 3330 3332 3333 3335 3336 3338 3340 3342 3344 3347 3349 3350 3352 3354 3356 3357 3359 3361 3362 3364 3365 3366 3368 3369 3370 3371 3372 3373 3373 3374 3375 3375 3376 3376 3376 3376 3377 3377 3377 3377 3377 3377 3377 3377 3377 3377 3377 3377 3378 3378 3378 3378 3377 3377 3377 3377 3377 3376 3376 3376 3375 3375 3375 3374 3374 3374 3374 3373 3373 3373 3373 3373 3373 3373 3373 3373 3373 3374 3374 3374 3374 3374 3374 3375 3375 3375 3375 3375 3375 3376 3376 3376 3376 3376 3375 3375 3375 3375 3375 3374 3374 3374 3374 3373 3373 3373 3373 3373 3373 3373 3372 3372 3372 3372 3371 3371 3371 3371 3370 3370 3370 3370 3369 3369 3369 3369 3368 3369 3369 3369 3369 3369 3369 3369 3368 3368 3368 3368 3368 3368 3368 3369 3369 3369 3369 3369 3370 3370 3370 3371 3371 3371 3372 3372 3373 3373 3373 3374 3374 3375 3376 3376 3377 3377 3378 3379 3379 3380 3381 3381 3382 3383 3383 3384 3385 3385 3386 3387 3387 3388 3388 3389 3390 3390 3391 3392 3392 3393 3393 3394 3395 3395 3396 3396 3397 3398 3398 3399 3399 3400 3401 3401 3402 3402 3403 3403 3404 3405 3405 3406 3406 3406 3407 3407 3408 3408 3409 3409 3409 3410 3410 3411 3411 3411 3412 3412 3412 3412 3412 3412 3412 3412 3412 3412 3412 3412 3411 3411 3410 3410 3409 3409 3408 3407 3406 3405 3404 3403 3402 3401 3400 3399 3397 3396 3395 3393 3392 3390 3388 3387 3385 3383 3382 3380 3378 3376 3374 3373 3371 3369 3368 3366 3364 3363 -9 
-9 3321 3321 3321 3321 3321 3321 3321 3321 3321 3321 3321 3322 3322 3322 3323 3324 3324 3325 3326 3329 3329 3330 3331 3332 3333 3335 3336 3337 3339 3341 3342 3344 3346 3348 3350 3352 3354 3356 3358 3359 3361 3362 3364 3365 3367 3368 3369 3371 3372 3373 3374 3375 3375 3376 3377 3377 3378 3378 3378 3379 3379 3379 3379 3379 3379 3379 3379 3379 3379 3379 3379 3379 3380 3380 3380 3380 3380 3379 3379 3379 3379 3379 3378 3378 3378 3377 3377 3377 3376 3376 3376 3376 3376 3375 3375 3375 3375 3375 3375 3375 3376 3376 3376 3376 3376 3376 3377 3377 3377 3377 3377 3378 3378 3378 3378 3378 3378 3378 3378 3378 3378 3377 3377 3377 3377 3377 3376 3376 3376 3376 3375 3376 3376 3375 3375 3375 3375 3374 3374 3374 3374 3373 3373 3373 3373 3372 3372 3372 3372 3371 3371 3372 3372 3372 3372 3371 3371 3371 3371 3371 3371 3371 3371 3371 3371 3371 3371 3371 3371 3371 3371 3372 3372 3372 3373 3373 3373 3374 3374 3374 3375 3375 3376 3376 3377 3377 3378 3379 3379 3380 3381 3381 3382 3383 3383 3384 3385 3385 3386 3387 3387 3388 3389 3389 3390 3391 3391 3392 3392 3393 3394 3394 3395 3396 3396 3397 3397 3398 3399 3399 3400 3401 3401 3402 3402 3403 3403 3404 3405 3405 3406 3406 3407 3407 3408 3408 3409 3409 3409 3410 3410 3411 3411 3411 3412 3412 3412 3413 3413 3413 3414 3414 3414 3414 3414 3414 3414 3414 3414 3413 3413 3413 3412 3412 3411 3410 3410 3409 3408 3407 3406 3405 3404 3403 3402 3401 3399 3398 3397 3395 3394 3392 3391 3389 3387 3386 3384 3382 3380 3379 3377 3375 3373 3371 3370 3368 3366 3365 3363 -9 
-9 3325 3325 3325 3324 3324 3324 3324 3325 3325 3325 3325 3326 3326 3327 3327 3328 3328 3329 3330 3333 3334 3335 3335 3336 3338 3339 3340 3341 3343 3345 3346 3348 3350 3352 3354 3356 3358 3359 3361 3363 3364 3366 3367 3369 3370 3371 3372 3373 3375 3376 3376 3377 3378 3379 3379 3380 3380 3381 3381 3381 3381 3381 3381 3381 3381 3381 3381 3381 3381 3381 3381 3382 3382 3382 3382 3382 3382 3381 3381 3381 3381 3381 3380 3380 3380 3379 3379 3379 3379 3378 3378 3378 3378 3378 3377 3377 3377 3377 3377 3378 3378 3378 3378 3378 3378 3379 3379 3379 3379 3380 3380 3380 3380 3380 3380 3380 3380 3380 3380 3380 3380 3380 3380 3379 3379 3379 3379 3379 3378 3379 3379 3378 3378 3378 3378 3377 3377 3377 3377 3377 3376 3376 3376 3375 3375 3375 3375 3374 3374 3374 3374 3375 3375 3374 3374 3374 3374 3373 3373 3373 3373 3373 3373 3373 3373 3373 3373 3373 3373 3373 3373 3374 3374 3374 3374 3375 3375 3375 3376 3376 3377 3377 3378 3378 3379 3379 3380 3380 3381 3382 3382 3383 3384 3384 3385 3386 3387 3387 3388 3389 3389 3390 3391 3391 3392 3393 3393 3394 3394 3395 3396 3396 3397 3398 3398 3399 3400 3400 3401 3401 3402 3403 3403 3404 3405 3405 3406 3406 3407 3407 3408 3408 3409 3409 3410 3410 3411 3411 3411 3412 3412 3413 3413 3413 3414 3414 3414 3414 3415 3415 3415 3415 3415 3415 3415 3415 3415 3415 3415 3414 3414 3414 3413 3413 3412 3411 3411 3410 3409 3408 3407 3406 3405 3404 3403 3402 3400 3399 3397 3396 3394 3393 3391 3390 3388 3386 3385 3383 3381 3379 3377 3376 3374 3372 3370 3369 3367 3365 3364 -9 
-9 3328 3328 3328 3328 3328 3328 3328 3328 3329 3329 3329 3330 3330 3331 3331 3332 3333 3334 3334 3337 3338 3339 3340 3341 3342 3343 3344 3346 3347 3349 3350 3352 3354 3356 3358 3360 3361 3363 3365 3366 3368 3369 3371 3372 3373 3374 3375 3376 3377 3378 3379 3380 3381 3381 3382 3382 3383 3383 3383 3383 3384 3384 3384 3384 3384 3383 3383 3383 3383 3383 3384 3384 3384 3384 3384 3384 3384 3383 3383 3383 3383 3383 3382 3382 3382 3381 3381 3381 3380 3380 3380 3380 3380 3380 3380 3379 3380 3380 3380 3380 3380 3380 3380 3380 3381 3381 3381 3381 3382 3382 3382 3382 3382 3383 3383 3383 3383 3383 3383 3383 3383 3383 3382 3382 3382 3382 3382 3382 3382 3381 3381 3381 3381 3381 3380 3380 3380 3380 3380 3379 3379 3379 3379 3378 3378 3378 3378 3377 3377 3377 3378 3378 3377 3377 3377 3377 3376 3376 3376 3376 3376 3375 3375 3375 3375 3375 3375 3375 3375 3376 3376 3376 3376 3376 3376 3377 3377 3377 3378 3378 3379 3379 3379 3380 3380 3381 3382 3382 3383 3384 3384 3385 3386 3386 3387 3388 3388 3389 3390 3390 3391 3392 3392 3393 3394 3394 3395 3396 3396 3397 3398 3398 3399 3400 3400 3401 3402 3402 3403 3403 3404 3405 3405 3406 3407 3407 3408 3408 3409 3409 3410 3410 3411 3411 3412 3412 3413 3413 3413 3414 3414 3414 3415 3415 3415 3415 3416 3416 3416 3416 3416 3417 3417 3417 3417 3416 3416 3416 3416 3416 3415 3415 3414 3414 3413 3412 3412 3411 3410 3409 3408 3407 3406 3405 3403 3402 3401 3399 3398 3397 3395 3393 3392 3390 3389 3387 3385 3383 3381 3380 3378 3376 3374 3372 3371 3369 3367 3366 3364 -9 
-9 3332 3332 3332 3332 3332 3332 3332 3333 3333 3333 3333 3334 3334 3335 3336 3336 3337 3338 3339 3340 3342 3343 3344 3345 3346 3347 3349 3350 3351 3353 3355 3356 3358 3360 3361 3364 3365 3367 3368 3370 3371 3373 3374 3375 3376 3377 3378 3379 3380 3381 3382 3383 3383 3384 3385 3385 3385 3386 3386 3386 3386 3386 3386 3386 3386 3386 3386 3386 3385 3385 3386 3386 3386 3386 3386 3385 3385 3385 3385 3385 3385 3384 3384 3384 3384 3383 3383 3383 3382 3382 3382 3382 3382 3382 3382 3382 3382 3382 3382 3382 3382 3382 3382 3383 3383 3383 3383 3384 3384 3384 3384 3385 3385 3385 3385 3385 3385 3385 3385 3385 3385 3385 3385 3385 3385 3385 3385 3384 3384 3384 3384 3384 3384 3384 3383 3383 3383 3383 3382 3382 3382 3382 3381 3381 3381 3381 3380 3380 3380 3380 3381 3380 3380 3380 3380 3379 3379 3379 3379 3378 3378 3378 3378 3378 3378 3378 3378 3378 3378 3378 3378 3378 3378 3378 3379 3379 3379 3379 3380 3380 3380 3381 3381 3382 3382 3383 3383 3384 3385 3385 3386 3387 3387 3388 3389 3389 3390 3391 3392 3392 3393 3394 3394 3395 3396 3396 3397 3398 3398 3399 3400 3400 3401 3402 3402 3403 3403 3404 3405 3405 3406 3407 3407 3408 3408 3409 3410 3410 3411 3411 3412 3412 3413 3413 3414 3414 3414 3415 3415 3415 3416 3416 3416 3416 3417 3417 3417 3417 3418 3418 3418 3418 3418 3418 3418 3418 3417 3417 3417 3416 3416 3416 3415 3414 3414 3413 3412 3411 3411 3410 3409 3408 3406 3405 3404 3403 3401 3400 3399 3397 3395 3394 3392 3391 3389 3387 3385 3384 3382 3380 3378 3376 3375 3373 3371 3369 3368 3366 3365 -9 
-9 3336 3336 3336 3336 3336 3336 3336 3337 3337 3337 3338 3338 3339 3340 3340 3341 3342 3343 3343 3344 3347 3348 3349 3350 3351 3352 3353 3354 3356 3357 3359 3361 3362 3364 3365 3368 3369 3371 3372 3373 3375 3376 3377 3378 3380 3381 3382 3382 3383 3384 3385 3386 3386 3387 3387 3387 3388 3388 3388 3388 3388 3388 3388 3388 3388 3388 3388 3388 3387 3387 3387 3387 3387 3387 3387 3387 3387 3387 3387 3387 3386 3386 3386 3386 3385 3385 3385 3384 3384 3384 3384 3384 3384 3383 3383 3383 3384 3384 3384 3384 3384 3384 3384 3385 3385 3385 3386 3386 3386 3386 3387 3387 3387 3387 3387 3387 3388 3388 3388 3388 3388 3388 3388 3388 3388 3387 3387 3387 3387 3387 3387 3387 3387 3386 3386 3386 3386 3386 3385 3385 3385 3385 3385 3384 3384 3384 3383 3383 3383 3384 3384 3383 3383 3383 3382 3382 3382 3382 3381 3381 3381 3381 3381 3380 3380 3380 3380 3380 3380 3380 3380 3380 3380 3381 3381 3381 3381 3381 3382 3382 3382 3383 3383 3384 3384 3385 3385 3386 3386 3387 3388 3388 3389 3390 3391 3391 3392 3393 3393 3394 3395 3395 3396 3397 3397 3398 3399 3399 3400 3401 3401 3402 3403 3403 3404 3405 3405 3406 3407 3407 3408 3408 3409 3410 3410 3411 3411 3412 3412 3413 3413 3414 3414 3415 3415 3416 3416 3416 3417 3417 3417 3417 3418 3418 3418 3418 3418 3419 3419 3419 3419 3419 3419 3419 3419 3419 3418 3418 3418 3417 3417 3416 3416 3415 3414 3414 3413 3412 3411 3410 3409 3408 3407 3406 3404 3403 3402 3400 3399 3397 3396 3394 3393 3391 3389 3388 3386 3384 3382 3380 3379 3377 3375 3373 3371 3370 3368 3367 3365 -9 
-9 3340 3340 3340 3340 3340 3341 3341 3341 3341 3342 3342 3343 3344 3344 3345 3346 3347 3347 3348 3349 3352 3353 3354 3354 3356 3357 3358 3359 3360 3362 3363 3365 3366 3368 3370 3372 3373 3375 3376 3377 3378 3380 3381 3382 3383 3384 3385 3386 3386 3387 3388 3388 3389 3389 3390 3390 3390 3390 3390 3390 3390 3390 3390 3390 3390 3390 3390 3390 3389 3389 3389 3389 3389 3389 3389 3389 3389 3389 3389 3388 3388 3388 3388 3387 3387 3387 3386 3386 3386 3386 3386 3385 3385 3385 3385 3385 3385 3386 3386 3386 3386 3386 3387 3387 3387 3387 3388 3388 3388 3388 3389 3389 3389 3389 3390 3390 3390 3390 3390 3390 3390 3390 3390 3390 3390 3390 3390 3390 3390 3390 3390 3390 3390 3389 3389 3389 3389 3389 3389 3388 3388 3388 3388 3387 3387 3387 3387 3386 3386 3387 3387 3386 3386 3386 3386 3385 3385 3385 3384 3384 3384 3384 3383 3383 3383 3383 3383 3383 3383 3383 3383 3383 3383 3383 3383 3383 3383 3383 3384 3384 3384 3385 3385 3385 3386 3386 3387 3388 3388 3389 3389 3390 3391 3392 3392 3393 3394 3394 3395 3396 3396 3397 3398 3398 3399 3400 3400 3401 3402 3402 3403 3404 3404 3405 3406 3406 3407 3408 3408 3409 3410 3410 3411 3411 3412 3413 3413 3414 3414 3415 3415 3415 3416 3416 3417 3417 3417 3418 3418 3418 3418 3419 3419 3419 3419 3419 3420 3420 3420 3420 3420 3420 3420 3420 3420 3419 3419 3419 3418 3418 3417 3417 3416 3416 3415 3414 3413 3412 3411 3410 3409 3408 3407 3406 3405 3403 3402 3401 3399 3398 3396 3395 3393 3391 3390 3388 3386 3384 3382 3381 3379 3377 3375 3373 3372 3370 3368 3367 3365 -9 
-9 3344 3345 3345 3345 3345 3345 3345 3346 3346 3347 3347 3348 3348 3349 3350 3351 3351 3352 3353 3354 3355 3358 3358 3359 3360 3361 3363 3364 3365 3367 3368 3369 3371 3372 3374 3375 3377 3378 3380 3381 3382 3383 3384 3385 3386 3387 3388 3389 3389 3390 3391 3391 3392 3392 3392 3393 3393 3393 3393 3393 3393 3393 3392 3392 3392 3392 3392 3392 3391 3391 3391 3391 3391 3391 3391 3391 3391 3390 3390 3390 3390 3390 3389 3389 3389 3388 3388 3388 3388 3387 3387 3387 3387 3387 3387 3387 3387 3387 3388 3388 3388 3388 3389 3389 3389 3389 3390 3390 3390 3391 3391 3391 3391 3392 3392 3392 3392 3392 3393 3393 3393 3393 3393 3393 3393 3393 3393 3393 3393 3393 3393 3393 3393 3393 3393 3392 3392 3392 3392 3392 3392 3391 3391 3391 3391 3390 3390 3390 3391 3390 3390 3390 3389 3389 3389 3388 3388 3388 3387 3387 3387 3387 3386 3386 3386 3386 3385 3385 3385 3385 3385 3385 3385 3385 3385 3385 3385 3385 3386 3386 3386 3386 3387 3387 3388 3388 3389 3389 3390 3390 3391 3392 3392 3393 3394 3394 3395 3396 3396 3397 3398 3398 3399 3400 3400 3401 3402 3403 3403 3404 3405 3405 3406 3407 3407 3408 3408 3409 3410 3410 3411 3412 3412 3413 3413 3414 3415 3415 3416 3416 3416 3417 3417 3418 3418 3418 3419 3419 3419 3419 3420 3420 3420 3420 3420 3420 3420 3421 3421 3421 3421 3421 3421 3420 3420 3420 3420 3419 3419 3418 3418 3417 3417 3416 3415 3414 3414 3413 3412 3411 3410 3409 3407 3406 3405 3404 3402 3401 3399 3398 3396 3395 3393 3391 3390 3388 3386 3385 3383 3381 3379 3377 3375 3374 3372 3370 3369 3367 3366 -9 
-9 3349 3349 3349 3349 3349 3350 3350 3350 3351 3351 3352 3353 3353 3354 3355 3356 3357 3357 3358 3359 3360 3363 3363 3364 3365 3366 3368 3369 3370 3371 3373 3374 3376 3377 3378 3380 3381 3383 3384 3385 3386 3387 3388 3389 3390 3390 3391 3392 3392 3393 3394 3394 3394 3395 3395 3395 3395 3395 3395 3395 3395 3395 3395 3394 3394 3394 3394 3394 3393 3393 3393 3393 3393 3393 3393 3392 3392 3392 3392 3392 3391 3391 3391 3390 3390 3390 3390 3389 3389 3389 3389 3389 3389 3389 3389 3389 3389 3389 3389 3390 3390 3390 3390 3391 3391 3391 3392 3392 3392 3393 3393 3393 3394 3394 3394 3395 3395 3395 3395 3395 3395 3396 3396 3396 3396 3396 3396 3396 3396 3396 3396 3396 3396 3396 3396 3396 3396 3395 3395 3395 3395 3395 3394 3394 3394 3394 3393 3393 3394 3394 3393 3393 3393 3392 3392 3392 3391 3391 3391 3390 3390 3390 3389 3389 3389 3388 3388 3388 3388 3388 3387 3387 3387 3387 3387 3387 3387 3387 3388 3388 3388 3388 3389 3389 3389 3390 3390 3391 3392 3392 3393 3393 3394 3395 3395 3396 3397 3397 3398 3399 3399 3400 3401 3401 3402 3403 3403 3404 3405 3405 3406 3407 3407 3408 3409 3409 3410 3411 3411 3412 3412 3413 3414 3414 3415 3415 3416 3416 3417 3417 3418 3418 3419 3419 3419 3420 3420 3420 3420 3420 3421 3421 3421 3421 3421 3421 3421 3421 3421 3421 3421 3421 3421 3421 3421 3420 3420 3420 3419 3419 3418 3418 3417 3416 3416 3415 3414 3413 3412 3411 3410 3409 3408 3406 3405 3404 3402 3401 3399 3398 3396 3395 3393 3392 3390 3388 3386 3385 3383 3381 3379 3377 3376 3374 3372 3371 3369 3367 3366 -9 
-9 3354 3354 3354 3354 3354 3355 3355 3355 3356 3356 3357 3358 3358 3359 3360 3361 3362 3363 3364 3365 3366 3367 3369 3370 3371 3372 3373 3374 3375 3376 3378 3379 3380 3382 3383 3384 3385 3387 3388 3389 3390 3391 3392 3392 3393 3394 3395 3395 3396 3396 3397 3397 3397 3398 3398 3398 3398 3398 3398 3398 3397 3397 3397 3397 3396 3396 3396 3396 3395 3395 3395 3395 3395 3394 3394 3394 3394 3394 3393 3393 3393 3393 3392 3392 3392 3391 3391 3391 3391 3391 3391 3391 3391 3391 3391 3391 3391 3391 3391 3391 3392 3392 3392 3393 3393 3393 3394 3394 3394 3395 3395 3396 3396 3396 3397 3397 3397 3397 3398 3398 3398 3398 3398 3399 3399 3399 3399 3399 3399 3399 3399 3399 3399 3399 3399 3399 3399 3399 3399 3399 3398 3398 3398 3398 3398 3397 3397 3398 3397 3397 3397 3396 3396 3396 3395 3395 3395 3394 3394 3393 3393 3393 3392 3392 3392 3391 3391 3391 3390 3390 3390 3390 3390 3390 3390 3389 3389 3390 3390 3390 3390 3390 3390 3391 3391 3392 3392 3393 3393 3394 3394 3395 3396 3396 3397 3397 3398 3399 3399 3400 3401 3401 3402 3403 3403 3404 3405 3405 3406 3407 3407 3408 3409 3409 3410 3410 3411 3412 3412 3413 3414 3414 3415 3416 3416 3417 3417 3418 3418 3419 3419 3419 3420 3420 3420 3421 3421 3421 3421 3421 3421 3422 3422 3422 3422 3422 3422 3422 3422 3422 3422 3422 3422 3421 3421 3421 3420 3420 3420 3419 3418 3418 3417 3416 3416 3415 3414 3413 3412 3411 3410 3409 3408 3406 3405 3404 3402 3401 3400 3398 3396 3395 3393 3392 3390 3388 3386 3385 3383 3381 3379 3378 3376 3374 3372 3371 3369 3368 3366 -9 
-9 3358 3359 3359 3357 3358 3358 3358 3359 3359 3362 3362 3363 3364 3365 3365 3366 3367 3368 3369 3370 3371 3372 3374 3375 3376 3377 3378 3379 3380 3381 3383 3384 3385 3387 3388 3389 3390 3391 3392 3393 3394 3395 3395 3396 3397 3397 3398 3398 3399 3399 3400 3400 3400 3400 3401 3401 3401 3400 3400 3400 3400 3400 3399 3399 3398 3398 3398 3398 3397 3397 3397 3397 3396 3396 3396 3396 3395 3395 3395 3395 3394 3394 3394 3393 3393 3393 3393 3393 3392 3392 3392 3392 3392 3392 3392 3392 3393 3393 3393 3393 3394 3394 3394 3395 3395 3395 3396 3396 3397 3397 3397 3398 3398 3399 3399 3399 3400 3400 3400 3400 3401 3401 3401 3401 3402 3402 3402 3402 3402 3402 3402 3403 3403 3403 3403 3403 3403 3402 3402 3402 3402 3402 3402 3401 3401 3401 3401 3401 3401 3401 3400 3400 3400 3399 3399 3398 3398 3397 3397 3397 3396 3396 3395 3395 3395 3394 3394 3393 3393 3393 3393 3392 3392 3392 3392 3392 3392 3392 3392 3392 3392 3392 3392 3393 3393 3393 3394 3394 3395 3395 3396 3396 3397 3398 3398 3399 3399 3400 3401 3401 3402 3403 3403 3404 3404 3405 3406 3406 3407 3408 3408 3409 3410 3410 3411 3412 3412 3413 3414 3414 3415 3415 3416 3417 3417 3418 3418 3419 3419 3420 3420 3420 3421 3421 3421 3421 3422 3422 3422 3422 3422 3422 3422 3422 3422 3422 3422 3422 3422 3422 3422 3422 3422 3422 3421 3421 3421 3420 3420 3419 3419 3418 3417 3416 3416 3415 3414 3413 3412 3411 3410 3409 3407 3406 3405 3404 3402 3401 3399 3398 3396 3395 3393 3392 3390 3388 3386 3385 3383 3381 3379 3378 3376 3374 3373 3371 3369 3368 3367 -9 
-9 3363 3362 3362 3363 3363 3363 3364 3364 3365 3366 3366 3369 3369 3370 3371 3372 3373 3374 3375 3376 3377 3378 3380 3380 3381 3382 3383 3384 3386 3387 3388 3389 3390 3391 3393 3394 3395 3396 3397 3397 3398 3399 3399 3400 3401 3401 3402 3402 3402 3403 3403 3403 3403 3403 3403 3403 3403 3403 3403 3403 3402 3402 3402 3401 3401 3400 3400 3400 3399 3399 3399 3398 3398 3398 3398 3397 3397 3397 3396 3396 3396 3395 3395 3395 3395 3394 3394 3394 3394 3394 3394 3394 3394 3394 3394 3394 3394 3394 3395 3395 3395 3396 3396 3396 3397 3397 3398 3398 3399 3399 3399 3400 3400 3401 3401 3402 3402 3402 3403 3403 3403 3404 3404 3404 3405 3405 3405 3405 3405 3406 3406 3406 3406 3406 3406 3406 3406 3406 3406 3406 3406 3406 3405 3405 3405 3405 3405 3405 3405 3404 3404 3403 3403 3403 3402 3402 3401 3401 3400 3400 3399 3399 3398 3398 3398 3397 3397 3396 3396 3396 3395 3395 3395 3394 3394 3394 3394 3394 3394 3394 3394 3394 3394 3394 3395 3395 3395 3396 3396 3397 3397 3398 3398 3399 3399 3400 3401 3401 3402 3402 3403 3404 3404 3405 3406 3406 3407 3407 3408 3409 3409 3410 3411 3411 3412 3413 3413 3414 3415 3415 3416 3416 3417 3418 3418 3419 3419 3420 3420 3420 3421 3421 3421 3422 3422 3422 3422 3422 3423 3423 3423 3423 3423 3423 3423 3423 3423 3423 3423 3423 3422 3422 3422 3422 3421 3421 3421 3420 3420 3419 3418 3418 3417 3416 3416 3415 3414 3413 3412 3411 3410 3408 3407 3406 3405 3403 3402 3401 3399 3398 3396 3395 3393 3391 3390 3388 3386 3385 3383 3381 3379 3378 3376 3374 3373 3371 3370 3368 3367 -9 
-9 3367 3368 3368 3368 3369 3369 3369 3370 3371 3371 3372 3373 3374 3376 3377 3378 3379 3380 3381 3382 3383 3384 3385 3386 3387 3388 3389 3390 3391 3392 3393 3394 3396 3397 3398 3399 3399 3400 3401 3402 3402 3403 3404 3404 3404 3405 3405 3406 3406 3406 3406 3406 3406 3406 3406 3406 3406 3406 3405 3405 3405 3404 3404 3403 3403 3402 3402 3402 3401 3401 3401 3400 3400 3400 3399 3399 3399 3398 3398 3398 3397 3397 3397 3396 3396 3396 3396 3395 3395 3395 3395 3395 3395 3395 3395 3396 3396 3396 3396 3397 3397 3397 3398 3398 3399 3399 3400 3400 3401 3401 3402 3402 3403 3403 3403 3404 3404 3405 3405 3406 3406 3406 3407 3407 3408 3408 3408 3408 3409 3409 3409 3409 3410 3410 3410 3410 3410 3410 3410 3410 3410 3409 3409 3409 3409 3409 3409 3409 3408 3408 3408 3407 3407 3406 3406 3405 3405 3404 3404 3403 3403 3402 3402 3401 3401 3400 3400 3399 3399 3398 3398 3397 3397 3397 3396 3396 3396 3396 3396 3396 3396 3396 3396 3396 3396 3397 3397 3397 3398 3398 3399 3399 3400 3400 3401 3401 3402 3402 3403 3404 3404 3405 3405 3406 3406 3407 3408 3408 3409 3410 3410 3411 3412 3412 3413 3413 3414 3415 3415 3416 3417 3417 3418 3418 3419 3419 3420 3420 3421 3421 3421 3422 3422 3422 3422 3423 3423 3423 3423 3423 3423 3423 3423 3423 3423 3423 3423 3423 3423 3423 3422 3422 3422 3422 3421 3421 3421 3420 3419 3419 3418 3418 3417 3416 3415 3414 3413 3413 3412 3410 3409 3408 3407 3406 3404 3403 3402 3400 3399 3398 3396 3394 3393 3391 3390 3388 3386 3385 3383 3381 3379 3378 3376 3374 3373 3371 3370 3368 3367 -9 
-9 3373 3373 3374 3374 3374 3375 3375 3376 3377 3377 3378 3379 3380 3381 3383 3384 3385 3386 3387 3388 3389 3389 3391 3392 3393 3394 3395 3396 3397 3398 3399 3400 3401 3402 3403 3404 3404 3405 3406 3406 3407 3407 3408 3408 3408 3409 3409 3409 3409 3410 3410 3410 3410 3410 3409 3409 3409 3409 3408 3408 3407 3407 3406 3406 3405 3405 3404 3404 3403 3403 3402 3402 3402 3401 3401 3401 3400 3400 3399 3399 3399 3398 3398 3398 3397 3397 3397 3397 3397 3397 3397 3397 3397 3397 3397 3397 3397 3398 3398 3398 3399 3399 3400 3400 3401 3401 3402 3402 3403 3403 3404 3404 3405 3405 3406 3406 3407 3407 3408 3408 3409 3409 3410 3410 3411 3411 3411 3412 3412 3412 3413 3413 3413 3413 3413 3413 3414 3414 3414 3413 3413 3413 3413 3414 3413 3413 3413 3412 3412 3412 3411 3411 3410 3410 3409 3409 3408 3408 3407 3407 3406 3405 3405 3404 3404 3403 3403 3402 3401 3401 3400 3400 3399 3399 3399 3398 3398 3398 3398 3398 3397 3397 3398 3398 3398 3398 3398 3399 3399 3399 3400 3400 3401 3401 3402 3402 3403 3403 3404 3405 3405 3406 3406 3407 3407 3408 3409 3409 3410 3410 3411 3412 3412 3413 3414 3414 3415 3415 3416 3417 3417 3418 3418 3419 3420 3420 3420 3421 3421 3422 3422 3422 3423 3423 3423 3423 3423 3423 3423 3423 3423 3423 3423 3423 3423 3423 3423 3423 3423 3423 3422 3422 3422 3422 3421 3421 3420 3420 3419 3419 3418 3417 3417 3416 3415 3414 3413 3412 3411 3410 3409 3408 3407 3405 3404 3403 3401 3400 3399 3397 3396 3394 3393 3391 3389 3388 3386 3384 3383 3381 3379 3378 3376 3374 3373 3371 3370 3368 3367 -9 
-9 3379 3379 3379 3380 3380 3381 3381 3382 3383 3383 3384 3385 3386 3387 3389 3390 3391 3392 3393 3394 3395 3396 3397 3398 3399 3400 3400 3401 3402 3403 3404 3405 3406 3407 3408 3409 3409 3410 3410 3411 3411 3412 3412 3412 3413 3413 3413 3413 3413 3413 3413 3413 3413 3413 3412 3412 3412 3411 3411 3410 3410 3409 3409 3408 3407 3407 3406 3406 3405 3405 3404 3404 3403 3403 3403 3402 3402 3401 3401 3400 3400 3400 3399 3399 3399 3399 3398 3398 3398 3398 3398 3398 3398 3398 3399 3399 3399 3399 3400 3400 3400 3401 3401 3402 3402 3403 3403 3404 3405 3405 3406 3406 3407 3408 3408 3409 3409 3410 3410 3411 3412 3412 3413 3413 3414 3414 3415 3415 3415 3416 3416 3416 3417 3417 3417 3417 3417 3417 3417 3417 3417 3417 3417 3417 3417 3417 3416 3416 3416 3415 3415 3414 3414 3413 3413 3412 3412 3411 3411 3410 3409 3409 3408 3407 3407 3406 3406 3405 3404 3404 3403 3402 3402 3401 3401 3401 3400 3400 3400 3399 3399 3399 3399 3399 3399 3400 3400 3400 3400 3401 3401 3402 3402 3402 3403 3403 3404 3404 3405 3405 3406 3406 3407 3408 3408 3409 3409 3410 3410 3411 3412 3412 3413 3413 3414 3415 3415 3416 3417 3417 3418 3418 3419 3419 3420 3420 3421 3421 3422 3422 3422 3423 3423 3423 3423 3423 3423 3423 3423 3423 3423 3423 3423 3423 3423 3423 3423 3423 3423 3422 3422 3422 3422 3421 3421 3420 3420 3419 3419 3418 3417 3417 3416 3415 3414 3414 3413 3412 3411 3410 3408 3407 3406 3405 3404 3402 3401 3400 3398 3397 3395 3394 3392 3391 3389 3388 3386 3384 3383 3381 3379 3378 3376 3374 3373 3371 3370 3369 3367 -9 
-9 3385 3385 3386 3386 3387 3387 3388 3388 3389 3390 3391 3391 3392 3393 3394 3396 3397 3398 3399 3400 3401 3402 3403 3404 3405 3406 3406 3407 3408 3409 3410 3411 3412 3413 3413 3414 3414 3415 3415 3416 3416 3416 3416 3417 3417 3417 3417 3417 3417 3417 3417 3416 3416 3416 3416 3415 3415 3414 3414 3413 3412 3412 3411 3410 3410 3409 3408 3408 3407 3407 3406 3406 3405 3405 3404 3404 3403 3403 3402 3402 3402 3401 3401 3401 3400 3400 3400 3400 3400 3400 3400 3400 3400 3400 3400 3400 3401 3401 3401 3402 3402 3403 3403 3404 3404 3405 3405 3406 3407 3407 3408 3409 3409 3410 3411 3411 3412 3412 3413 3414 3414 3415 3416 3416 3417 3417 3418 3418 3419 3419 3420 3420 3420 3421 3421 3421 3421 3421 3421 3421 3421 3421 3421 3421 3421 3421 3420 3420 3419 3419 3419 3418 3418 3417 3417 3416 3415 3415 3414 3413 3413 3412 3411 3411 3410 3409 3408 3408 3407 3406 3406 3405 3404 3404 3403 3403 3402 3402 3401 3401 3401 3401 3401 3401 3401 3401 3401 3401 3402 3402 3402 3403 3403 3403 3404 3404 3405 3405 3406 3406 3407 3407 3408 3408 3409 3409 3410 3410 3411 3412 3412 3413 3413 3414 3415 3415 3416 3416 3417 3418 3418 3419 3419 3420 3420 3421 3421 3422 3422 3422 3423 3423 3423 3423 3423 3423 3423 3423 3423 3423 3423 3423 3423 3423 3423 3423 3423 3422 3422 3422 3422 3421 3421 3421 3420 3420 3419 3419 3418 3418 3417 3416 3415 3415 3414 3413 3412 3411 3410 3409 3408 3407 3405 3404 3403 3402 3400 3399 3398 3396 3395 3393 3392 3390 3389 3387 3386 3384 3382 3381 3379 3378 3376 3374 3373 3372 3370 3369 3368 -9 
-9 3390 3391 3391 3392 3392 3393 3393 3394 3396 3396 3397 3398 3399 3400 3401 3402 3404 3405 3405 3406 3407 3408 3409 3410 3411 3412 3412 3413 3414 3415 3416 3417 3417 3418 3419 3419 3419 3420 3420 3420 3421 3421 3421 3421 3421 3421 3421 3421 3421 3420 3420 3420 3420 3419 3419 3418 3418 3417 3417 3416 3415 3414 3414 3413 3412 3411 3411 3410 3409 3409 3408 3408 3407 3406 3406 3405 3405 3404 3404 3403 3403 3403 3402 3402 3402 3401 3401 3401 3401 3401 3401 3401 3401 3401 3402 3402 3402 3403 3403 3403 3404 3404 3405 3406 3406 3407 3407 3408 3409 3409 3410 3411 3411 3412 3413 3414 3414 3415 3416 3416 3417 3418 3419 3419 3420 3420 3421 3422 3422 3423 3423 3423 3424 3424 3424 3425 3425 3425 3425 3425 3425 3425 3425 3425 3425 3424 3424 3424 3423 3423 3422 3422 3421 3421 3420 3419 3419 3418 3417 3417 3416 3415 3415 3414 3413 3412 3411 3411 3410 3409 3408 3407 3407 3406 3405 3405 3404 3404 3403 3403 3403 3403 3402 3402 3402 3402 3402 3403 3403 3403 3403 3404 3404 3404 3405 3405 3406 3406 3406 3407 3407 3408 3408 3409 3409 3410 3410 3411 3411 3412 3413 3413 3414 3414 3415 3416 3416 3417 3417 3418 3418 3419 3420 3420 3421 3421 3421 3422 3422 3422 3423 3423 3423 3423 3423 3423 3423 3423 3423 3423 3423 3423 3423 3423 3423 3422 3422 3422 3422 3421 3421 3421 3420 3420 3420 3419 3419 3418 3417 3417 3416 3415 3415 3414 3413 3412 3411 3410 3409 3408 3407 3406 3405 3404 3402 3401 3400 3398 3397 3396 3394 3393 3391 3390 3388 3387 3385 3384 3382 3381 3379 3377 3376 3374 3373 3372 3370 3369 3368 -9 
-9 3396 3397 3398 3398 3399 3399 3400 3401 3402 3402 3403 3405 3406 3407 3407 3408 3409 3411 3412 3413 3414 3414 3415 3416 3417 3418 3419 3419 3420 3421 3422 3422 3423 3423 3424 3424 3425 3425 3425 3425 3425 3425 3425 3425 3425 3425 3425 3425 3424 3424 3424 3423 3423 3423 3422 3421 3421 3420 3419 3419 3418 3417 3416 3415 3414 3414 3413 3412 3411 3411 3410 3409 3409 3408 3408 3407 3406 3406 3405 3405 3405 3404 3404 3403 3403 3403 3403 3403 3402 3402 3402 3403 3403 3403 3403 3403 3404 3404 3405 3405 3406 3406 3407 3407 3408 3408 3409 3410 3410 3411 3412 3413 3414 3414 3415 3416 3417 3418 3418 3419 3420 3421 3421 3422 3423 3424 3424 3425 3425 3426 3427 3427 3427 3428 3428 3428 3429 3429 3429 3429 3429 3429 3429 3428 3428 3428 3428 3427 3427 3426 3426 3425 3425 3424 3424 3423 3422 3422 3421 3420 3419 3418 3418 3417 3416 3415 3414 3413 3412 3412 3411 3410 3409 3408 3408 3407 3406 3406 3405 3405 3404 3404 3404 3404 3404 3404 3404 3404 3404 3404 3404 3405 3405 3405 3406 3406 3406 3407 3407 3407 3408 3408 3409 3409 3410 3410 3411 3411 3412 3412 3413 3413 3414 3415 3415 3416 3416 3417 3417 3418 3419 3419 3420 3420 3421 3421 3421 3422 3422 3422 3423 3423 3423 3423 3423 3423 3423 3423 3423 3423 3423 3423 3422 3422 3422 3422 3422 3421 3421 3421 3420 3420 3420 3419 3419 3418 3418 3417 3417 3416 3415 3414 3414 3413 3412 3411 3410 3409 3408 3407 3406 3405 3404 3403 3402 3400 3399 3398 3396 3395 3394 3392 3391 3389 3388 3386 3385 3383 3382 3380 3379 3377 3376 3374 3373 3372 3370 3369 3368 -9 
-9 3402 3403 3404 3405 3406 3406 3407 3408 3408 3409 3410 3411 3412 3413 3414 3415 3416 3417 3418 3419 3420 3421 3422 3423 3423 3424 3425 3425 3426 3427 3427 3428 3429 3429 3429 3430 3430 3430 3430 3430 3430 3430 3430 3430 3429 3429 3429 3429 3428 3428 3427 3427 3427 3426 3425 3425 3424 3423 3422 3421 3421 3420 3419 3418 3417 3416 3415 3414 3413 3413 3412 3411 3411 3410 3409 3409 3408 3408 3407 3407 3406 3406 3405 3405 3405 3404 3404 3404 3404 3404 3404 3404 3404 3404 3405 3405 3405 3406 3406 3407 3407 3408 3408 3409 3410 3410 3411 3412 3412 3413 3414 3415 3416 3417 3418 3418 3419 3420 3421 3422 3423 3424 3424 3425 3426 3427 3427 3428 3429 3429 3430 3431 3431 3431 3432 3432 3432 3433 3433 3433 3433 3432 3432 3432 3432 3432 3431 3431 3431 3430 3430 3429 3428 3428 3427 3426 3426 3425 3424 3423 3423 3422 3421 3420 3419 3418 3417 3416 3415 3414 3413 3412 3411 3411 3410 3409 3408 3408 3407 3407 3406 3406 3405 3405 3405 3405 3405 3405 3405 3405 3405 3406 3406 3406 3406 3407 3407 3407 3408 3408 3408 3409 3409 3410 3410 3410 3411 3411 3412 3412 3413 3414 3414 3415 3415 3416 3416 3417 3418 3418 3419 3419 3420 3420 3421 3421 3421 3422 3422 3422 3422 3423 3423 3423 3423 3423 3423 3423 3423 3422 3422 3422 3422 3422 3421 3421 3421 3420 3420 3420 3419 3419 3419 3418 3418 3417 3417 3416 3415 3415 3414 3413 3413 3412 3411 3410 3409 3408 3407 3406 3405 3404 3403 3402 3401 3399 3398 3397 3396 3394 3393 3391 3390 3389 3387 3386 3384 3383 3381 3380 3378 3377 3376 3374 3373 3372 3370 3369 3368 -9 
-9 3409 3410 3411 3411 3412 3413 3413 3414 3415 3415 3416 3418 3419 3420 3420 3421 3423 3424 3425 3426 3427 3428 3428 3429 3430 3430 3431 3432 3432 3433 3433 3434 3434 3435 3435 3435 3435 3435 3435 3435 3435 3435 3434 3434 3434 3433 3433 3433 3432 3432 3431 3431 3430 3429 3429 3428 3427 3426 3425 3424 3423 3422 3421 3420 3419 3418 3417 3416 3416 3415 3414 3413 3412 3412 3411 3410 3410 3409 3409 3408 3408 3407 3407 3406 3406 3406 3405 3405 3405 3405 3405 3405 3406 3406 3406 3406 3407 3407 3408 3408 3409 3410 3410 3411 3412 3412 3413 3414 3414 3415 3416 3417 3418 3419 3420 3421 3422 3423 3424 3425 3425 3426 3427 3428 3429 3430 3431 3431 3432 3433 3433 3434 3435 3435 3435 3436 3436 3436 3436 3436 3436 3436 3436 3436 3436 3435 3435 3435 3434 3434 3433 3433 3432 3431 3431 3430 3429 3428 3427 3427 3426 3425 3424 3423 3422 3421 3420 3419 3418 3417 3416 3415 3414 3413 3412 3411 3410 3409 3409 3408 3408 3407 3407 3407 3406 3406 3406 3406 3406 3406 3406 3406 3407 3407 3407 3407 3408 3408 3408 3408 3409 3409 3409 3410 3410 3411 3411 3412 3412 3413 3413 3414 3414 3415 3415 3416 3416 3417 3417 3418 3419 3419 3420 3420 3420 3421 3421 3421 3422 3422 3422 3422 3422 3422 3422 3422 3422 3422 3422 3422 3422 3421 3421 3421 3420 3420 3420 3420 3419 3419 3418 3418 3418 3417 3417 3416 3416 3415 3414 3414 3413 3412 3411 3411 3410 3409 3408 3407 3406 3405 3404 3403 3402 3401 3400 3398 3397 3396 3395 3393 3392 3391 3389 3388 3387 3385 3384 3382 3381 3380 3378 3377 3375 3374 3373 3372 3371 3369 3368 -9 
-9 3416 3416 3417 3418 3419 3419 3420 3421 3422 3423 3423 3424 3425 3426 3427 3428 3429 3430 3431 3433 3433 3434 3435 3436 3436 3437 3438 3438 3439 3439 3440 3440 3441 3440 3440 3441 3441 3441 3441 3440 3440 3440 3440 3439 3438 3438 3437 3437 3436 3436 3435 3434 3434 3433 3432 3431 3430 3429 3428 3427 3426 3425 3424 3423 3422 3421 3420 3419 3418 3417 3416 3415 3414 3413 3413 3412 3411 3411 3410 3410 3409 3409 3408 3408 3407 3407 3407 3407 3407 3407 3407 3407 3407 3407 3408 3408 3408 3409 3409 3410 3411 3411 3412 3413 3413 3414 3415 3416 3416 3417 3418 3419 3420 3421 3422 3423 3424 3425 3426 3427 3428 3429 3430 3431 3432 3433 3434 3435 3435 3436 3437 3437 3438 3439 3439 3439 3440 3440 3440 3440 3440 3440 3440 3439 3439 3439 3439 3438 3438 3437 3437 3436 3435 3435 3434 3433 3432 3432 3431 3430 3429 3428 3427 3426 3425 3424 3423 3421 3420 3419 3418 3417 3416 3415 3414 3413 3412 3411 3411 3410 3409 3409 3408 3408 3408 3407 3407 3407 3407 3407 3407 3407 3407 3407 3408 3408 3408 3408 3409 3409 3409 3409 3410 3410 3410 3411 3411 3412 3412 3413 3413 3414 3414 3415 3415 3416 3416 3417 3417 3418 3418 3419 3419 3420 3420 3420 3421 3421 3421 3421 3422 3422 3422 3422 3422 3422 3422 3421 3421 3421 3421 3420 3420 3420 3419 3419 3419 3418 3418 3418 3417 3417 3416 3416 3415 3415 3414 3414 3413 3412 3412 3411 3410 3409 3408 3408 3407 3406 3405 3404 3403 3402 3401 3399 3398 3397 3396 3395 3394 3392 3391 3390 3388 3387 3386 3384 3383 3382 3380 3379 3378 3377 3375 3374 3373 3372 3371 3370 3369 -9 
-9 3422 3423 3424 3425 3426 3426 3427 3428 3428 3429 3430 3431 3432 3433 3434 3435 3436 3437 3438 3439 3440 3441 3442 3442 3443 3444 3444 3444 3445 3445 3446 3446 3446 3446 3447 3447 3446 3446 3446 3445 3445 3445 3444 3444 3443 3443 3442 3441 3440 3440 3439 3438 3437 3436 3436 3435 3434 3432 3431 3430 3429 3428 3426 3425 3424 3423 3422 3421 3420 3419 3418 3417 3416 3415 3414 3414 3413 3412 3412 3411 3411 3410 3410 3409 3409 3409 3408 3408 3408 3408 3408 3408 3408 3409 3409 3409 3410 3410 3411 3412 3412 3413 3414 3414 3415 3416 3417 3418 3418 3419 3421 3422 3423 3424 3425 3426 3427 3428 3429 3430 3431 3432 3433 3434 3435 3436 3437 3438 3439 3439 3440 3441 3441 3442 3442 3443 3443 3444 3444 3443 3443 3443 3443 3443 3443 3442 3442 3442 3441 3441 3440 3440 3439 3438 3437 3437 3436 3435 3434 3433 3432 3431 3430 3429 3428 3426 3425 3424 3423 3422 3421 3419 3418 3417 3416 3415 3414 3413 3412 3412 3411 3410 3410 3409 3409 3409 3408 3408 3408 3408 3408 3408 3408 3408 3408 3408 3409 3409 3409 3409 3409 3410 3410 3410 3411 3411 3411 3412 3412 3413 3413 3413 3414 3414 3415 3415 3416 3416 3417 3417 3418 3418 3419 3419 3420 3420 3420 3421 3421 3421 3421 3421 3421 3421 3421 3421 3421 3421 3420 3420 3420 3419 3419 3419 3418 3418 3418 3417 3417 3416 3416 3415 3415 3414 3414 3413 3413 3412 3411 3411 3410 3409 3409 3408 3407 3406 3405 3404 3403 3402 3401 3400 3399 3398 3397 3396 3395 3394 3392 3391 3390 3389 3388 3386 3385 3384 3382 3381 3380 3379 3377 3376 3375 3374 3373 3372 3371 3370 3369 -9 
-9 3429 3430 3431 3432 3432 3433 3434 3435 3435 3436 3437 3438 3438 3439 3440 3441 3443 3444 3444 3445 3447 3448 3448 3449 3450 3450 3451 3451 3452 3452 3452 3452 3452 3452 3452 3452 3452 3452 3451 3450 3450 3450 3449 3448 3448 3447 3447 3446 3445 3444 3444 3443 3442 3440 3439 3438 3437 3436 3434 3433 3432 3430 3429 3428 3426 3425 3424 3423 3422 3421 3420 3419 3418 3417 3416 3415 3415 3414 3413 3413 3412 3412 3411 3411 3410 3410 3410 3410 3409 3409 3410 3410 3410 3410 3410 3411 3411 3412 3412 3413 3414 3415 3415 3416 3417 3418 3419 3420 3421 3422 3423 3424 3425 3426 3427 3428 3429 3430 3431 3433 3434 3435 3436 3437 3438 3439 3440 3441 3442 3443 3443 3444 3445 3445 3446 3446 3447 3447 3447 3447 3447 3447 3447 3446 3446 3446 3446 3445 3445 3444 3444 3443 3442 3441 3441 3440 3439 3438 3437 3436 3435 3434 3433 3432 3430 3429 3428 3427 3425 3424 3423 3422 3420 3419 3418 3417 3416 3415 3414 3413 3412 3412 3411 3411 3410 3410 3409 3409 3409 3409 3409 3409 3409 3409 3409 3409 3409 3409 3409 3409 3410 3410 3410 3410 3411 3411 3411 3412 3412 3412 3413 3413 3414 3414 3415 3415 3416 3416 3417 3417 3418 3418 3418 3419 3419 3419 3420 3420 3420 3420 3420 3420 3420 3420 3420 3420 3420 3420 3419 3419 3419 3418 3418 3418 3417 3417 3416 3416 3415 3415 3414 3414 3413 3413 3412 3412 3411 3411 3410 3409 3409 3408 3407 3406 3405 3405 3404 3403 3402 3401 3400 3399 3398 3397 3396 3395 3393 3392 3391 3390 3389 3388 3386 3385 3384 3383 3382 3380 3379 3378 3377 3376 3375 3374 3373 3372 3371 3370 3369 -9 
-9 3436 3437 3437 3438 3439 3440 3441 3442 3443 3443 3444 3444 3445 3446 3447 3448 3449 3450 3451 3452 3453 3454 3455 3456 3456 3457 3457 3457 3458 3458 3458 3458 3458 3458 3458 3458 3457 3457 3457 3456 3456 3454 3454 3453 3452 3452 3451 3450 3449 3448 3447 3446 3445 3444 3443 3442 3440 3439 3437 3436 3435 3433 3432 3430 3429 3428 3426 3425 3424 3423 3422 3421 3420 3419 3418 3417 3416 3416 3415 3414 3414 3413 3413 3412 3412 3411 3411 3411 3411 3411 3411 3411 3411 3412 3412 3412 3413 3413 3414 3415 3415 3416 3417 3418 3419 3419 3420 3421 3423 3424 3425 3426 3427 3428 3429 3430 3432 3433 3434 3435 3436 3437 3439 3440 3441 3442 3443 3444 3445 3446 3447 3447 3448 3449 3449 3450 3450 3451 3451 3450 3450 3450 3450 3450 3450 3449 3449 3448 3448 3447 3447 3446 3446 3445 3444 3443 3442 3441 3440 3439 3438 3437 3436 3434 3433 3432 3431 3429 3428 3427 3425 3424 3423 3421 3420 3419 3418 3417 3416 3415 3414 3413 3412 3412 3411 3411 3410 3410 3410 3410 3410 3409 3409 3409 3409 3409 3409 3409 3409 3410 3410 3410 3410 3410 3411 3411 3411 3411 3412 3412 3413 3413 3413 3414 3414 3415 3415 3416 3416 3417 3417 3418 3418 3418 3419 3419 3419 3419 3419 3420 3420 3420 3420 3420 3419 3419 3419 3419 3418 3418 3418 3417 3417 3416 3416 3415 3415 3414 3414 3413 3413 3412 3412 3411 3411 3410 3409 3409 3408 3407 3407 3406 3405 3404 3404 3403 3402 3401 3400 3399 3398 3397 3396 3395 3394 3393 3392 3391 3390 3389 3388 3386 3385 3384 3383 3382 3381 3380 3379 3377 3376 3375 3374 3373 3372 3371 3371 3370 3369 -9 
-9 3443 3444 3445 3446 3447 3448 3448 3449 3450 3450 3451 3452 3452 3453 3454 3455 3456 3457 3458 3459 3460 3461 3462 3462 3463 3463 3464 3464 3464 3465 3465 3464 3464 3464 3464 3464 3463 3462 3462 3461 3461 3460 3459 3459 3457 3456 3455 3454 3453 3452 3451 3450 3449 3448 3447 3445 3444 3442 3441 3439 3437 3436 3434 3433 3431 3430 3428 3427 3426 3425 3424 3422 3421 3421 3420 3419 3418 3417 3416 3416 3415 3415 3414 3414 3413 3413 3413 3412 3412 3412 3412 3412 3413 3413 3413 3414 3414 3415 3416 3416 3417 3418 3419 3419 3420 3421 3422 3423 3425 3426 3427 3428 3429 3430 3432 3433 3434 3435 3436 3438 3439 3440 3441 3443 3444 3445 3446 3447 3448 3449 3450 3451 3451 3452 3453 3453 3454 3454 3454 3453 3453 3453 3453 3453 3453 3453 3452 3452 3451 3451 3450 3450 3449 3448 3447 3446 3445 3444 3443 3442 3441 3440 3438 3437 3436 3435 3433 3432 3430 3429 3427 3426 3425 3423 3422 3421 3419 3418 3417 3416 3415 3414 3414 3413 3412 3412 3411 3411 3411 3410 3410 3410 3410 3410 3410 3410 3410 3410 3410 3410 3410 3410 3410 3410 3411 3411 3411 3411 3412 3412 3412 3413 3413 3413 3414 3414 3415 3415 3416 3416 3417 3417 3417 3418 3418 3418 3418 3419 3419 3419 3419 3419 3419 3419 3418 3418 3418 3417 3417 3417 3416 3416 3415 3415 3414 3414 3413 3413 3412 3412 3411 3411 3410 3410 3409 3408 3408 3407 3406 3406 3405 3404 3403 3403 3402 3401 3400 3399 3398 3397 3396 3395 3394 3393 3392 3391 3390 3389 3388 3387 3386 3385 3384 3383 3382 3381 3380 3379 3378 3377 3376 3375 3374 3373 3372 3371 3371 3370 3369 -9 
-9 3450 3451 3452 3453 3454 3455 3456 3457 3457 3458 3458 3459 3459 3461 3461 3462 3463 3464 3465 3466 3467 3468 3468 3469 3470 3470 3470 3471 3471 3471 3471 3471 3471 3470 3469 3469 3469 3468 3468 3466 3466 3465 3464 3463 3462 3461 3460 3459 3457 3456 3455 3454 3453 3451 3450 3449 3447 3445 3444 3442 3440 3438 3437 3435 3434 3432 3431 3429 3428 3427 3425 3424 3423 3422 3421 3420 3420 3419 3418 3417 3417 3416 3416 3415 3415 3414 3414 3414 3414 3414 3414 3414 3414 3414 3415 3415 3416 3416 3417 3418 3419 3419 3420 3421 3422 3423 3424 3425 3427 3428 3429 3430 3431 3433 3434 3435 3436 3438 3439 3440 3442 3443 3444 3445 3447 3448 3449 3450 3451 3452 3453 3454 3455 3455 3456 3456 3457 3457 3456 3456 3457 3457 3457 3456 3456 3456 3456 3455 3455 3454 3453 3453 3452 3451 3450 3449 3448 3447 3446 3445 3444 3443 3441 3440 3439 3437 3436 3434 3433 3431 3430 3428 3427 3425 3424 3422 3421 3420 3419 3418 3417 3416 3415 3414 3414 3413 3412 3412 3412 3411 3411 3411 3411 3410 3410 3410 3410 3410 3410 3410 3410 3410 3410 3410 3410 3411 3411 3411 3411 3412 3412 3412 3413 3413 3413 3414 3414 3415 3415 3416 3416 3416 3417 3417 3417 3417 3418 3418 3418 3418 3418 3418 3418 3418 3417 3417 3417 3416 3416 3415 3415 3414 3414 3413 3413 3412 3412 3411 3410 3410 3409 3409 3408 3408 3407 3406 3406 3405 3404 3404 3403 3402 3401 3401 3400 3399 3398 3397 3396 3395 3395 3394 3393 3392 3391 3390 3389 3388 3387 3386 3385 3384 3383 3382 3381 3380 3379 3378 3377 3376 3375 3374 3374 3373 3372 3371 3371 3370 3369 -9 
-9 3458 3459 3459 3460 3461 3462 3463 3464 3465 3466 3466 3467 3467 3468 3468 3469 3470 3471 3472 3473 3474 3474 3475 3476 3476 3477 3477 3477 3477 3477 3477 3477 3476 3476 3476 3475 3474 3473 3473 3472 3471 3470 3469 3468 3467 3466 3465 3464 3462 3461 3460 3458 3456 3455 3453 3452 3450 3448 3447 3445 3443 3441 3439 3438 3436 3434 3433 3431 3430 3428 3427 3426 3425 3424 3423 3422 3421 3420 3420 3419 3418 3418 3417 3416 3416 3416 3415 3415 3415 3415 3415 3415 3415 3416 3416 3417 3417 3418 3418 3419 3420 3421 3422 3423 3424 3425 3426 3427 3429 3430 3431 3432 3433 3435 3436 3437 3439 3440 3441 3443 3444 3445 3447 3448 3449 3451 3452 3453 3454 3455 3456 3457 3458 3458 3459 3460 3460 3461 3459 3460 3460 3460 3460 3460 3459 3459 3459 3458 3458 3457 3457 3456 3455 3454 3453 3452 3451 3450 3449 3448 3447 3445 3444 3443 3441 3440 3438 3437 3435 3433 3432 3430 3429 3427 3426 3424 3423 3422 3420 3419 3418 3417 3416 3415 3415 3414 3413 3413 3412 3412 3412 3411 3411 3411 3411 3411 3410 3410 3410 3410 3410 3410 3410 3410 3410 3410 3411 3411 3411 3411 3412 3412 3412 3413 3413 3413 3414 3414 3415 3415 3415 3416 3416 3416 3416 3417 3417 3417 3417 3417 3417 3417 3417 3416 3416 3416 3415 3415 3414 3414 3413 3413 3412 3412 3411 3410 3410 3409 3409 3408 3408 3407 3406 3406 3405 3404 3404 3403 3402 3402 3401 3400 3399 3399 3398 3397 3396 3395 3394 3393 3393 3392 3391 3390 3389 3388 3387 3386 3385 3384 3383 3382 3382 3381 3380 3379 3378 3377 3376 3375 3375 3374 3373 3372 3372 3371 3371 3370 3370 -9 
-9 3466 3466 3467 3468 3469 3470 3471 3472 3473 3473 3474 3474 3475 3475 3476 3477 3477 3478 3479 3480 3481 3481 3482 3483 3483 3483 3484 3484 3483 3483 3483 3483 3483 3482 3481 3480 3480 3479 3478 3477 3476 3475 3474 3473 3471 3470 3469 3468 3467 3465 3464 3462 3461 3459 3457 3455 3453 3451 3450 3448 3446 3444 3442 3440 3438 3436 3435 3433 3432 3430 3429 3428 3427 3426 3425 3424 3423 3422 3421 3420 3420 3419 3418 3418 3417 3417 3417 3416 3416 3416 3416 3416 3417 3417 3417 3418 3419 3419 3420 3421 3422 3422 3423 3424 3426 3427 3428 3429 3430 3432 3433 3434 3436 3437 3438 3440 3441 3442 3444 3445 3447 3448 3449 3451 3452 3453 3455 3456 3457 3458 3459 3460 3461 3462 3462 3463 3463 3462 3462 3463 3463 3463 3463 3463 3462 3462 3462 3461 3461 3460 3460 3459 3458 3457 3456 3455 3454 3453 3452 3451 3449 3448 3447 3445 3444 3442 3440 3439 3437 3436 3434 3432 3431 3429 3428 3426 3425 3423 3422 3421 3420 3418 3417 3417 3416 3415 3414 3414 3413 3413 3412 3412 3412 3411 3411 3411 3411 3411 3410 3410 3410 3410 3410 3410 3410 3410 3410 3411 3411 3411 3411 3412 3412 3412 3412 3413 3413 3414 3414 3414 3415 3415 3415 3415 3416 3416 3416 3416 3416 3416 3416 3416 3416 3415 3415 3415 3414 3414 3413 3412 3412 3411 3411 3410 3409 3409 3408 3407 3407 3406 3406 3405 3404 3404 3403 3402 3402 3401 3400 3399 3399 3398 3397 3396 3396 3395 3394 3393 3392 3391 3391 3390 3389 3388 3387 3386 3385 3384 3384 3383 3382 3381 3380 3379 3378 3378 3377 3376 3375 3375 3374 3373 3373 3372 3371 3371 3371 3370 3370 -9 
-9 3474 3474 3475 3476 3477 3478 3479 3480 3481 3481 3482 3482 3483 3483 3484 3484 3485 3486 3486 3487 3488 3488 3489 3490 3490 3490 3490 3490 3490 3490 3490 3489 3488 3488 3487 3486 3485 3484 3483 3482 3481 3480 3479 3478 3476 3475 3474 3472 3471 3469 3468 3466 3464 3463 3461 3459 3457 3455 3453 3450 3448 3446 3444 3442 3440 3438 3437 3435 3434 3432 3431 3430 3428 3427 3426 3425 3424 3423 3422 3422 3421 3420 3420 3419 3419 3418 3418 3418 3418 3418 3418 3418 3418 3418 3419 3419 3420 3421 3421 3422 3423 3424 3425 3426 3427 3428 3430 3431 3432 3434 3435 3436 3438 3439 3440 3442 3443 3445 3446 3448 3449 3451 3452 3453 3455 3456 3457 3458 3460 3461 3462 3463 3464 3465 3465 3466 3465 3465 3465 3466 3466 3466 3466 3466 3466 3465 3465 3464 3464 3463 3463 3462 3461 3460 3459 3458 3457 3456 3455 3453 3452 3451 3449 3448 3446 3445 3443 3441 3439 3438 3436 3434 3433 3431 3429 3428 3426 3425 3423 3422 3421 3420 3419 3418 3417 3416 3415 3415 3414 3414 3413 3413 3412 3412 3412 3411 3411 3411 3411 3410 3410 3410 3410 3410 3410 3410 3410 3410 3410 3411 3411 3411 3411 3412 3412 3412 3413 3413 3413 3414 3414 3414 3414 3415 3415 3415 3415 3415 3415 3415 3415 3415 3414 3414 3414 3413 3413 3412 3412 3411 3410 3410 3409 3408 3408 3407 3406 3406 3405 3404 3404 3403 3402 3402 3401 3400 3399 3399 3398 3397 3396 3396 3395 3394 3393 3393 3392 3391 3390 3389 3388 3388 3387 3386 3385 3384 3383 3383 3382 3381 3380 3379 3379 3378 3377 3376 3376 3375 3374 3374 3373 3373 3372 3372 3371 3371 3370 3370 3370 -9 
-9 3482 3482 3483 3484 3485 3486 3487 3488 3489 3489 3490 3490 3490 3491 3491 3492 3493 3493 3494 3494 3495 3495 3496 3496 3497 3497 3497 3496 3496 3496 3495 3495 3494 3493 3492 3492 3491 3489 3488 3487 3486 3485 3483 3482 3481 3479 3478 3477 3475 3474 3472 3470 3468 3466 3464 3462 3460 3458 3455 3453 3451 3449 3447 3445 3443 3441 3439 3437 3436 3434 3433 3431 3430 3429 3428 3427 3426 3425 3424 3423 3422 3422 3421 3421 3420 3420 3419 3419 3419 3419 3419 3419 3419 3420 3420 3421 3421 3422 3423 3424 3424 3425 3427 3428 3429 3430 3431 3433 3434 3436 3437 3438 3440 3441 3443 3444 3446 3447 3449 3450 3452 3453 3454 3456 3457 3459 3460 3461 3462 3464 3465 3466 3467 3466 3466 3467 3468 3468 3468 3469 3469 3469 3469 3469 3468 3468 3468 3467 3467 3466 3466 3465 3464 3463 3462 3461 3460 3459 3457 3456 3455 3453 3452 3450 3449 3447 3445 3443 3442 3440 3438 3436 3435 3433 3431 3429 3428 3426 3425 3424 3422 3421 3420 3419 3418 3417 3416 3416 3415 3414 3414 3413 3413 3412 3412 3412 3411 3411 3411 3411 3410 3410 3410 3410 3410 3410 3410 3410 3410 3410 3410 3411 3411 3411 3411 3412 3412 3412 3413 3413 3413 3413 3414 3414 3414 3414 3414 3414 3414 3414 3414 3413 3413 3413 3412 3412 3411 3411 3410 3409 3409 3408 3407 3406 3406 3405 3404 3404 3403 3402 3402 3401 3400 3399 3399 3398 3397 3396 3396 3395 3394 3393 3393 3392 3391 3390 3390 3389 3388 3387 3386 3385 3385 3384 3383 3382 3382 3381 3380 3379 3379 3378 3377 3377 3376 3375 3375 3374 3374 3373 3373 3372 3372 3371 3371 3371 3370 3370 3370 -9 
-9 3490 3490 3491 3492 3493 3495 3495 3496 3497 3497 3498 3498 3498 3499 3499 3500 3500 3501 3501 3502 3502 3503 3503 3503 3503 3503 3503 3503 3503 3502 3501 3501 3500 3499 3498 3497 3496 3495 3493 3492 3491 3489 3488 3487 3485 3484 3482 3481 3479 3477 3476 3474 3472 3470 3468 3465 3463 3460 3458 3456 3453 3451 3449 3447 3445 3443 3441 3439 3437 3436 3434 3433 3432 3430 3429 3428 3427 3426 3425 3425 3424 3423 3422 3422 3421 3421 3421 3420 3420 3420 3420 3420 3421 3421 3421 3422 3423 3423 3424 3425 3426 3427 3428 3429 3431 3432 3433 3435 3436 3437 3439 3440 3442 3443 3445 3446 3448 3449 3451 3452 3454 3455 3457 3458 3460 3461 3463 3464 3465 3466 3466 3467 3468 3468 3469 3470 3470 3471 3471 3471 3472 3472 3472 3472 3471 3471 3471 3470 3470 3469 3468 3468 3467 3466 3465 3464 3463 3461 3460 3459 3457 3456 3454 3453 3451 3449 3447 3446 3444 3442 3440 3438 3436 3435 3433 3431 3429 3428 3426 3425 3424 3422 3421 3420 3419 3418 3417 3416 3416 3415 3414 3414 3413 3413 3412 3412 3412 3411 3411 3411 3410 3410 3410 3410 3410 3410 3410 3410 3410 3410 3410 3410 3410 3411 3411 3411 3411 3412 3412 3412 3412 3413 3413 3413 3413 3413 3413 3413 3413 3413 3413 3412 3412 3411 3411 3410 3410 3409 3409 3408 3407 3406 3405 3405 3404 3403 3402 3402 3401 3400 3399 3399 3398 3397 3397 3396 3395 3394 3393 3393 3392 3391 3390 3390 3389 3388 3387 3386 3386 3385 3384 3383 3383 3382 3381 3380 3380 3379 3378 3378 3377 3376 3376 3375 3375 3374 3374 3373 3373 3372 3372 3372 3371 3371 3371 3371 3370 3370 3370 -9 
-9 3497 3498 3499 3500 3502 3503 3503 3504 3505 3505 3506 3506 3506 3507 3507 3507 3508 3508 3509 3509 3509 3510 3510 3510 3510 3510 3510 3509 3509 3508 3507 3506 3505 3504 3503 3502 3501 3499 3498 3497 3495 3494 3492 3491 3490 3488 3487 3485 3483 3481 3479 3477 3475 3473 3471 3468 3466 3463 3461 3458 3456 3454 3451 3449 3447 3445 3443 3441 3439 3437 3436 3434 3433 3432 3431 3430 3429 3428 3427 3426 3425 3424 3424 3423 3423 3422 3422 3422 3421 3421 3421 3422 3422 3422 3423 3423 3424 3425 3425 3426 3427 3428 3430 3431 3432 3433 3435 3436 3437 3439 3440 3442 3443 3445 3447 3448 3450 3451 3453 3455 3456 3458 3459 3461 3462 3464 3465 3466 3466 3467 3468 3469 3470 3471 3472 3472 3473 3474 3474 3474 3474 3474 3474 3474 3474 3474 3473 3473 3473 3472 3471 3470 3470 3469 3468 3466 3465 3464 3463 3461 3460 3458 3457 3455 3453 3452 3450 3448 3446 3444 3442 3440 3438 3436 3435 3433 3431 3429 3428 3426 3425 3424 3422 3421 3420 3419 3418 3417 3416 3416 3415 3415 3414 3413 3413 3412 3412 3412 3411 3411 3411 3410 3410 3410 3410 3410 3410 3410 3410 3410 3410 3410 3410 3410 3410 3410 3411 3411 3411 3411 3412 3412 3412 3412 3412 3412 3412 3412 3412 3412 3411 3411 3411 3410 3410 3409 3408 3408 3407 3406 3405 3404 3404 3403 3402 3401 3400 3400 3399 3398 3397 3397 3396 3395 3394 3394 3393 3392 3391 3390 3390 3389 3388 3387 3386 3386 3385 3384 3383 3383 3382 3381 3380 3380 3379 3378 3378 3377 3376 3376 3375 3375 3374 3374 3373 3373 3372 3372 3372 3371 3371 3371 3371 3371 3370 3370 3370 3370 3370 -9 
-9 3505 3506 3507 3508 3509 3510 3511 3512 3513 3513 3514 3514 3514 3514 3515 3515 3515 3516 3516 3516 3517 3517 3517 3517 3517 3517 3516 3516 3515 3514 3513 3512 3511 3510 3508 3507 3506 3504 3503 3501 3500 3498 3497 3495 3494 3492 3490 3489 3487 3485 3483 3481 3478 3476 3474 3471 3469 3466 3464 3461 3459 3456 3454 3451 3449 3447 3445 3443 3441 3439 3438 3436 3435 3434 3433 3431 3430 3429 3428 3427 3427 3426 3425 3425 3424 3424 3423 3423 3423 3423 3423 3423 3423 3423 3424 3425 3425 3426 3427 3428 3429 3430 3431 3432 3434 3435 3436 3438 3439 3441 3442 3444 3445 3447 3449 3450 3452 3453 3455 3457 3458 3460 3462 3463 3465 3466 3466 3467 3469 3470 3471 3472 3473 3474 3474 3475 3476 3476 3477 3477 3477 3477 3477 3477 3477 3477 3476 3476 3475 3475 3474 3473 3472 3471 3470 3469 3468 3467 3465 3464 3462 3461 3459 3457 3456 3454 3452 3450 3448 3446 3444 3442 3440 3438 3436 3434 3433 3431 3429 3428 3426 3425 3423 3422 3421 3420 3419 3418 3417 3417 3416 3415 3415 3414 3413 3413 3412 3412 3411 3411 3411 3410 3410 3410 3410 3409 3409 3409 3409 3409 3409 3409 3409 3410 3410 3410 3410 3410 3410 3411 3411 3411 3411 3411 3411 3411 3411 3411 3411 3410 3410 3410 3409 3409 3408 3408 3407 3406 3405 3404 3404 3403 3402 3401 3400 3399 3398 3398 3397 3396 3395 3394 3394 3393 3392 3391 3390 3390 3389 3388 3387 3386 3386 3385 3384 3383 3383 3382 3381 3380 3380 3379 3378 3378 3377 3376 3376 3375 3375 3374 3374 3373 3373 3372 3372 3372 3371 3371 3371 3371 3370 3370 3370 3370 3370 3370 3370 3370 3370 -9 
-9 3513 3514 3515 3516 3517 3518 3519 3520 3521 3521 3521 3522 3522 3522 3522 3523 3523 3523 3523 3524 3524 3524 3524 3524 3523 3523 3522 3522 3521 3520 3519 3518 3516 3515 3513 3512 3510 3509 3507 3506 3504 3503 3501 3499 3498 3496 3494 3492 3490 3488 3486 3484 3482 3479 3477 3474 3472 3469 3466 3464 3461 3458 3456 3453 3451 3449 3447 3445 3443 3441 3439 3438 3436 3436 3434 3433 3432 3431 3430 3429 3428 3427 3427 3426 3425 3425 3425 3424 3424 3424 3424 3424 3424 3425 3425 3426 3427 3427 3428 3429 3430 3431 3432 3434 3435 3436 3438 3439 3441 3442 3444 3446 3447 3449 3451 3452 3454 3456 3457 3459 3461 3462 3464 3465 3467 3467 3468 3470 3471 3472 3473 3474 3475 3476 3477 3478 3478 3479 3479 3479 3480 3480 3480 3480 3480 3479 3479 3478 3478 3477 3477 3476 3475 3474 3473 3472 3470 3469 3468 3466 3465 3463 3461 3460 3458 3456 3454 3452 3450 3448 3446 3444 3442 3440 3438 3436 3434 3432 3431 3429 3427 3426 3425 3423 3422 3421 3420 3419 3418 3417 3417 3416 3415 3414 3414 3413 3413 3412 3412 3411 3411 3410 3410 3410 3409 3409 3409 3409 3409 3409 3409 3409 3409 3409 3409 3409 3409 3409 3410 3410 3410 3410 3410 3410 3410 3410 3410 3410 3410 3409 3409 3408 3408 3407 3407 3406 3405 3404 3404 3403 3402 3401 3400 3399 3398 3397 3396 3396 3395 3394 3393 3392 3391 3391 3390 3389 3388 3387 3386 3386 3385 3384 3383 3382 3382 3381 3380 3379 3379 3378 3377 3377 3376 3375 3375 3374 3374 3373 3373 3372 3372 3371 3371 3371 3371 3370 3370 3370 3370 3370 3370 3370 3370 3370 3370 3370 3370 3370 3371 -9 
-9 3520 3522 3523 3524 3525 3526 3527 3528 3528 3529 3529 3529 3530 3530 3530 3530 3530 3530 3531 3531 3531 3531 3531 3530 3530 3529 3529 3528 3527 3526 3525 3523 3522 3520 3519 3517 3515 3514 3512 3510 3509 3507 3505 3504 3502 3500 3498 3496 3494 3492 3490 3487 3485 3482 3480 3477 3474 3472 3469 3466 3463 3461 3458 3456 3453 3451 3449 3447 3445 3443 3441 3440 3438 3437 3435 3434 3434 3433 3432 3431 3430 3429 3428 3428 3427 3426 3426 3426 3425 3425 3425 3425 3426 3426 3427 3427 3428 3429 3430 3431 3432 3433 3434 3435 3437 3438 3439 3441 3442 3444 3446 3447 3449 3451 3452 3454 3456 3458 3459 3461 3463 3464 3466 3468 3468 3469 3471 3472 3473 3474 3476 3477 3478 3478 3479 3480 3481 3481 3482 3482 3482 3482 3482 3482 3482 3482 3481 3481 3480 3480 3479 3478 3477 3476 3475 3474 3473 3472 3470 3469 3467 3466 3464 3462 3460 3458 3456 3454 3452 3450 3448 3446 3444 3442 3440 3438 3436 3434 3432 3430 3429 3427 3426 3424 3423 3422 3421 3420 3419 3418 3417 3416 3416 3415 3414 3414 3413 3412 3412 3411 3411 3410 3410 3410 3409 3409 3409 3409 3409 3408 3408 3408 3408 3408 3408 3409 3409 3409 3409 3409 3409 3409 3409 3409 3409 3409 3409 3409 3408 3408 3408 3407 3407 3406 3405 3405 3404 3403 3402 3401 3400 3399 3398 3397 3396 3395 3394 3393 3393 3392 3391 3390 3389 3388 3387 3387 3386 3385 3384 3383 3382 3381 3381 3380 3379 3378 3378 3377 3376 3376 3375 3374 3374 3373 3373 3372 3372 3371 3371 3370 3370 3370 3370 3369 3369 3369 3369 3369 3369 3369 3369 3369 3369 3369 3370 3370 3370 3370 3371 -9 
-9 3528 3529 3530 3531 3532 3534 3535 3535 3536 3536 3537 3537 3537 3537 3537 3537 3538 3538 3538 3538 3538 3538 3537 3537 3537 3536 3535 3534 3533 3532 3530 3529 3527 3525 3524 3522 3520 3518 3516 3515 3513 3511 3509 3508 3506 3504 3502 3500 3498 3495 3493 3491 3488 3485 3483 3480 3477 3474 3471 3469 3466 3463 3460 3458 3456 3453 3451 3449 3447 3445 3443 3442 3440 3439 3437 3436 3435 3434 3433 3432 3431 3431 3430 3429 3428 3428 3427 3427 3427 3427 3427 3427 3427 3428 3428 3429 3429 3430 3431 3432 3433 3434 3435 3437 3438 3440 3441 3443 3444 3446 3447 3449 3451 3452 3454 3456 3458 3459 3461 3463 3465 3466 3468 3468 3470 3471 3473 3474 3475 3477 3478 3479 3480 3481 3482 3482 3483 3484 3484 3484 3485 3485 3485 3485 3485 3484 3484 3484 3483 3482 3482 3481 3480 3479 3478 3477 3475 3474 3473 3471 3470 3468 3466 3464 3462 3460 3458 3456 3454 3452 3450 3448 3446 3444 3441 3439 3437 3435 3434 3432 3430 3429 3427 3426 3424 3423 3422 3421 3420 3419 3418 3417 3416 3416 3415 3414 3413 3413 3412 3411 3411 3410 3410 3410 3409 3409 3409 3408 3408 3408 3408 3408 3408 3408 3408 3408 3408 3408 3408 3408 3408 3408 3408 3408 3408 3408 3408 3407 3407 3407 3406 3406 3405 3404 3404 3403 3402 3401 3400 3399 3398 3397 3396 3395 3394 3393 3392 3391 3390 3390 3389 3388 3387 3386 3385 3384 3383 3382 3381 3381 3380 3379 3378 3377 3377 3376 3375 3375 3374 3373 3373 3372 3371 3371 3370 3370 3370 3369 3369 3369 3368 3368 3368 3368 3368 3368 3368 3368 3368 3368 3368 3368 3369 3369 3369 3370 3370 3370 3371 -9 
-9 3535 3536 3538 3539 3540 3540 3542 3543 3543 3544 3543 3543 3543 3545 3545 3545 3545 3545 3545 3545 3545 3544 3544 3544 3543 3542 3542 3541 3539 3537 3536 3534 3533 3531 3529 3527 3525 3523 3521 3519 3517 3515 3513 3512 3510 3508 3506 3503 3501 3499 3496 3494 3491 3489 3486 3483 3480 3477 3474 3471 3468 3466 3463 3460 3457 3455 3453 3451 3449 3447 3445 3444 3442 3441 3439 3438 3437 3435 3434 3433 3432 3432 3431 3430 3429 3429 3428 3429 3428 3428 3428 3428 3429 3429 3429 3430 3431 3432 3432 3433 3435 3436 3437 3438 3440 3441 3443 3444 3446 3447 3449 3451 3452 3454 3456 3458 3460 3461 3463 3465 3467 3468 3470 3470 3472 3473 3475 3476 3478 3479 3480 3481 3482 3483 3484 3485 3485 3486 3486 3487 3487 3487 3487 3487 3487 3487 3486 3486 3485 3485 3484 3483 3482 3481 3480 3479 3478 3477 3475 3474 3472 3470 3468 3467 3465 3463 3461 3458 3456 3454 3452 3450 3447 3445 3443 3441 3439 3437 3435 3433 3431 3430 3428 3427 3425 3424 3423 3422 3421 3420 3419 3418 3417 3416 3415 3414 3414 3413 3412 3412 3411 3411 3410 3410 3409 3409 3408 3408 3408 3408 3408 3407 3407 3407 3407 3407 3407 3407 3407 3407 3407 3407 3407 3407 3407 3407 3407 3406 3406 3405 3405 3404 3404 3403 3402 3401 3400 3400 3399 3397 3396 3395 3394 3393 3392 3391 3390 3389 3388 3387 3386 3386 3385 3384 3383 3382 3381 3380 3379 3378 3377 3377 3376 3375 3374 3373 3373 3372 3371 3371 3370 3370 3369 3369 3368 3368 3368 3367 3367 3367 3367 3366 3366 3366 3366 3366 3367 3367 3367 3367 3367 3368 3368 3369 3369 3369 3370 3370 3371 -9 
-9 3542 3544 3545 3546 3547 3548 3548 3549 3549 3550 3550 3550 3551 3551 3551 3551 3552 3552 3552 3552 3551 3551 3551 3550 3550 3549 3548 3547 3545 3543 3542 3540 3538 3536 3534 3532 3530 3528 3526 3524 3522 3519 3517 3515 3513 3511 3509 3507 3505 3502 3500 3497 3494 3491 3489 3486 3483 3480 3477 3474 3471 3468 3465 3463 3460 3457 3455 3453 3451 3449 3447 3446 3444 3443 3441 3440 3439 3437 3436 3435 3434 3433 3432 3432 3431 3430 3430 3429 3429 3430 3430 3430 3430 3431 3431 3432 3432 3433 3434 3435 3436 3437 3439 3440 3441 3443 3444 3446 3447 3449 3451 3452 3454 3456 3458 3459 3461 3463 3465 3467 3468 3470 3472 3472 3474 3475 3477 3478 3480 3481 3482 3483 3484 3485 3486 3487 3488 3488 3489 3489 3489 3490 3490 3490 3489 3489 3489 3488 3488 3487 3487 3486 3485 3484 3483 3482 3480 3479 3477 3476 3474 3472 3471 3469 3467 3465 3463 3460 3458 3456 3454 3452 3449 3447 3445 3443 3441 3438 3437 3435 3433 3431 3429 3428 3426 3425 3424 3423 3421 3420 3419 3418 3418 3417 3416 3415 3414 3413 3413 3412 3411 3411 3410 3410 3409 3409 3408 3408 3408 3407 3407 3407 3407 3407 3407 3407 3407 3407 3407 3406 3406 3406 3406 3406 3406 3406 3405 3405 3405 3404 3404 3403 3402 3402 3401 3400 3399 3398 3397 3396 3395 3393 3392 3391 3390 3389 3388 3387 3386 3385 3384 3383 3382 3381 3380 3379 3378 3378 3377 3376 3375 3374 3373 3372 3372 3371 3370 3370 3369 3368 3368 3367 3367 3367 3366 3366 3366 3365 3365 3365 3365 3365 3365 3365 3365 3365 3365 3366 3366 3366 3367 3367 3368 3368 3369 3369 3370 3370 3371 -9 
-9 3549 3550 3552 3553 3554 3555 3556 3556 3557 3557 3557 3557 3558 3558 3558 3558 3558 3558 3557 3558 3558 3558 3557 3557 3556 3555 3554 3553 3551 3549 3547 3546 3544 3542 3539 3537 3535 3533 3530 3528 3526 3524 3522 3520 3518 3515 3513 3511 3508 3506 3503 3500 3498 3495 3492 3489 3485 3482 3480 3476 3473 3470 3467 3465 3462 3460 3457 3455 3453 3451 3449 3447 3446 3445 3443 3442 3441 3439 3438 3437 3436 3435 3434 3433 3433 3432 3431 3431 3431 3431 3431 3431 3431 3431 3432 3433 3433 3434 3435 3436 3438 3439 3440 3442 3443 3444 3446 3447 3449 3451 3452 3454 3456 3458 3459 3461 3463 3465 3467 3468 3470 3472 3474 3474 3476 3477 3479 3480 3482 3483 3484 3485 3486 3487 3488 3489 3490 3490 3491 3491 3492 3492 3492 3492 3492 3491 3491 3491 3490 3490 3489 3488 3487 3486 3485 3484 3483 3481 3480 3478 3476 3475 3473 3471 3469 3467 3465 3463 3460 3458 3456 3453 3451 3449 3447 3444 3442 3440 3438 3436 3434 3432 3431 3429 3428 3426 3425 3424 3422 3421 3420 3419 3418 3417 3416 3415 3415 3414 3413 3412 3411 3411 3410 3410 3409 3409 3408 3408 3407 3407 3407 3407 3406 3406 3406 3406 3406 3406 3406 3406 3406 3405 3405 3405 3405 3405 3404 3404 3403 3403 3402 3402 3401 3400 3399 3398 3397 3396 3395 3394 3393 3392 3390 3389 3388 3387 3386 3385 3384 3383 3382 3381 3380 3379 3378 3377 3376 3375 3374 3373 3372 3372 3371 3370 3369 3369 3368 3367 3367 3366 3366 3365 3365 3364 3364 3364 3363 3363 3363 3363 3363 3363 3363 3363 3364 3364 3364 3365 3365 3365 3366 3367 3367 3368 3368 3369 3370 3370 3371 -9 
-9 3556 3558 3559 3559 3560 3562 3563 3563 3564 3564 3564 3565 3565 3565 3565 3565 3564 3564 3564 3564 3564 3564 3564 3563 3562 3561 3560 3559 3556 3555 3553 3551 3549 3547 3545 3543 3540 3537 3535 3533 3531 3528 3526 3524 3522 3519 3517 3514 3512 3509 3506 3504 3501 3498 3495 3492 3488 3485 3482 3479 3476 3473 3470 3467 3464 3462 3460 3457 3456 3454 3452 3450 3448 3446 3446 3444 3443 3442 3440 3439 3438 3437 3436 3435 3435 3434 3433 3433 3432 3432 3432 3432 3433 3433 3434 3434 3435 3436 3437 3438 3439 3440 3442 3443 3444 3446 3448 3449 3450 3452 3454 3456 3457 3459 3461 3463 3465 3466 3468 3470 3472 3474 3476 3476 3477 3479 3481 3482 3483 3485 3486 3487 3488 3489 3490 3491 3492 3492 3493 3493 3494 3494 3494 3494 3494 3494 3493 3493 3492 3492 3491 3490 3489 3488 3487 3486 3485 3483 3482 3480 3479 3477 3475 3473 3471 3469 3467 3465 3462 3460 3458 3455 3453 3451 3448 3446 3444 3442 3439 3437 3436 3434 3432 3430 3429 3427 3426 3425 3423 3422 3421 3420 3419 3418 3417 3416 3415 3414 3413 3412 3412 3411 3410 3410 3409 3408 3408 3408 3407 3407 3406 3406 3406 3406 3406 3405 3405 3405 3405 3405 3405 3405 3404 3404 3404 3403 3403 3403 3402 3402 3401 3400 3399 3399 3398 3397 3396 3394 3393 3392 3391 3390 3389 3387 3386 3385 3384 3383 3382 3381 3380 3379 3378 3377 3376 3375 3374 3373 3372 3371 3370 3369 3368 3368 3367 3366 3365 3365 3364 3364 3363 3363 3362 3362 3362 3362 3361 3361 3361 3361 3361 3362 3362 3362 3362 3363 3363 3364 3364 3365 3365 3366 3367 3367 3368 3369 3370 3370 3371 -9 
-9 3564 3565 3566 3566 3567 3568 3568 3570 3571 3571 3571 3571 3572 3572 3572 3571 3571 3571 3571 3570 3570 3570 3569 3568 3567 3566 3565 3564 3562 3561 3559 3557 3555 3553 3550 3548 3545 3542 3540 3538 3535 3533 3531 3528 3526 3523 3521 3518 3516 3513 3510 3507 3504 3501 3498 3495 3491 3488 3485 3482 3478 3476 3473 3470 3467 3464 3462 3460 3457 3456 3454 3452 3450 3448 3447 3445 3444 3443 3443 3441 3440 3439 3438 3437 3437 3436 3435 3435 3434 3434 3434 3434 3434 3435 3435 3436 3437 3437 3438 3439 3441 3442 3443 3445 3446 3447 3449 3451 3452 3454 3455 3457 3459 3461 3462 3464 3466 3468 3470 3472 3474 3475 3476 3478 3479 3481 3482 3484 3485 3486 3488 3489 3490 3491 3492 3493 3494 3494 3495 3495 3496 3496 3496 3496 3496 3496 3495 3495 3495 3494 3493 3492 3492 3491 3490 3488 3487 3486 3484 3483 3481 3479 3477 3475 3473 3471 3469 3467 3464 3462 3459 3457 3455 3452 3450 3448 3445 3443 3441 3439 3437 3435 3433 3432 3430 3428 3427 3426 3424 3423 3422 3421 3420 3418 3417 3416 3415 3414 3414 3413 3412 3411 3410 3410 3409 3408 3408 3407 3407 3407 3406 3406 3406 3405 3405 3405 3405 3404 3404 3404 3404 3404 3403 3403 3403 3402 3402 3401 3401 3400 3400 3399 3398 3397 3396 3395 3394 3393 3392 3390 3389 3388 3387 3385 3384 3383 3382 3381 3380 3379 3378 3377 3376 3374 3373 3372 3371 3370 3369 3368 3368 3367 3366 3365 3364 3364 3363 3362 3362 3361 3361 3361 3360 3360 3360 3360 3359 3359 3359 3360 3360 3360 3360 3360 3361 3361 3362 3362 3363 3364 3365 3365 3366 3367 3368 3369 3370 3370 3371 -9 
-9 3571 3572 3573 3573 3574 3575 3575 3576 3576 3576 3577 3577 3577 3577 3577 3578 3578 3578 3577 3577 3576 3576 3575 3574 3573 3572 3571 3570 3568 3566 3565 3563 3560 3558 3556 3553 3551 3548 3545 3543 3540 3538 3535 3533 3530 3528 3525 3522 3520 3517 3514 3511 3508 3504 3501 3498 3495 3491 3488 3485 3481 3478 3475 3472 3469 3467 3465 3462 3460 3458 3457 3455 3453 3451 3449 3448 3446 3445 3444 3442 3441 3440 3440 3439 3439 3438 3437 3437 3436 3436 3436 3436 3436 3436 3437 3437 3438 3439 3440 3441 3442 3443 3445 3446 3447 3449 3451 3452 3454 3455 3457 3458 3460 3462 3464 3466 3468 3469 3471 3473 3475 3477 3477 3479 3481 3482 3484 3485 3487 3488 3489 3491 3492 3493 3494 3495 3495 3496 3497 3497 3498 3498 3498 3498 3498 3498 3497 3497 3497 3496 3495 3495 3494 3493 3492 3490 3489 3488 3486 3485 3483 3481 3479 3477 3475 3473 3471 3468 3466 3464 3461 3459 3456 3454 3452 3449 3447 3445 3442 3440 3438 3436 3435 3433 3431 3429 3428 3427 3425 3424 3423 3421 3420 3419 3418 3417 3416 3415 3414 3413 3412 3411 3410 3410 3409 3408 3408 3407 3407 3406 3406 3405 3405 3405 3404 3404 3404 3404 3404 3403 3403 3403 3402 3402 3402 3401 3401 3400 3400 3399 3398 3397 3397 3396 3395 3393 3392 3391 3390 3389 3387 3386 3385 3384 3382 3381 3380 3379 3378 3377 3375 3374 3373 3372 3371 3370 3369 3368 3367 3366 3365 3364 3363 3363 3362 3361 3361 3360 3360 3359 3359 3358 3358 3358 3358 3357 3357 3357 3358 3358 3358 3358 3359 3359 3360 3360 3361 3361 3362 3363 3364 3365 3366 3367 3367 3368 3369 3371 3372 -9 
-9 3576 3578 3579 3580 3581 3582 3582 3582 3583 3583 3583 3583 3583 3583 3583 3583 3583 3583 3584 3583 3583 3582 3581 3581 3580 3578 3577 3576 3574 3572 3570 3568 3566 3564 3561 3559 3556 3553 3550 3548 3545 3542 3540 3537 3535 3532 3529 3527 3524 3521 3518 3515 3511 3508 3504 3501 3497 3495 3491 3488 3484 3481 3478 3475 3472 3469 3467 3465 3463 3460 3458 3457 3455 3454 3452 3450 3449 3447 3446 3445 3443 3442 3441 3440 3441 3440 3439 3439 3438 3438 3438 3438 3438 3438 3439 3439 3440 3441 3441 3442 3444 3445 3446 3447 3449 3450 3452 3454 3455 3457 3458 3460 3462 3463 3465 3467 3469 3471 3473 3475 3476 3478 3479 3481 3482 3484 3485 3487 3488 3490 3491 3492 3493 3494 3495 3496 3497 3498 3498 3499 3499 3500 3500 3500 3500 3500 3499 3499 3499 3498 3497 3497 3496 3495 3494 3493 3491 3490 3488 3487 3485 3483 3481 3479 3477 3475 3473 3470 3468 3466 3463 3461 3458 3456 3453 3451 3449 3446 3444 3442 3440 3438 3436 3434 3432 3431 3429 3428 3426 3425 3423 3422 3421 3420 3419 3418 3416 3415 3414 3413 3412 3411 3411 3410 3409 3408 3408 3407 3407 3406 3406 3405 3405 3404 3404 3404 3403 3403 3403 3403 3402 3402 3402 3401 3401 3400 3400 3399 3398 3398 3397 3396 3395 3394 3393 3392 3391 3389 3388 3387 3386 3384 3383 3382 3380 3379 3378 3377 3376 3374 3373 3372 3371 3370 3369 3368 3367 3366 3365 3364 3363 3362 3361 3360 3359 3359 3358 3358 3357 3357 3356 3356 3356 3356 3355 3355 3355 3356 3356 3356 3356 3357 3357 3358 3358 3359 3360 3360 3361 3362 3363 3364 3365 3366 3367 3368 3369 3371 3372 -9 
-9 3583 3585 3586 3587 3587 3588 3589 3589 3589 3589 3590 3590 3590 3590 3590 3589 3589 3589 3588 3588 3589 3588 3587 3587 3586 3584 3583 3581 3580 3578 3576 3574 3572 3569 3567 3564 3561 3559 3555 3553 3550 3547 3545 3542 3539 3537 3534 3531 3528 3525 3522 3518 3515 3512 3508 3505 3501 3497 3494 3491 3487 3484 3481 3477 3475 3472 3469 3467 3465 3463 3461 3459 3458 3456 3454 3453 3451 3450 3448 3447 3446 3445 3443 3442 3441 3442 3441 3441 3440 3440 3440 3440 3440 3440 3440 3441 3441 3442 3443 3444 3445 3446 3448 3449 3450 3452 3453 3455 3457 3458 3459 3461 3463 3465 3467 3468 3470 3472 3474 3476 3478 3480 3480 3482 3484 3485 3487 3488 3490 3491 3492 3494 3495 3496 3497 3498 3499 3499 3500 3501 3501 3501 3501 3501 3501 3501 3501 3501 3500 3500 3499 3499 3498 3497 3496 3494 3493 3492 3490 3489 3487 3485 3483 3481 3479 3477 3475 3472 3470 3467 3465 3462 3460 3457 3455 3453 3450 3448 3446 3443 3441 3439 3437 3435 3434 3432 3430 3429 3427 3426 3424 3423 3422 3421 3419 3418 3417 3416 3415 3414 3413 3412 3411 3410 3409 3408 3408 3407 3406 3406 3405 3405 3404 3404 3404 3403 3403 3402 3402 3402 3401 3401 3401 3400 3400 3399 3399 3398 3397 3396 3396 3395 3394 3393 3392 3390 3389 3388 3387 3385 3384 3382 3381 3380 3378 3377 3376 3375 3373 3372 3371 3370 3369 3368 3367 3365 3364 3363 3362 3361 3360 3359 3359 3358 3357 3356 3356 3355 3355 3354 3354 3354 3354 3353 3353 3353 3353 3354 3354 3354 3355 3355 3356 3356 3357 3358 3358 3359 3360 3361 3362 3363 3365 3366 3367 3368 3369 3371 3372 -9 
-9 3589 3592 3593 3593 3594 3595 3595 3595 3596 3596 3596 3596 3596 3596 3596 3596 3595 3595 3594 3594 3593 3594 3593 3592 3591 3590 3589 3587 3586 3584 3582 3579 3577 3575 3572 3569 3567 3563 3560 3558 3555 3552 3549 3547 3544 3541 3538 3535 3532 3529 3526 3523 3519 3516 3512 3508 3505 3501 3497 3493 3491 3487 3484 3480 3477 3475 3472 3470 3468 3466 3464 3461 3459 3459 3457 3456 3454 3452 3451 3449 3448 3447 3446 3445 3444 3443 3443 3443 3442 3442 3442 3441 3442 3442 3442 3443 3443 3444 3445 3446 3447 3448 3449 3450 3452 3453 3455 3456 3458 3459 3461 3462 3464 3466 3468 3470 3471 3473 3475 3477 3479 3481 3482 3483 3485 3487 3488 3490 3491 3493 3494 3495 3496 3497 3498 3499 3500 3501 3502 3502 3503 3503 3503 3503 3503 3503 3503 3503 3502 3502 3501 3500 3500 3499 3498 3496 3495 3494 3492 3491 3489 3487 3485 3483 3481 3479 3477 3474 3472 3469 3467 3464 3462 3459 3457 3454 3452 3449 3447 3445 3443 3441 3439 3437 3435 3433 3431 3430 3428 3427 3425 3424 3423 3421 3420 3419 3418 3416 3415 3414 3413 3412 3411 3410 3409 3408 3408 3407 3406 3406 3405 3404 3404 3403 3403 3403 3402 3402 3401 3401 3401 3400 3400 3399 3399 3398 3397 3397 3396 3395 3394 3393 3392 3391 3390 3389 3388 3386 3385 3384 3382 3381 3379 3378 3377 3375 3374 3373 3371 3370 3369 3368 3367 3366 3364 3363 3362 3361 3360 3359 3358 3357 3356 3355 3355 3354 3353 3353 3352 3352 3352 3352 3351 3351 3351 3351 3351 3352 3352 3352 3353 3353 3354 3355 3356 3356 3357 3358 3359 3361 3362 3363 3364 3365 3367 3368 3369 3371 3372 -9 
-9 -9 -9 -9 -9 -9 -9 -9 -9 -9 -9 -9 -9 -9 -9 -9 -9 -9 -9 -9 -9 -9 -9 -9 -9 -9 -9 -9 -9 -9 -9 -9 -9 -9 -9 -9 -9 -9 -9 -9 -9 -9 -9 -9 -9 -9 -9 -9 -9 -9 -9 -9 -9 -9 -9 -9 -9 -9 -9 -9 -9 -9 -9 -9 -9 -9 -9 -9 -9 -9 -9 -9 -9 -9 -9 -9 -9 -9 -9 -9 -9 -9 -9 -9 -9 -9 -9 -9 -9 -9 -9 -9 -9 -9 -9 -9 -9 -9 -9 -9 -9 -9 -9 -9 -9 -9 -9 -9 -9 -9 -9 -9 -9 -9 -9 -9 -9 -9 -9 -9 -9 -9 -9 -9 -9 -9 -9 -9 -9 -9 -9 -9 -9 -9 -9 -9 -9 -9 -9 -9 -9 -9 -9 -9 -9 -9 -9 -9 -9 -9 -9 -9 -9 -9 -9 -9 -9 -9 -9 -9 -9 -9 -9 -9 -9 -9 -9 -9 -9 -9 -9 -9 -9 -9 -9 -9 -9 -9 -9 -9 -9 -9 -9 -9 -9 -9 -9 -9 -9 -9 -9 -9 -9 -9 -9 -9 -9 -9 -9 -9 -9 -9 -9 -9 -9 -9 -9 -9 -9 -9 -9 -9 -9 -9 -9 -9 -9 -9 -9 -9 -9 -9 -9 -9 -9 -9 -9 -9 -9 -9 -9 -9 -9 -9 -9 -9 -9 -9 -9 -9 -9 -9 -9 -9 -9 -9 -9 -9 -9 -9 -9 -9 -9 -9 -9 -9 -9 -9 -9 -9 -9 -9 -9 -9 -9 -9 -9 -9 -9 -9 -9 -9 -9 -9 -9 -9 -9 -9 -9 -9 -9 -9 -9 -9 -9 -9 -9 -9 -9 -9 -9 -9 -9 -9 -9 -9 -9 -9 -9 -9 -9 
